P3
300 200
255
26  17  2   26  17  2   27  18  3   27  18  3   29  17  5   30  18  6   31  18  9   32  19  10  97  87  78  180 170 161 186 177 172 90  81  76  39  31  29  161 153 151 117 111 111 96  91  88  56  48  45  60  53  47  54  46  43  100 92  89  142 134 131 144 136 133 27  17  15  122 113 108 191 178 172 186 172 163 114 96  86  77  55  42  62  36  23  66  37  21  67  36  18  71  38  19  77  42  22  76  41  21  74  42  21  78  46  25  82  50  27  85  53  28  88  54  29  90  56  29  94  57  30  99  62  35  102 61  33  104 63  35  113 68  39  113 68  39  115 65  38  123 72  43  129 72  45  133 83  58  101 69  54  40  26  17  34  33  31  32  40  43  28  35  43  30  38  49  38  45  63  56  66  91  73  89  122 82  106 144 105 138 181 114 153 196 97  139 179 122 139 165 131 95  97  161 98  83  188 117 99  182 114 91  185 121 96  180 126 100 170 128 104 167 130 104 178 133 110 174 130 103 168 132 98  172 136 102 175 131 104 177 137 112 166 135 115 167 140 121 168 136 123 169 135 123 168 136 123 168 136 123 168 136 125 168 136 125 168 135 126 168 135 126 168 138 130 162 133 125 168 140 136 129 106 100 93  75  71  94  81  75  88  79  74  93  86  78  92  82  73  90  80  70  95  82  74  95  80  73  89  72  65  49  26  20  36  6   0   55  15  5   86  34  20  156 91  71  179 99  74  185 92  59  199 91  53  205 88  44  219 93  45  218 92  42  212 94  46  212 86  45  217 67  40  219 54  35  222 43  36  218 35  31  211 23  24  201 11  13  206 13  14  206 13  14  207 22  20  214 32  31  213 37  37  207 31  34  202 18  26  197 12  18  209 27  24  212 33  26  219 40  35  224 45  40  228 40  41  221 37  37  211 41  41  212 47  45  216 44  44  212 42  42  205 46  40  209 47  42  217 45  41  220 42  40  223 41  38  225 41  39  229 40  38  232 43  41  226 43  39  228 46  42  218 36  33  222 38  36  206 21  19  223 38  36  227 42  40  222 40  37  223 45  43  209 34  31  201 21  20  218 34  34  231 41  43  232 39  44  228 41  50  227 42  47  220 38  27  229 48  31  224 44  30  221 48  34  215 55  41  217 64  50  220 63  48  218 54  45  209 33  35  198 21  29  197 32  39  195 43  42  190 48  34  182 56  34  153 37  24  128 17  8   156 41  36  169 60  57  160 69  66  126 55  49  65  15  8   52  15  7   93  60  53  111 80  75  105 76  72  101 76  71  103 83  76  95  81  72  96  82  71  95  83  71  93  83  74  92  83  74  91  82  77  88  83  79  86  81  78  81  80  78  78  78  76  75  77  72  67  72  66  64  70  60  65  66  58  65  65  55  72  63  56  76  63  57  80  61  57  76  61  58  67  62  58  68  67  62  74  66  63  75  62  56  79  60  54  94  69  62  120 89  84  140 107 100 145 108 100 142 108 99  134 99  95  114 83  78  90  65  61  75  54  49  73  53  52  72  58  55  68  58  56  62  57  53  63  58  55  64  59  56  60  56  53  60  56  53  60  59  57  58  57  55  57  56  52  57  56  52  57  56  52  56  55  51  58  55  50  57  54  49  56  53  46  56  53  46  56  53  48  53  50  45  53  50  45  58  55  50  63  60  55  63  60  55  62  57  54  62  57  54  74  69  66  76  71  68  75  70  67  73  68  65  70  65  62  67  62  59  62  56  56  56  51  48  52  48  45  54  51  46  54  51  46  53  50  45  53  50  45  55  52  47  55  52  47  53  50  45  57  54  49  57  54  49  57  54  49  58  55  50  59  56  51  60  57  52  60  57  52  59  56  51  60  59  54  60  59  54  60  59  54  60  59  54  60  59  54  60  59  54  63  60  55  63  60  55  66  63  58  66  63  58  66  61  57  66  61  57  67  62  58  68  63  59  70  65  61  71  66  60  68  63  57  69  65  56  71  67  58  69  65  56  59  52  44  41  34  26  27  20  12  21  14  6   22  15  7   22  15  7   22  15  7   22  15  7   
28  19  4   29  20  5   30  21  6   30  21  6   32  20  8   33  21  9   34  21  12  35  22  13  126 116 107 189 179 170 175 166 161 33  24  19  26  18  16  45  37  35  55  49  49  101 96  93  33  25  22  13  6   0   44  36  33  108 100 97  57  49  46  39  31  28  27  17  15  50  41  36  177 164 158 191 177 168 129 111 101 95  73  60  66  40  27  70  41  25  69  38  20  77  45  24  80  45  25  80  45  23  80  48  27  84  52  29  88  53  31  90  56  31  94  58  32  98  61  34  102 62  36  107 68  39  109 68  40  112 68  39  115 70  41  121 76  47  129 82  54  128 77  48  130 74  47  133 86  60  125 92  75  56  38  26  42  37  33  28  29  31  26  31  37  37  43  55  38  45  61  38  49  71  60  75  106 81  103 140 115 144 184 108 146 185 109 151 191 119 140 169 125 102 110 146 93  87  172 104 91  190 119 101 183 125 103 173 125 102 171 128 109 171 130 112 170 127 108 173 131 107 167 130 103 175 138 111 178 131 111 179 133 117 168 135 118 165 136 120 169 137 124 170 136 124 169 137 124 169 137 124 169 137 126 169 137 126 169 136 127 169 136 127 166 136 128 169 139 131 164 137 130 140 117 111 91  72  66  96  83  77  92  81  77  87  78  71  91  81  72  91  81  71  97  84  76  97  82  75  94  77  70  60  37  31  45  16  8   57  19  8   116 67  52  159 98  79  170 94  70  180 91  61  198 95  60  202 91  48  212 91  46  209 87  40  209 93  46  212 89  48  223 79  52  225 68  49  222 58  46  218 49  42  211 38  34  206 28  26  204 20  18  201 16  14  199 15  13  202 20  17  201 25  25  201 25  27  201 20  27  201 18  22  201 19  16  205 24  17  210 31  26  220 38  35  229 41  42  228 42  43  219 45  44  215 46  43  218 42  44  216 42  41  209 46  41  211 46  40  219 44  41  224 42  41  224 40  38  223 38  36  230 42  40  227 39  37  224 42  38  230 51  46  229 50  46  220 38  35  208 23  21  220 35  33  226 41  39  224 42  39  218 40  38  205 27  25  199 19  18  221 37  37  231 41  43  229 36  41  224 37  44  228 42  45  226 39  32  225 42  28  224 42  29  223 50  36  222 58  46  216 56  44  213 51  38  211 44  36  209 33  35  206 33  37  204 40  47  197 45  44  190 48  36  184 55  36  172 59  43  169 58  47  182 67  62  172 65  59  158 65  60  123 50  43  65  12  4   50  10  2   65  28  20  105 70  64  113 82  77  103 75  71  96  76  69  96  79  71  96  82  71  89  76  67  85  75  65  85  76  67  84  77  69  84  77  71  80  75  72  77  73  72  74  73  71  72  73  68  71  72  67  69  70  64  67  68  60  68  68  58  71  67  58  74  65  58  77  63  60  74  63  59  72  67  63  68  65  60  71  62  57  80  67  61  97  77  70  116 89  82  129 99  91  136 101 95  151 114 106 148 111 103 144 109 105 140 109 104 132 104 101 114 90  86  89  69  68  70  55  52  68  58  56  65  57  54  66  58  56  67  59  57  63  58  55  62  58  55  61  57  56  58  54  53  61  57  54  60  56  53  59  55  52  57  53  50  56  53  48  56  53  48  57  52  46  56  53  46  52  49  44  55  52  47  61  58  53  64  61  56  66  63  58  69  66  61  78  73  70  86  81  78  79  74  71  79  74  71  78  73  70  75  70  67  72  67  64  70  65  62  66  60  60  62  57  54  59  54  50  58  55  50  57  54  49  55  52  47  54  51  46  55  52  47  55  52  47  53  50  45  56  53  48  56  53  48  55  52  47  56  53  48  57  54  49  58  55  50  59  56  51  59  56  51  60  57  52  59  58  53  59  58  53  60  59  54  60  59  54  60  59  54  63  60  55  63  60  55  66  63  58  66  63  58  67  62  58  67  62  58  67  62  58  67  62  58  67  62  58  67  62  56  68  63  57  65  61  52  58  54  45  47  43  34  34  27  19  25  18  10  25  18  10  30  23  15  24  17  9   24  17  9   24  17  9   24  17  9   
32  23  8   33  24  9   36  24  10  36  24  10  36  24  12  37  25  13  38  25  16  39  26  17  120 110 101 189 179 170 120 111 106 65  56  51  85  77  75  133 125 123 129 123 123 104 99  96  49  41  38  45  38  32  46  41  37  110 105 101 117 112 108 146 138 135 78  69  64  53  44  39  159 146 140 184 170 161 130 110 99  102 79  65  70  42  28  77  48  30  76  45  25  86  54  33  83  51  28  85  53  28  90  55  33  94  60  35  95  59  35  97  60  34  103 63  38  109 67  42  110 66  41  113 69  42  114 68  42  120 75  46  118 73  44  121 76  45  134 89  58  127 80  50  135 84  55  143 97  71  128 91  72  110 84  69  31  17  8   43  38  35  31  32  36  30  34  45  31  37  53  42  50  71  37  51  77  108 127 157 113 139 172 114 146 184 73  112 151 70  99  133 83  84  105 109 77  88  154 88  89  191 118 109 175 127 107 162 124 103 179 135 126 177 132 126 154 114 104 167 130 114 172 135 117 179 137 121 177 127 120 181 130 126 179 139 129 167 133 121 171 137 127 171 137 127 170 138 127 170 138 127 170 138 127 170 138 127 170 137 128 170 137 128 168 135 128 171 141 133 165 136 130 155 130 125 105 84  79  93  78  71  96  83  77  88  78  69  89  79  69  93  81  69  94  81  72  96  82  73  105 88  80  93  73  64  91  64  55  101 67  55  127 81  66  143 88  68  147 79  56  166 86  59  185 92  59  188 85  50  197 88  49  197 84  42  203 87  46  207 88  48  212 81  51  209 73  49  201 64  45  197 57  42  197 54  40  203 49  39  202 33  26  201 23  19  196 17  12  194 15  11  192 17  14  194 18  18  197 18  21  199 19  20  199 15  13  200 17  13  204 20  18  214 29  27  228 35  38  232 42  44  223 43  42  216 41  38  223 40  42  222 42  41  216 44  40  215 43  39  224 42  41  228 43  41  226 38  37  221 33  32  231 43  41  223 40  36  219 42  36  235 61  54  241 68  62  219 41  37  210 28  25  217 32  30  226 41  39  225 41  39  212 32  31  200 20  19  198 18  17  226 42  42  230 40  42  227 37  39  225 36  40  231 43  42  233 40  35  229 36  27  228 41  32  231 53  43  233 61  51  218 50  41  215 44  36  207 36  29  207 35  33  207 41  41  202 43  47  192 42  41  188 46  36  182 52  38  176 63  47  176 69  53  174 62  51  165 58  50  166 73  65  141 64  54  89  31  20  68  20  10  103 56  48  118 77  71  116 79  73  103 74  68  98  75  67  93  75  65  91  74  66  87  73  64  83  75  64  80  76  64  81  74  66  78  71  65  77  67  66  75  65  64  74  65  66  75  67  65  72  67  64  70  67  62  68  68  60  69  69  61  70  70  62  70  70  62  72  69  64  71  68  61  72  67  63  73  66  60  76  65  59  87  70  63  104 81  75  123 94  88  139 106 99  149 112 104 149 112 104 147 110 102 143 108 104 144 111 106 142 112 110 136 111 107 125 104 103 117 99  97  83  69  68  74  63  61  69  58  56  66  55  53  61  51  50  62  54  52  64  56  54  60  55  52  59  54  51  58  53  50  56  51  48  54  49  46  54  49  45  55  50  46  58  50  47  57  52  48  59  54  51  59  54  51  65  60  57  75  70  67  85  80  77  89  84  81  87  82  79  85  80  77  88  80  78  87  79  77  85  77  75  81  73  71  79  71  69  78  70  68  75  67  65  71  66  63  66  61  57  65  60  56  62  57  53  58  53  49  56  51  47  56  51  47  55  50  46  54  49  45  57  52  48  56  51  47  55  50  46  56  51  47  57  52  48  59  54  50  60  55  51  59  56  51  59  56  51  59  56  51  60  57  52  61  58  53  62  59  54  63  60  55  64  59  55  64  59  55  61  56  52  62  57  53  65  60  56  67  62  58  68  63  59  68  63  59  69  61  58  68  61  55  58  51  45  49  42  34  39  32  24  32  25  17  29  22  14  28  21  13  28  21  13  29  22  14  28  21  13  28  21  13  27  20  12  27  20  12  
35  26  11  36  27  12  39  27  13  39  27  13  40  28  16  41  29  17  42  29  20  43  30  21  99  89  80  182 172 163 189 178 172 190 181 176 189 179 177 185 177 175 184 175 176 181 176 173 178 170 167 186 179 173 183 178 174 190 185 181 181 176 172 180 175 171 191 182 177 189 178 172 180 167 159 190 176 167 129 109 98  100 77  63  78  50  36  85  54  36  83  50  31  88  56  33  89  57  32  91  60  32  96  62  37  101 65  39  103 66  40  106 66  41  113 69  44  118 72  48  118 72  48  122 75  49  119 72  44  131 84  56  132 87  56  126 81  48  137 92  59  136 91  58  141 94  64  142 96  70  137 97  72  137 104 85  76  53  39  41  26  19  42  38  39  31  31  39  31  37  49  31  40  57  52  63  83  68  83  106 111 132 159 75  104 136 64  100 136 53  86  121 72  89  117 89  77  97  128 75  81  165 101 92  175 128 108 171 133 112 175 130 124 121 77  74  127 90  84  171 136 130 128 94  85  127 86  82  178 126 128 187 135 139 174 130 127 177 140 132 171 137 128 171 137 127 170 137 128 170 138 127 170 137 128 170 137 128 170 137 128 170 137 128 171 138 131 168 135 128 171 140 135 164 137 130 136 113 107 96  77  71  92  77  72  95  82  74  94  81  72  96  84  72  93  80  71  91  77  66  100 83  73  102 84  72  107 83  71  117 85  74  115 76  61  123 74  57  133 72  51  153 81  57  165 84  55  169 78  47  183 84  52  188 84  49  192 84  46  198 84  48  202 81  52  196 74  50  187 66  45  183 62  43  187 60  43  196 58  45  200 46  36  202 38  29  200 29  22  197 24  18  193 22  15  192 20  16  192 16  16  195 15  16  198 16  13  199 15  13  199 17  14  204 19  17  218 25  28  225 35  37  225 41  41  223 41  38  225 39  40  227 41  42  221 43  41  219 41  39  225 41  39  230 42  41  226 36  36  217 29  28  225 40  37  224 42  38  218 44  37  242 71  63  248 79  72  224 53  46  213 35  31  216 32  30  226 41  39  223 38  36  207 25  24  200 18  17  203 21  20  228 44  44  230 42  43  233 43  45  227 39  38  231 42  40  232 37  35  234 41  36  224 41  33  227 53  44  230 57  50  219 46  39  218 44  37  206 35  28  202 37  33  202 45  40  194 42  39  188 43  40  191 50  43  184 53  43  176 60  45  174 67  49  170 60  47  166 62  49  165 73  60  152 74  61  139 76  61  136 80  67  133 81  70  126 78  68  110 70  62  103 70  61  102 78  68  97  75  64  94  69  62  94  71  63  84  70  57  81  71  59  82  72  62  83  70  64  83  69  66  82  68  67  79  67  67  78  68  67  74  66  63  73  68  64  72  69  62  70  70  62  69  70  64  70  71  65  70  71  65  71  70  65  70  63  57  82  69  63  96  79  72  107 87  80  119 92  85  129 99  91  143 106 98  151 112 105 146 107 100 149 110 105 150 112 109 145 111 109 139 109 107 134 108 107 132 111 110 134 114 113 130 112 112 116 100 100 106 90  90  96  80  80  86  72  72  81  69  69  78  68  67  74  64  63  66  56  55  66  56  55  65  55  54  65  55  54  66  56  55  68  58  56  70  60  58  70  62  60  79  71  69  84  79  76  95  89  89  101 96  93  100 95  92  95  90  87  92  87  84  92  84  82  91  83  81  90  82  80  87  79  77  85  77  75  83  75  73  82  74  72  80  72  70  79  71  69  77  69  66  73  68  64  70  65  61  66  61  57  64  59  55  63  58  54  60  55  51  57  52  48  56  51  47  55  50  46  54  49  45  54  49  45  55  50  46  57  52  48  58  53  49  58  53  49  58  53  49  57  54  49  59  56  51  60  57  52  62  57  53  62  57  53  62  57  53  62  57  53  65  60  56  65  60  56  65  60  56  63  58  54  59  54  50  57  49  46  52  44  41  49  41  38  43  36  30  37  30  22  32  25  17  33  26  18  37  30  22  37  30  22  33  26  18  29  22  14  32  25  17  31  24  16  31  24  16  30  23  15  
38  28  16  39  29  17  42  30  18  43  31  19  43  31  19  44  32  20  46  33  24  47  34  25  81  68  60  189 179 170 183 172 166 179 170 165 165 155 153 62  54  51  64  56  54  159 151 149 184 179 175 183 178 172 187 182 178 147 142 138 63  58  54  116 111 107 180 171 166 191 180 174 193 180 172 186 169 159 119 100 86  88  65  49  86  59  42  87  56  36  91  59  38  95  60  38  96  65  37  96  65  36  101 67  40  106 70  44  111 71  46  114 72  48  118 73  50  122 76  52  123 75  52  131 84  58  126 79  51  131 84  56  138 91  61  135 89  56  138 93  60  142 97  64  141 98  66  140 96  67  148 104 77  146 106 81  146 111 92  61  37  25  35  21  20  45  43  48  34  37  46  37  45  56  56  64  77  60  72  88  58  75  95  62  86  112 61  91  125 65  98  133 64  94  122 79  88  105 106 80  81  130 84  71  172 120 98  184 136 113 168 126 112 60  26  17  139 110 106 86  56  56  70  36  37  161 120 124 145 95  104 128 79  85  163 121 125 175 137 136 171 136 130 170 137 128 170 137 130 170 137 128 168 138 130 170 137 130 170 137 130 171 136 130 172 137 131 168 135 128 174 141 136 167 138 132 162 137 132 120 100 93  93  74  68  96  79  72  94  77  69  97  83  72  96  82  71  95  81  70  96  79  69  99  81  69  100 78  65  103 75  63  114 78  64  119 76  59  129 76  58  143 81  60  149 77  55  156 76  53  168 82  57  172 81  54  177 78  46  185 80  48  193 82  55  193 81  57  187 76  56  181 70  50  181 64  46  186 59  44  195 53  41  200 48  37  201 43  32  200 37  28  197 34  25  197 30  24  199 24  21  199 19  18  198 20  18  197 19  17  196 16  15  196 14  13  205 15  15  215 25  25  223 39  37  230 47  43  227 39  38  230 42  41  225 43  40  220 41  37  226 41  39  231 41  41  225 35  35  215 27  26  217 33  31  224 45  41  217 46  39  243 79  70  245 82  73  231 67  58  217 44  38  217 38  34  227 42  40  217 32  30  203 19  17  200 18  15  206 24  23  225 41  41  228 42  43  238 50  49  229 41  39  229 40  38  228 34  35  236 48  47  214 41  35  215 48  40  216 48  39  209 41  32  213 42  35  204 37  31  196 44  33  195 48  38  189 47  37  192 51  44  195 56  53  188 56  51  179 61  47  175 65  48  174 67  49  173 71  56  157 68  50  148 71  53  146 81  63  133 74  56  129 70  56  128 74  62  122 78  67  113 77  65  107 77  66  106 76  66  106 69  63  105 68  60  102 74  62  97  74  60  93  71  60  91  71  64  90  71  65  87  72  67  83  72  68  81  71  69  77  72  66  77  74  67  75  75  67  74  74  66  72  71  66  71  70  65  73  69  66  77  69  66  91  78  72  96  77  70  103 80  74  116 89  82  131 100 95  144 109 103 151 112 105 153 112 106 153 112 108 152 111 107 148 110 107 146 111 109 142 111 109 139 111 110 134 110 110 130 109 108 133 112 111 129 108 107 128 108 107 129 109 108 127 109 109 125 109 109 122 108 108 117 103 103 106 94  96  106 94  96  106 94  96  106 94  94  107 95  95  108 96  96  108 96  96  109 97  97  104 95  96  106 97  98  108 99  102 105 96  97  101 92  93  97  88  89  96  87  88  97  87  88  92  82  81  91  81  80  90  80  79  89  79  78  89  79  77  88  78  76  87  77  75  85  77  74  87  79  76  86  78  75  84  76  73  80  72  69  79  71  68  77  69  66  73  65  62  69  61  58  62  54  51  60  52  49  58  50  47  57  49  46  57  49  46  57  49  46  58  50  47  56  51  47  56  51  47  57  52  48  58  53  49  59  54  50  62  54  51  61  53  50  61  53  50  60  52  49  60  52  49  59  51  48  58  50  47  55  47  44  50  42  39  46  36  34  42  32  30  40  30  28  40  31  26  42  33  28  42  33  28  40  31  26  36  27  22  35  26  21  36  29  23  38  31  25  35  28  22  34  27  21  31  26  20  31  26  20  
41  31  19  42  32  20  45  33  21  46  34  22  47  35  23  48  36  24  50  37  28  51  38  29  79  66  58  195 182 174 190 179 173 189 178 172 95  86  81  103 93  91  66  58  56  77  69  66  184 179 173 178 173 167 180 175 171 71  66  62  38  33  29  113 108 102 183 174 169 190 179 173 186 173 165 173 156 146 110 91  77  82  59  43  90  63  46  90  59  39  101 66  46  105 71  46  104 70  43  105 71  43  108 73  45  113 76  50  117 77  52  119 77  55  121 79  57  125 80  57  128 82  59  137 91  67  136 90  64  131 86  57  137 90  60  143 97  64  142 96  63  142 97  64  148 105 73  147 104 72  149 102 72  158 113 84  156 114 92  126 93  78  47  26  21  38  28  29  43  42  48  34  39  45  56  63  71  60  68  79  33  46  62  59  77  99  66  91  121 57  86  120 55  86  117 72  92  116 93  88  95  105 76  72  156 103 89  186 129 110 170 132 113 63  35  23  99  75  73  51  26  30  122 89  96  78  38  46  113 68  73  153 111 113 177 141 141 169 135 134 170 136 134 170 137 132 170 137 132 168 137 132 168 137 132 168 137 132 170 137 132 171 136 130 170 135 131 174 139 135 171 136 132 168 137 134 172 144 140 155 130 126 109 88  83  95  76  70  93  74  67  97  80  70  98  81  71  102 85  75  98  82  69  104 86  74  105 83  70  108 82  69  116 84  69  118 79  62  124 77  61  131 75  58  138 73  55  147 76  58  155 78  60  159 74  54  165 71  45  172 70  45  178 72  50  182 73  53  178 71  53  175 65  48  174 61  45  179 56  41  189 51  41  196 49  39  198 47  36  196 44  33  196 42  30  201 40  30  208 36  32  209 34  31  202 28  27  199 27  25  196 23  19  195 17  15  197 13  13  203 18  16  213 31  27  223 41  37  224 39  36  225 40  37  223 41  38  223 41  38  226 41  39  229 41  40  224 36  35  216 31  29  209 25  23  219 41  37  216 47  40  242 79  70  242 84  73  239 78  68  221 50  43  220 42  38  225 41  39  209 24  22  201 17  15  199 17  14  208 28  27  221 41  40  230 48  47  239 55  53  228 43  38  226 41  38  222 39  41  224 50  51  199 40  36  197 45  34  205 47  36  199 38  28  200 37  30  197 40  31  192 49  35  189 53  37  187 51  35  187 53  42  189 54  51  185 56  51  183 65  53  176 66  49  180 75  56  180 83  64  170 85  64  173 98  75  170 104 82  143 81  60  142 79  62  131 72  56  125 76  61  118 76  60  113 75  62  115 75  65  125 75  68  138 85  79  149 105 92  136 97  82  119 83  71  101 71  61  92  65  58  85  65  58  83  68  61  82  71  65  80  71  64  80  73  65  78  74  65  79  72  64  78  71  65  79  70  65  82  72  70  88  74  71  97  76  71  101 76  69  110 81  75  123 93  85  140 105 99  153 114 109 159 116 110 158 115 109 157 113 110 152 111 109 147 107 105 142 107 105 141 110 108 142 112 112 141 115 116 141 115 116 140 114 115 135 111 111 135 111 111 134 113 112 132 110 112 130 110 111 128 109 111 121 105 106 123 107 110 122 107 110 121 106 109 121 106 109 119 104 107 118 104 104 116 102 102 113 101 103 114 103 107 107 98  101 101 92  95  99  90  93  102 93  96  105 95  96  102 92  93  97  87  88  100 90  89  98  88  87  98  88  87  99  89  88  99  89  87  98  88  86  98  87  85  97  87  85  95  85  83  94  86  83  93  83  81  89  81  78  89  79  77  87  79  76  84  74  72  78  70  67  75  65  63  72  64  61  70  60  58  67  59  56  66  56  54  64  56  53  63  53  51  62  54  51  60  52  49  60  52  49  61  53  50  61  53  50  60  52  49  59  51  48  59  51  48  58  50  47  50  42  39  50  42  39  50  42  39  49  41  38  50  40  38  49  39  37  48  38  36  48  38  36  44  35  30  45  36  31  45  36  31  42  33  28  39  30  25  40  31  26  39  32  26  40  33  27  38  31  25  37  30  24  34  29  23  33  28  22  
47  34  25  48  35  26  49  37  25  50  38  26  51  39  27  52  40  28  54  41  32  55  42  33  81  68  59  188 175 167 178 167 161 182 171 165 187 178 173 156 147 142 37  27  25  124 116 113 127 122 116 137 132 126 112 107 101 78  73  67  56  51  45  93  88  82  184 175 170 181 171 162 191 178 169 182 166 153 121 99  86  95  69  54  98  69  51  100 69  48  107 72  50  109 73  49  112 75  49  113 76  49  117 80  54  120 83  57  120 82  59  120 82  61  123 85  64  126 88  67  122 84  63  117 76  54  137 95  71  145 101 76  143 98  69  153 106 76  151 105 72  151 105 72  158 115 81  152 109 75  160 114 81  160 111 81  157 111 87  161 122 105 112 83  75  43  25  21  45  39  39  36  37  39  43  48  51  42  51  58  32  44  56  51  67  83  70  87  113 67  87  120 70  94  132 73  93  130 69  83  110 88  77  93  138 85  91  181 118 111 175 134 116 103 77  60  48  30  28  55  36  40  79  49  57  133 97  99  175 138 129 182 150 137 164 140 128 167 142 135 168 139 135 169 138 136 169 138 135 169 138 135 169 138 135 169 138 135 171 137 135 172 137 133 171 136 134 176 141 139 169 134 132 170 136 135 172 142 140 167 139 138 145 121 119 116 95  90  102 81  76  99  80  73  96  77  70  101 83  73  95  77  65  101 81  70  103 81  68  109 83  70  114 82  67  115 78  62  120 74  59  124 71  57  131 72  58  142 76  62  146 74  62  150 71  56  158 67  48  164 63  43  167 61  45  169 61  48  169 61  48  168 57  46  172 54  44  179 52  43  189 47  43  194 47  40  193 46  38  190 43  33  191 43  31  197 43  33  206 42  33  210 41  36  202 37  35  196 32  30  195 30  26  196 29  23  195 22  18  193 18  13  198 24  17  208 31  25  219 38  31  220 39  32  219 40  35  222 43  38  225 43  40  225 41  39  222 38  38  219 35  35  203 19  17  208 30  26  215 46  39  235 74  64  244 88  76  241 83  72  220 51  44  221 46  41  223 39  37  202 17  15  202 18  16  196 17  13  212 34  30  224 49  44  237 62  57  239 61  57  225 42  36  220 42  38  210 47  48  184 36  36  169 32  24  177 41  29  204 61  47  193 45  31  189 38  29  189 42  32  186 49  31  184 54  32  183 54  32  181 51  35  188 56  52  198 70  67  184 67  57  176 69  53  180 79  61  178 85  67  175 95  72  188 116 92  202 135 109 202 136 112 173 106 87  148 85  67  137 81  64  131 82  65  133 86  70  143 91  78  160 93  87  175 106 99  185 121 109 173 115 101 155 103 90  132 88  77  112 75  66  100 70  62  94  69  62  92  74  64  87  70  62  87  73  64  87  73  64  87  73  64  88  71  64  92  73  67  98  79  75  105 81  79  100 72  68  114 84  76  133 100 93  150 113 107 156 117 112 158 115 109 154 109 106 151 106 103 154 108 108 155 111 110 156 114 115 153 114 115 146 112 113 141 109 110 137 108 110 137 108 112 140 111 113 136 107 109 136 107 109 134 108 109 131 106 109 131 109 112 133 112 117 131 112 116 127 108 112 124 108 111 124 107 113 122 106 109 120 105 108 118 103 106 116 101 104 113 101 103 109 98  102 113 102 108 115 104 110 113 102 106 112 101 105 114 102 106 116 104 106 117 105 107 115 103 105 113 101 103 111 99  99  111 99  99  110 99  97  108 97  95  109 95  94  107 96  94  101 90  88  99  89  87  97  86  84  94  84  82  95  84  82  93  83  81  90  79  77  85  75  73  87  76  74  84  74  72  82  71  69  79  69  67  78  67  65  75  65  63  74  63  61  72  62  60  68  58  56  67  57  55  66  56  54  65  55  53  64  54  52  62  52  50  61  51  49  61  51  49  60  50  48  59  49  47  58  48  46  56  46  44  54  44  42  52  42  40  50  40  38  50  40  38  50  39  35  48  37  33  46  35  31  46  35  31  48  39  34  49  40  35  45  36  31  39  30  25  41  34  28  40  33  27  37  32  26  35  30  24  
50  37  28  51  38  29  52  40  28  53  41  29  54  42  30  55  43  31  57  44  35  58  45  36  99  86  77  188 175 166 193 180 172 187 176 170 133 122 118 32  23  18  96  87  82  157 148 143 106 99  93  113 108 102 103 96  90  57  52  46  26  19  13  46  39  31  171 162 155 190 180 171 188 174 165 183 167 154 119 97  84  97  71  56  100 71  53  112 80  59  114 78  56  113 75  52  117 77  52  120 80  55  125 85  60  124 88  64  122 87  65  118 86  65  121 90  70  126 95  75  99  66  47  74  39  19  116 80  58  148 108 83  144 100 75  150 105 76  154 104 77  159 110 78  154 110 75  165 122 87  161 115 82  168 119 89  170 122 99  161 118 101 161 127 115 87  64  56  37  26  22  53  52  50  46  50  51  38  47  52  46  56  66  36  48  62  54  67  86  76  90  117 66  86  121 68  90  129 63  85  122 87  88  116 110 71  89  153 101 103 177 137 125 165 137 125 67  51  52  48  33  40  116 88  100 175 140 146 168 134 125 164 135 121 168 148 137 162 141 136 168 140 139 170 138 139 170 138 139 169 139 137 170 139 137 170 139 137 172 138 137 172 138 136 177 138 139 175 136 137 172 136 136 169 135 136 173 141 142 159 129 129 175 149 150 146 122 120 108 84  82  102 78  74  98  74  70  108 85  79  101 78  70  105 81  71  106 79  68  110 82  70  113 79  67  117 77  65  124 78  65  127 75  62  135 75  65  139 75  65  139 71  62  149 72  62  159 67  56  163 65  52  169 67  55  172 69  60  169 68  58  166 62  53  169 56  50  176 53  48  187 47  46  192 46  46  191 46  41  186 42  34  183 41  31  190 42  32  199 41  32  202 39  34  196 38  35  188 33  29  190 33  28  197 35  30  197 32  28  191 24  18  191 22  15  197 26  18  212 38  31  214 37  31  217 40  34  222 43  38  226 44  41  224 42  39  222 40  39  223 39  39  200 16  14  199 20  16  213 44  37  231 68  59  248 90  79  243 82  72  219 52  44  221 46  41  219 37  34  197 13  11  200 21  17  192 17  12  213 42  35  227 58  51  246 77  70  240 69  62  216 37  32  209 41  38  192 53  50  141 18  13  141 20  12  158 34  22  208 72  58  192 50  36  182 40  30  183 43  30  181 46  27  181 51  29  180 56  32  176 55  34  192 69  62  216 97  93  222 114 104 203 101 87  198 102 86  203 114 96  210 132 110 210 138 114 203 133 108 208 137 115 209 134 113 199 128 108 191 128 110 171 114 95  164 108 91  179 117 102 186 109 101 184 104 97  179 105 92  182 113 98  181 118 103 171 115 102 151 103 93  132 89  80  117 80  72  109 76  67  106 76  68  106 77  69  105 76  68  102 75  66  100 73  66  102 75  68  108 80  77  115 86  82  140 107 102 147 110 104 153 114 109 156 115 111 157 114 108 157 112 109 159 111 109 160 112 112 155 109 109 154 110 111 151 109 111 148 109 112 146 110 112 143 111 114 143 112 117 142 113 117 142 111 116 140 110 112 141 112 114 139 113 116 136 109 114 133 111 114 133 110 116 129 108 113 127 108 112 125 108 114 125 108 114 124 107 113 122 107 112 121 106 109 120 105 108 118 106 110 117 104 111 114 103 109 111 100 106 112 101 107 121 108 115 127 115 119 126 114 118 122 110 112 126 114 116 122 110 112 118 106 106 116 104 104 116 102 101 112 98  97  110 96  95  111 97  96  107 93  92  103 92  90  100 89  87  98  87  85  98  87  85  98  87  85  95  84  82  91  80  78  89  78  76  88  77  75  86  75  73  85  74  72  84  73  71  82  71  69  81  70  68  79  68  66  75  64  62  73  63  61  72  62  60  70  60  58  67  57  55  66  56  54  65  55  53  64  54  52  61  51  49  61  51  49  60  50  48  59  49  47  58  48  46  57  47  45  56  46  44  56  46  44  54  43  39  55  44  40  54  43  39  50  39  35  46  37  32  47  38  33  47  38  33  45  36  31  43  36  30  42  35  29  38  33  27  37  32  26  
53  40  31  54  41  32  55  42  33  56  43  34  58  44  35  59  45  36  60  46  37  61  47  38  105 91  82  191 178 169 190 177 169 186 176 167 81  70  64  47  36  30  52  41  35  94  85  78  185 176 169 179 172 164 192 183 176 180 173 165 82  73  66  126 117 110 184 175 168 191 181 172 192 178 169 183 165 153 122 99  85  102 75  58  110 79  59  113 81  60  116 80  58  124 83  61  129 84  63  127 82  61  131 90  70  128 91  72  123 92  72  96  69  50  62  39  21  74  53  34  122 99  81  78  53  33  57  26  6   143 108 88  149 107 85  152 106 82  162 110 88  164 113 84  168 122 86  159 115 78  163 118 87  168 122 96  165 119 96  168 125 108 171 134 118 156 128 116 82  65  57  49  44  40  43  47  48  42  51  58  42  52  62  42  52  64  47  53  67  74  83  100 67  88  109 67  91  119 63  86  120 82  93  125 93  81  101 114 87  96  176 136 136 170 132 131 65  44  51  70  52  66  84  57  74  92  58  72  95  56  61  93  59  58  91  69  71  97  77  79  120 89  94  143 111 114 165 133 136 171 139 140 170 138 139 170 138 139 172 138 139 171 137 136 172 133 136 178 139 142 171 132 135 168 132 136 177 142 146 169 139 141 161 132 136 166 140 141 151 125 126 130 104 105 108 82  81  101 76  72  106 78  74  109 80  74  109 79  69  111 77  67  116 78  67  121 77  66  124 74  63  127 70  61  131 71  63  140 73  65  143 74  67  148 71  65  162 69  64  163 66  60  165 72  65  168 79  71  175 91  81  196 108 98  196 97  91  174 61  57  186 52  53  192 49  51  187 43  43  190 46  45  178 37  30  190 47  39  188 35  29  203 46  41  191 37  35  188 36  33  189 35  33  192 37  33  194 37  32  193 34  28  190 27  20  191 24  16  200 29  22  207 34  28  206 28  24  225 46  42  222 40  37  222 38  36  224 40  38  218 34  32  200 16  14  205 26  22  202 31  24  223 59  50  242 81  71  245 82  73  223 54  47  219 44  39  204 25  21  200 21  17  192 17  12  195 26  19  214 50  41  247 84  75  241 78  69  229 65  56  208 36  32  198 43  39  158 43  36  114 13  5   122 13  6   178 57  48  215 81  70  190 49  39  185 44  34  180 38  28  185 43  29  190 55  35  173 53  28  173 61  39  200 88  77  216 109 103 223 126 117 213 123 112 219 131 117 213 130 114 210 133 113 204 132 110 208 133 112 212 134 114 209 126 108 218 137 120 209 136 117 193 128 108 180 117 99  187 120 103 185 105 94  191 107 96  188 109 94  186 110 94  183 111 97  181 115 103 178 115 106 172 113 105 164 109 104 159 106 100 157 107 100 153 104 97  146 99  93  139 96  89  145 106 99  149 112 104 144 111 106 152 119 114 157 118 113 156 115 109 156 112 109 156 112 109 158 113 110 160 112 110 157 109 109 155 106 109 155 109 111 155 110 113 154 112 116 152 113 118 149 113 117 145 113 118 143 112 117 143 112 117 141 110 115 141 110 115 140 111 115 137 111 114 137 110 115 134 111 117 133 110 118 132 111 118 130 111 117 127 110 118 126 109 117 124 109 116 122 107 114 121 106 111 118 106 110 117 105 109 116 103 110 118 105 114 117 104 113 115 102 109 117 104 111 125 113 117 131 116 121 130 115 120 126 111 114 126 111 114 124 110 110 122 108 108 120 106 105 118 104 103 117 101 101 115 101 100 116 102 101 106 92  91  111 97  96  107 93  92  100 86  85  105 91  90  106 92  91  99  85  84  96  82  81  95  81  80  93  79  78  91  77  76  89  75  74  87  73  72  85  71  70  82  71  69  81  70  68  79  68  66  78  67  65  76  65  63  74  63  61  73  62  60  71  60  58  69  58  56  69  58  56  66  55  53  64  53  51  64  53  51  64  53  51  61  50  48  60  49  47  60  49  47  60  49  47  58  47  45  55  44  42  53  42  40  51  40  38  49  38  36  47  37  35  46  36  34  44  36  33  43  35  32  41  33  30  41  33  30  
57  44  35  58  45  36  59  46  37  60  47  38  62  48  39  63  49  40  64  50  41  65  51  42  81  67  58  136 122 113 154 141 133 181 168 160 182 169 161 184 173 167 178 167 161 161 150 144 167 156 150 175 166 157 175 164 158 162 153 146 159 148 142 170 160 151 179 169 160 181 168 159 180 163 153 147 127 116 108 85  71  101 74  57  119 88  68  116 81  59  125 89  67  128 87  65  136 89  69  138 91  73  133 92  74  131 96  77  130 103 86  119 98  81  87  70  54  47  31  16  88  71  55  88  69  54  54  28  11  142 111 93  153 115 96  167 120 100 162 110 89  167 116 89  164 118 84  168 124 87  169 125 96  173 128 105 168 125 106 173 131 115 158 119 104 166 134 121 148 128 119 74  67  61  43  47  50  45  54  61  44  54  64  38  46  57  46  46  56  68  75  85  72  95  103 62  90  104 70  91  120 64  81  111 82  93  113 92  88  102 145 115 123 106 69  76  53  25  37  54  30  43  61  30  45  63  27  39  65  24  30  66  25  29  60  31  35  59  33  36  67  35  38  67  31  33  74  40  41  99  65  66  134 100 101 161 127 128 174 138 140 177 141 143 172 133 136 172 133 136 177 136 142 174 135 140 166 131 137 169 137 142 172 141 146 166 135 140 169 138 143 156 125 130 141 111 113 127 97  97  116 85  83  110 76  74  110 75  69  117 78  71  121 78  71  125 78  70  130 77  69  132 75  68  138 75  70  144 77  71  146 77  72  149 74  69  161 75  74  165 77  75  174 93  89  185 111 102 191 121 111 205 132 123 211 126 121 203 103 101 174 55  57  188 59  63  186 53  58  172 39  40  186 54  50  179 42  36  198 46  43  191 36  34  184 32  31  186 36  35  190 40  39  198 49  45  201 52  46  182 31  24  188 31  24  193 31  26  184 21  14  215 46  41  200 25  22  213 31  28  226 42  40  230 45  43  218 30  29  224 36  35  204 20  18  203 25  21  198 27  20  217 50  42  237 73  64  248 84  75  221 50  43  216 41  36  197 19  15  192 17  12  192 23  16  187 24  15  233 75  64  236 80  68  247 91  79  213 52  44  197 32  30  206 61  58  115 14  4   93  6   0   140 33  25  201 78  71  219 82  74  193 50  42  189 44  39  186 42  34  196 45  36  188 48  33  176 60  37  178 73  51  203 101 89  218 121 114 221 134 124 211 132 119 212 130 118 206 127 112 208 131 115 211 134 116 214 133 116 215 129 114 222 130 117 218 129 115 207 126 109 209 136 117 201 134 115 194 126 107 198 119 106 195 112 98  189 108 91  188 109 94  185 109 96  179 106 97  176 107 100 175 110 104 174 111 106 172 109 104 174 111 106 173 112 107 170 112 108 167 112 107 164 115 110 160 115 109 156 115 109 161 122 115 167 123 120 169 124 121 170 125 122 174 126 124 176 128 128 177 129 129 178 128 131 177 128 132 171 125 128 164 119 124 155 112 119 148 108 116 146 109 116 144 111 118 144 111 118 143 112 118 142 111 117 141 112 117 141 112 117 138 111 116 137 112 118 135 112 120 133 112 119 132 113 119 129 112 120 128 111 119 126 111 118 125 110 117 124 109 116 122 107 114 119 107 111 119 106 113 119 106 115 118 105 114 117 104 113 116 103 112 116 103 110 118 105 112 124 109 114 128 113 118 129 114 119 128 113 116 127 112 115 125 111 111 123 109 109 121 107 106 120 104 104 119 103 103 110 96  95  119 105 104 109 95  94  97  83  82  116 102 101 104 90  89  93  79  78  102 88  87  101 87  86  100 86  85  98  84  83  96  82  81  94  80  79  93  79  78  91  77  76  89  75  74  87  73  72  84  73  71  82  71  69  80  69  67  79  68  66  77  66  64  75  64  62  74  63  61  74  63  61  71  60  58  69  58  56  70  59  57  69  58  56  65  54  52  63  52  50  63  52  50  59  48  46  57  46  44  55  44  42  53  42  40  52  41  39  50  39  37  48  38  36  47  37  35  46  38  35  45  37  34  44  36  33  43  35  32  
59  46  38  60  47  39  62  49  41  63  50  42  65  51  42  66  52  43  67  53  42  68  54  43  64  50  39  65  51  40  59  45  36  59  46  37  71  58  49  73  60  52  74  61  53  61  48  40  61  48  40  62  52  42  66  53  45  48  38  29  68  55  47  67  54  46  79  66  58  82  68  59  102 84  74  107 85  72  100 74  61  95  66  50  123 90  71  125 90  68  127 91  69  137 96  74  138 91  73  142 95  77  137 95  79  138 105 88  104 78  63  90  71  57  104 90  77  64  52  40  60  48  36  64  48  35  76  54  40  148 119 103 152 115 97  165 119 103 168 117 98  171 119 95  169 123 90  175 130 97  170 128 103 172 131 111 167 128 111 171 134 118 169 131 118 170 138 127 144 124 117 75  65  63  42  45  50  40  49  58  42  50  61  50  54  65  53  51  56  49  53  56  56  80  80  59  88  92  76  99  113 60  83  101 61  88  105 75  91  107 102 89  106 47  19  33  65  32  39  72  36  40  72  38  39  71  36  34  76  30  30  77  32  27  74  34  26  71  34  25  70  30  28  66  26  27  65  26  27  70  31  32  75  39  39  94  58  58  135 96  97  170 130 131 180 139 143 173 132 136 175 132 139 176 135 141 173 133 141 174 137 144 173 140 147 169 136 143 170 137 144 169 137 142 169 134 140 161 126 130 145 109 111 132 93  94  127 87  87  129 88  86  125 80  77  130 81  77  134 79  76  138 79  75  145 81  79  153 85  82  157 87  85  160 89  87  162 88  89  164 90  91  176 108 105 186 126 118 184 130 120 189 132 123 199 132 126 203 124 120 213 117 119 203 98  102 176 67  72  175 65  66  180 62  62  183 53  53  186 36  38  198 39  43  191 38  40  189 39  40  191 41  42  195 50  47  196 54  50  190 47  41  179 30  24  172 19  14  179 24  19  193 29  27  215 39  39  200 18  17  218 32  33  235 47  48  225 31  32  224 31  32  210 26  26  205 30  27  201 29  25  207 38  33  228 61  53  251 82  75  219 46  40  210 35  30  193 18  13  193 22  15  182 19  10  208 50  39  240 86  74  237 85  72  244 90  78  204 47  38  204 46  45  176 38  35  106 14  1   96  13  0   190 79  72  226 94  90  218 75  71  193 44  40  191 39  38  192 40  39  203 45  44  191 48  40  189 78  59  194 99  79  210 118 105 216 132 121 200 126 113 199 130 115 206 130 117 211 133 121 213 133 122 214 132 120 214 127 117 216 124 113 221 123 114 224 127 118 215 127 115 202 125 109 205 137 118 204 137 118 204 131 114 206 127 112 205 123 111 206 124 113 198 121 111 189 116 109 182 115 109 182 117 113 182 119 114 181 117 115 182 118 116 183 119 117 187 124 119 189 128 123 190 131 127 187 132 129 185 134 130 187 138 134 181 131 130 182 134 134 183 135 135 183 133 134 181 131 134 179 128 133 178 129 133 178 129 135 182 135 143 170 127 136 157 116 124 149 109 118 147 110 118 146 113 122 146 113 122 144 113 121 142 112 120 142 112 120 142 112 120 140 113 122 138 112 121 136 113 123 135 114 123 134 114 123 130 113 123 130 113 123 128 112 122 127 111 121 124 111 118 122 109 116 121 108 115 121 108 115 122 109 118 118 105 114 119 103 113 121 105 115 119 104 111 116 101 108 118 103 110 125 110 115 133 118 123 132 117 120 132 116 119 130 114 115 128 112 113 126 110 111 124 108 109 123 107 108 118 102 102 122 106 106 116 100 100 72  56  56  91  75  75  119 103 103 76  60  60  107 91  91  106 90  90  105 89  89  103 87  87  101 85  85  99  83  83  98  82  82  96  80  80  93  79  78  91  77  76  90  76  75  88  74  73  86  72  71  85  71  70  83  69  68  81  67  66  80  66  65  77  66  64  75  64  62  74  63  61  73  62  60  72  61  59  68  57  55  65  54  52  64  53  51  59  48  46  58  47  45  56  45  43  55  44  42  54  43  41  54  43  41  52  42  40  51  41  39  50  40  38  49  39  37  47  39  36  46  38  35  
63  50  42  64  51  43  66  53  45  67  54  46  69  55  46  70  56  47  72  58  47  73  59  48  79  65  54  64  50  39  54  40  31  58  44  35  56  43  34  63  50  41  63  50  42  68  55  46  69  55  46  61  47  38  67  53  44  65  52  43  58  43  36  60  45  38  70  56  47  66  49  39  83  63  54  67  45  32  85  59  46  122 93  77  128 95  76  135 100 80  134 96  75  137 96  74  143 98  79  147 102 83  144 105 88  102 69  54  60  34  21  43  23  12  34  20  11  50  37  28  51  38  29  49  32  22  129 107 94  155 127 113 156 120 104 164 121 104 175 128 110 176 128 105 176 129 99  175 131 102 169 129 104 172 135 116 167 131 115 166 132 120 176 144 133 135 108 99  66  47  43  41  31  32  31  31  39  28  35  45  36  43  53  53  56  63  51  49  52  38  40  35  16  39  23  8   39  21  32  60  48  43  69  66  63  94  99  68  92  102 80  83  100 45  28  44  64  29  36  71  29  30  73  34  27  75  35  25  80  33  27  80  32  22  81  32  18  81  33  21  81  33  29  79  35  34  81  37  36  77  36  34  67  26  24  66  25  23  86  44  45  111 69  70  160 115 118 179 134 139 180 135 140 173 130 137 178 137 143 177 137 145 169 132 140 174 139 146 167 132 139 171 134 142 174 137 144 177 137 145 171 132 137 162 121 125 155 113 115 154 109 112 153 104 107 155 103 105 157 103 103 161 103 102 166 104 105 174 110 110 181 115 116 185 119 120 187 122 126 183 123 125 190 132 131 193 140 136 186 137 130 185 135 128 193 135 131 202 134 133 213 134 139 198 116 120 209 127 129 207 121 122 204 106 107 212 96  99  189 45  54  193 38  46  190 41  43  179 33  33  180 36  35  176 37  34  176 44  39  214 82  77  189 50  45  160 17  13  162 17  12  175 22  17  209 39  39  205 25  26  204 20  20  228 40  41  232 38  39  219 26  27  208 28  27  212 39  35  215 46  41  195 26  21  217 48  41  246 73  67  220 42  38  204 26  22  195 22  16  191 24  16  184 26  15  236 84  71  236 86  72  240 88  75  237 83  71  204 50  42  207 53  51  160 27  22  101 5   0   161 72  54  219 100 92  223 88  84  223 77  77  181 31  32  188 38  39  190 40  42  199 46  49  199 64  61  203 102 90  208 125 109 211 129 117 211 133 121 206 139 123 207 139 126 208 131 121 212 132 123 208 125 117 209 125 115 214 127 118 217 127 119 212 115 109 196 99  93  215 126 118 211 132 119 202 133 117 201 134 117 202 133 117 205 131 118 205 125 118 205 124 120 201 128 122 200 132 129 196 135 132 193 135 133 191 133 132 189 131 130 192 132 131 192 131 130 190 126 126 194 130 128 196 132 132 194 133 132 194 134 134 187 131 130 186 134 136 186 136 137 186 136 139 186 136 139 185 134 139 183 134 140 182 133 139 179 132 140 174 128 138 165 122 132 155 115 124 149 111 122 149 113 123 148 115 124 145 114 122 143 112 120 143 113 121 143 113 123 141 114 123 141 113 125 139 113 124 137 114 124 136 114 126 135 115 126 134 114 125 131 114 124 130 113 123 128 112 122 127 111 121 124 111 118 126 111 118 123 110 117 123 110 119 120 107 116 122 106 116 123 107 117 122 107 114 118 103 110 119 104 111 122 107 114 136 121 126 135 120 125 135 119 122 133 117 120 131 115 116 129 113 114 127 111 112 126 110 111 129 113 113 120 104 104 120 104 104 80  64  64  55  39  39  108 92  92  66  50  50  106 90  90  109 93  93  108 92  92  106 90  90  104 88  88  103 87  87  101 85  85  99  83  83  98  82  82  95  81  80  93  79  78  91  77  76  90  76  75  88  74  73  87  73  72  85  71  70  83  69  68  80  69  67  79  68  66  78  67  65  76  65  63  73  62  60  69  58  56  66  55  53  64  53  51  62  51  49  61  50  48  60  49  47  59  48  46  58  47  45  57  46  44  55  45  43  54  44  42  53  43  41  52  42  40  49  41  38  49  41  38  
69  56  50  70  57  51  72  59  51  73  60  52  76  62  53  77  63  54  81  64  54  82  65  55  83  66  56  81  64  54  81  67  56  86  72  61  81  67  56  88  74  63  73  60  51  69  55  46  56  39  29  68  51  41  81  64  54  93  79  68  97  80  72  90  73  65  79  62  54  81  63  53  79  59  50  111 87  75  127 101 88  128 99  83  126 93  76  137 102 82  135 97  76  145 107 86  147 105 83  147 106 86  143 106 88  133 101 86  133 105 93  138 116 105 111 92  85  62  45  38  41  24  17  58  39  32  139 115 105 156 128 116 158 125 110 168 129 112 168 125 106 173 128 105 174 130 105 173 131 106 172 134 113 174 139 120 168 136 121 168 140 128 136 111 104 73  54  50  45  31  31  40  30  38  31  29  40  29  29  41  27  30  39  18  19  24  6   4   5   9   13  0   11  32  0   105 135 85  131 165 115 117 149 110 56  83  64  72  94  91  70  87  97  83  83  95  77  47  55  79  35  36  74  30  21  80  34  21  80  36  25  80  32  22  85  28  17  88  29  21  82  27  22  76  25  21  75  24  20  77  28  23  79  31  27  79  31  27  78  30  28  78  30  28  109 59  60  160 110 113 186 137 141 179 132 138 177 132 139 175 132 139 172 131 139 176 136 144 177 137 146 174 134 143 173 133 142 174 132 142 176 135 143 176 133 142 174 131 138 175 130 137 178 129 135 179 128 133 179 126 132 181 126 131 185 126 130 188 127 132 192 131 136 194 135 139 188 133 138 185 133 137 186 134 136 186 135 134 182 133 129 183 132 129 190 131 133 191 131 133 186 124 129 198 137 142 185 129 130 169 109 109 122 51  49  205 109 111 193 63  73  186 42  52  180 40  41  173 35  33  173 38  35  159 31  28  151 34  27  191 76  69  202 79  74  169 40  35  131 2   0   166 24  20  182 22  22  212 40  40  196 20  20  215 33  32  231 38  39  215 27  26  200 25  22  217 50  44  232 65  59  187 20  14  208 36  32  234 59  56  220 41  37  198 20  16  194 21  15  188 24  15  214 60  48  243 93  79  236 89  73  236 84  70  240 82  70  205 47  38  202 53  49  147 14  7   147 40  22  204 99  78  222 96  84  224 87  81  208 69  66  174 32  31  180 38  37  179 39  42  182 45  52  200 81  83  199 116 110 203 133 125 209 132 124 206 129 119 202 130 116 204 130 117 208 126 115 212 125 118 213 126 119 215 130 125 211 128 122 187 104 100 192 102 101 202 112 111 188 103 100 178 99  92  202 132 122 200 134 122 197 129 118 202 132 124 209 133 133 188 114 115 162 96  97  151 92  94  149 99  100 155 109 111 168 124 125 181 137 138 184 134 135 194 140 140 192 133 135 193 131 134 194 132 135 194 129 133 194 132 135 187 128 132 187 132 135 182 132 135 181 130 135 180 129 136 179 130 136 175 128 136 172 125 135 168 122 133 157 113 126 154 112 124 152 112 123 149 111 124 149 113 125 147 114 125 144 112 123 143 111 122 144 114 124 144 114 126 141 113 125 141 113 127 140 114 127 138 114 127 137 115 128 135 115 127 134 114 126 132 114 126 132 114 126 131 114 124 130 113 123 128 112 122 129 112 122 127 111 121 124 111 120 124 111 120 123 110 119 122 109 118 124 109 116 123 108 115 121 106 113 119 104 111 138 123 128 137 122 127 136 121 124 135 120 123 134 118 121 132 116 119 130 114 117 129 113 114 121 105 105 128 112 112 129 113 113 126 110 110 69  53  53  71  55  55  70  54  54  114 98  98  113 97  97  112 96  96  110 94  94  109 93  93  107 91  91  106 90  90  104 88  88  102 86  86  100 86  85  98  84  83  97  83  82  95  81  80  93  79  78  92  78  77  88  77  75  87  76  74  84  73  71  84  73  71  82  71  69  79  68  66  75  64  62  71  60  58  67  57  55  65  55  53  64  54  53  63  53  52  62  52  51  61  51  50  60  50  49  59  49  48  57  47  46  56  46  45  55  45  44  54  44  43  53  43  42  52  42  41  
74  61  55  75  62  56  77  64  56  78  65  57  80  66  57  82  68  59  86  69  59  87  70  60  88  71  61  84  67  57  85  71  60  82  68  57  88  74  63  90  76  65  94  81  72  99  85  74  109 91  79  106 88  76  104 86  76  103 86  76  119 102 94  113 96  88  113 94  87  120 100 91  121 99  88  110 86  74  128 100 88  138 109 93  139 106 89  135 100 80  147 109 90  142 104 83  144 106 83  149 113 91  151 116 96  150 119 101 147 117 106 150 123 116 134 111 105 86  65  60  44  20  16  50  27  21  88  61  54  163 133 123 158 125 110 168 133 114 165 127 106 171 130 108 172 130 108 177 136 116 177 139 118 172 137 118 166 137 121 162 138 126 80  61  57  43  29  29  31  21  29  34  28  38  27  24  35  27  24  35  30  29  37  15  14  19  2   2   2   12  16  0   115 129 80  146 168 103 145 178 107 78  109 50  113 134 103 53  70  60  65  85  94  72  81  96  90  70  82  86  47  52  78  29  22  77  28  14  76  33  17  79  33  18  86  27  19  91  28  23  96  35  30  94  37  30  92  35  28  85  30  23  81  28  22  80  30  23  81  30  26  82  31  28  84  30  30  109 57  59  155 103 107 185 134 139 185 136 142 178 133 140 177 134 141 176 135 143 178 136 146 176 136 145 176 134 144 175 133 143 176 133 143 176 133 143 179 133 144 180 134 145 178 131 141 181 131 142 184 132 144 185 134 143 186 133 141 186 131 137 186 131 137 188 133 139 185 132 140 186 135 142 186 133 139 186 134 138 187 135 137 191 136 139 193 134 138 190 131 137 190 130 138 193 142 149 159 119 120 110 68  69  96  45  42  173 99  100 211 101 110 171 44  53  167 37  37  168 39  34  164 39  35  149 31  27  130 27  18  128 30  21  195 86  81  192 79  73  138 23  16  122 0   0   179 29  28  200 38  36  195 27  24  204 29  26  223 38  36  211 28  24  193 24  19  224 61  54  241 78  71  188 21  15  200 27  23  222 44  42  219 37  34  197 18  14  191 20  13  202 39  30  239 87  74  240 92  78  232 85  69  240 87  73  236 74  63  204 43  35  193 44  40  157 20  12  220 99  80  211 90  69  224 92  77  233 99  88  178 46  41  164 37  31  157 27  25  157 33  33  165 48  54  187 91  95  170 105 103 167 109 105 204 133 129 208 131 125 211 133 121 212 130 118 219 126 118 216 123 116 213 124 120 207 126 122 193 118 113 138 64  61  149 71  71  170 90  91  128 48  47  149 71  69  203 132 128 201 132 125 207 136 130 198 128 126 174 108 110 155 94  99  138 83  89  131 84  90  129 88  94  124 87  94  124 89  95  130 91  96  156 111 116 187 138 142 191 136 141 190 131 137 189 128 135 184 123 130 187 128 134 184 127 133 174 122 126 170 119 124 167 116 123 164 114 123 161 114 122 159 112 122 154 108 119 149 105 118 152 110 124 151 110 124 150 112 125 149 113 125 147 114 125 147 114 125 146 114 125 146 114 127 144 114 126 144 113 128 144 113 128 142 114 128 142 114 129 141 114 129 139 115 129 138 116 129 137 115 128 135 115 127 135 115 127 132 114 126 134 114 125 131 114 124 133 113 124 130 113 123 129 113 123 127 114 123 126 113 122 123 110 119 125 110 117 125 110 117 124 109 116 122 107 114 140 125 130 140 125 130 139 124 127 137 122 125 137 121 124 135 119 122 133 117 120 132 116 117 137 121 122 127 111 111 119 103 103 124 108 108 121 105 105 111 95  95  97  81  81  106 90  90  116 100 100 115 99  99  113 97  97  111 95  95  110 94  94  108 92  92  107 91  91  105 89  89  103 89  88  102 88  87  100 86  85  98  84  83  97  83  82  95  81  80  91  80  78  90  79  77  87  76  74  87  76  74  84  73  71  79  68  66  74  63  61  72  61  59  69  59  57  67  57  55  66  56  55  65  55  54  64  54  53  63  53  52  62  52  51  61  51  50  59  49  48  58  48  47  58  48  47  56  46  45  55  45  44  55  45  44  
77  64  58  78  65  59  81  66  61  83  68  61  84  70  61  86  72  63  90  73  63  91  74  64  85  68  58  97  80  70  112 95  85  121 104 94  143 129 118 146 132 121 158 144 133 167 150 140 133 113 102 121 102 88  134 114 103 151 133 121 175 157 147 171 153 143 163 143 134 143 123 114 138 116 105 143 119 107 136 108 96  131 99  84  142 109 92  139 104 84  151 113 94  148 112 90  150 116 91  146 114 89  158 126 105 142 111 93  152 120 109 129 99  91  56  27  23  66  38  35  65  35  35  45  15  13  52  21  16  144 111 102 165 133 118 169 136 117 173 138 116 177 141 119 175 136 119 177 138 121 179 141 122 171 136 116 165 138 121 121 101 90  51  40  38  36  29  36  26  22  36  34  30  45  32  26  40  31  23  34  34  29  35  27  25  28  15  16  18  12  16  0   153 160 109 189 202 133 159 183 109 42  67  2   106 120 84  27  39  27  63  77  90  86  93  119 88  83  105 92  65  80  93  43  42  87  31  18  74  33  11  78  37  17  93  36  29  100 36  34  103 38  32  104 41  32  103 43  33  102 44  33  99  42  33  94  37  28  87  32  25  83  28  23  87  32  29  81  25  24  109 53  56  157 105 109 184 133 138 184 135 141 180 133 141 180 135 142 173 132 140 175 134 142 177 135 145 177 135 145 178 134 147 177 133 146 176 132 145 178 132 145 178 131 147 179 131 145 181 133 147 183 135 147 181 134 144 181 131 142 181 131 140 185 134 143 185 127 139 189 129 141 187 130 139 187 130 137 190 133 139 191 132 138 191 128 137 192 129 140 194 130 144 184 130 143 126 87  92  98  66  67  101 63  62  172 118 118 203 123 126 187 84  87  167 52  49  160 41  35  146 31  26  133 29  20  111 23  11  93  9   0   154 61  53  202 105 98  171 73  64  106 0   0   164 29  25  185 33  30  191 34  29  192 25  19  216 38  34  205 31  24  193 32  24  233 76  67  242 81  73  196 31  25  196 21  18  216 36  35  215 31  29  197 18  14  201 30  23  231 68  59  241 91  77  237 91  76  233 83  68  245 89  76  222 55  46  209 44  38  196 47  41  214 73  64  230 93  74  235 100 78  225 90  70  211 84  67  154 38  25  143 35  25  138 27  20  146 42  39  167 75  78  172 100 104 134 85  88  114 68  70  199 131 132 213 132 129 214 126 116 202 106 94  210 107 100 203 101 97  189 100 96  182 104 100 205 142 135 174 116 112 136 75  74  111 45  46  116 46  48  186 114 115 204 132 133 194 122 123 208 132 134 178 107 111 146 91  97  133 90  97  127 87  96  124 88  98  123 93  103 124 94  104 120 88  99  119 81  94  126 83  93  174 124 135 178 125 135 173 117 126 170 117 125 160 109 116 161 112 118 159 112 118 160 109 116 159 108 115 158 109 115 158 108 117 158 111 121 159 111 123 158 112 125 156 112 127 154 112 126 154 113 129 152 114 129 151 115 129 148 114 128 147 115 128 148 116 129 149 117 130 147 115 130 146 115 131 145 114 130 143 115 130 143 114 132 142 115 132 140 116 132 139 116 132 138 115 131 138 115 131 138 116 129 136 116 128 137 115 128 135 115 127 136 114 126 135 115 126 132 116 126 128 115 124 127 114 123 127 114 123 124 111 118 123 110 117 128 113 120 134 119 126 143 128 133 142 127 132 142 127 132 140 125 130 139 124 129 137 122 127 137 121 124 136 120 121 130 114 115 130 114 114 142 126 126 124 108 108 129 113 113 128 112 112 119 103 103 126 110 110 119 103 103 118 102 102 116 100 100 115 99  99  113 97  97  112 96  96  110 94  94  109 93  93  106 92  91  104 90  89  103 89  88  101 87  86  99  85  84  98  84  83  94  83  81  92  81  79  91  80  78  90  79  77  87  76  74  80  69  67  74  64  62  72  62  60  71  61  59  70  60  58  69  59  58  68  58  57  67  57  56  66  56  55  65  55  54  64  54  53  62  52  51  61  51  50  61  51  50  60  50  49  58  48  47  58  48  47  
81  68  62  83  70  64  85  70  65  87  72  67  89  74  67  90  76  67  94  77  69  95  78  70  93  76  68  155 138 130 192 175 167 192 178 169 192 178 169 188 175 166 190 177 168 187 173 164 196 177 170 195 177 167 194 175 168 193 176 168 191 174 166 188 171 163 191 174 166 199 181 171 198 175 167 175 151 141 134 106 94  141 112 98  145 112 97  147 111 95  152 117 98  149 114 94  151 120 99  150 122 101 147 118 100 156 124 109 105 71  61  57  20  12  76  38  35  71  33  32  73  38  36  58  24  22  52  22  14  85  55  45  168 138 127 167 138 122 165 134 116 174 138 122 177 139 126 172 134 121 178 143 124 173 144 126 163 142 125 69  55  44  49  44  41  25  26  31  25  27  39  26  25  39  28  22  34  34  24  35  37  27  35  32  27  31  24  28  29  16  22  8   99  103 66  186 193 141 170 185 126 62  79  27  115 124 93  24  32  21  41  53  67  72  82  109 80  84  113 96  81  104 109 63  73  95  40  37  77  30  12  81  34  14  97  40  31  105 44  39  107 44  35  105 43  30  103 43  32  105 45  34  106 46  36  103 43  35  101 40  35  99  40  36  86  31  28  86  31  28  87  32  29  117 61  60  170 111 115 190 133 139 183 130 138 180 133 143 177 133 146 175 133 145 173 131 143 174 130 143 176 133 143 180 134 145 179 133 146 178 132 145 181 134 152 180 133 151 175 132 149 173 132 146 170 130 141 168 126 136 174 127 137 181 129 141 190 130 142 192 130 143 191 129 140 192 132 142 193 133 141 190 130 138 190 128 139 197 135 146 195 135 147 183 130 140 146 103 110 123 84  87  134 96  95  187 139 139 200 134 138 208 123 126 195 95  93  166 63  58  135 36  31  117 30  21  88  18  6   83  17  5   95  16  9   181 92  86  196 98  87  153 42  31  120 0   0   179 40  33  192 39  33  181 18  11  208 35  29  205 34  27  199 43  31  240 88  75  240 82  73  206 41  35  193 20  16  212 34  32  207 28  24  194 19  14  216 49  41  248 90  79  237 89  75  230 85  68  242 92  77  238 82  69  207 43  33  214 51  42  226 78  68  234 92  80  230 89  71  226 91  71  219 97  76  167 56  39  129 33  19  129 36  28  135 37  34  153 63  63  180 109 115 167 114 120 111 75  79  75  36  39  188 128 130 207 132 129 206 123 117 181 92  86  191 100 97  181 93  91  148 70  70  122 54  53  183 125 123 194 141 137 187 132 129 191 131 130 194 128 129 200 130 132 201 129 133 205 132 139 176 105 113 152 91  99  129 83  94  127 91  101 123 91  104 117 89  101 114 90  103 119 93  106 114 83  98  107 71  85  105 61  76  160 109 124 166 110 123 161 105 118 168 114 127 164 112 124 162 115 125 160 113 123 160 113 121 162 112 121 161 111 122 160 110 121 159 109 121 159 108 123 158 110 126 158 111 129 155 111 128 153 112 130 151 112 130 148 114 130 146 115 130 144 116 130 143 115 129 143 115 130 145 116 134 146 115 133 146 115 133 146 115 133 143 116 133 141 117 133 140 117 133 140 117 133 139 116 132 139 116 132 139 116 132 138 115 131 137 116 131 137 116 131 137 114 130 136 115 130 135 117 129 130 114 125 130 114 125 133 117 127 129 113 123 124 109 116 133 118 125 146 131 138 145 130 137 145 130 135 144 129 134 142 127 132 141 126 131 139 124 129 139 122 128 138 122 125 136 120 121 136 120 121 132 116 117 137 121 122 131 115 116 125 109 110 133 117 118 121 105 105 124 108 109 122 106 106 121 105 106 119 103 103 118 102 103 116 100 100 114 98  99  113 97  97  111 95  95  109 93  93  108 92  92  106 90  90  104 88  88  102 88  87  100 86  85  99  85  84  98  84  83  97  83  82  92  78  77  83  72  70  77  66  64  76  65  63  77  66  64  75  65  64  71  61  60  70  60  59  70  60  61  69  59  58  69  59  60  67  57  56  66  56  57  64  54  53  63  53  54  62  52  51  61  51  52  60  50  49  
84  69  66  87  72  69  90  75  72  91  76  71  93  78  73  96  81  74  95  80  73  93  78  71  113 98  91  189 174 167 183 168 163 183 170 164 188 175 169 184 173 167 189 178 174 186 175 171 189 175 174 193 179 178 127 113 110 51  40  36  54  43  39  121 110 104 189 176 168 188 174 165 189 171 161 198 176 165 128 101 92  145 117 106 144 114 103 151 119 106 152 120 107 152 123 109 152 124 112 159 132 121 132 104 93  83  53  42  65  28  19  74  31  24  82  33  28  81  32  28  75  30  25  77  38  31  48  20  9   45  21  9   139 115 105 170 143 134 166 133 128 179 142 136 177 137 129 176 140 128 175 147 133 164 145 130 135 123 109 59  55  44  37  39  34  24  33  32  14  25  27  18  25  31  27  24  33  35  23  35  38  22  32  35  26  31  27  31  32  23  34  26  18  26  11  53  61  40  105 110 87  73  78  55  22  29  11  16  26  17  26  41  48  64  79  98  74  83  114 90  83  116 109 75  99  116 64  76  98  37  34  87  25  12  100 43  26  100 47  29  102 46  29  101 45  28  99  46  30  104 46  32  106 43  36  104 39  35  104 38  39  104 42  43  98  45  41  90  42  32  81  29  16  91  32  24  137 67  67  183 112 118 193 130 141 182 128 144 175 132 151 178 136 156 173 129 146 174 128 141 184 138 149 182 135 145 177 127 138 185 135 147 182 131 148 177 133 150 152 118 134 135 104 119 128 98  108 124 88  98  140 90  101 160 102 114 173 116 125 188 128 136 190 128 139 191 128 139 190 128 139 194 137 146 183 127 136 188 137 142 187 137 140 184 134 135 183 131 133 189 134 137 193 134 138 193 132 137 193 128 136 204 131 138 211 129 133 203 119 119 133 53  54  86  18  15  59  11  1   62  13  6   73  3   5   183 91  92  208 94  84  214 91  75  137 17  0   158 31  16  197 46  37  188 23  17  189 16  12  208 39  32  213 57  44  235 83  69  249 91  80  210 47  38  191 22  17  192 20  16  203 31  27  195 28  20  239 81  70  239 87  73  234 89  72  236 91  74  232 85  69  229 77  63  197 39  28  226 70  58  236 89  71  231 90  70  232 95  79  224 101 86  193 93  78  99  17  3   100 26  17  104 29  26  137 47  56  184 102 116 159 107 119 155 119 129 89  60  65  60  26  27  156 105 104 197 137 136 198 137 136 120 60  60  130 74  77  94  39  44  84  33  38  125 72  78  200 141 145 189 127 130 195 131 129 199 134 130 202 134 131 198 128 130 202 126 136 185 113 127 144 87  104 132 85  103 128 87  103 123 89  103 121 90  106 118 91  106 116 94  107 113 89  103 104 76  91  97  63  79  105 61  78  145 92  108 166 107 125 166 105 121 169 108 126 170 109 127 162 105 124 161 108 124 157 109 121 159 113 124 160 112 126 158 105 121 161 106 125 168 110 132 164 109 130 164 110 133 162 110 132 158 113 134 153 114 135 146 113 132 142 115 134 141 118 136 138 120 136 135 117 133 144 121 141 144 116 138 147 115 138 149 117 140 145 120 141 141 120 137 138 120 136 139 121 137 141 118 136 138 113 132 141 118 136 141 120 139 134 115 135 134 115 137 144 122 145 134 112 135 138 117 136 135 117 133 133 115 129 129 111 125 130 112 124 137 121 131 146 130 140 151 136 143 147 132 139 144 129 136 145 130 135 147 132 137 143 128 135 134 119 126 127 112 119 125 110 115 137 120 126 137 121 124 137 121 124 136 120 123 135 119 122 133 117 120 131 115 118 130 114 115 127 111 114 128 112 113 111 95  98  106 90  91  120 104 107 118 102 103 113 97  100 120 104 105 115 95  96  114 94  95  111 93  93  110 92  92  110 92  90  109 91  89  107 89  87  103 88  85  100 85  82  99  84  81  96  80  80  90  76  75  84  70  70  80  66  66  80  66  66  78  66  68  75  63  65  75  63  65  74  62  66  72  60  62  71  59  63  69  57  59  68  56  60  68  56  58  68  56  60  67  55  57  65  53  57  64  52  54  
89  74  71  92  77  74  94  79  76  95  80  77  97  82  77  100 85  80  100 85  80  98  83  78  150 135 130 179 164 159 182 168 165 191 177 174 183 172 168 188 177 173 185 175 173 187 177 175 183 173 172 157 147 146 65  55  54  26  18  15  25  17  14  61  54  48  151 142 135 190 180 171 192 178 169 189 171 161 148 125 117 114 87  78  152 124 113 152 122 112 153 123 113 154 125 117 153 126 119 122 95  88  83  54  46  65  32  23  71  31  23  80  33  25  83  28  23  82  27  22  81  32  25  70  30  20  62  32  22  48  24  14  75  52  44  166 141 136 175 143 144 176 137 138 179 138 134 182 143 136 170 141 133 168 148 139 137 124 116 52  47  41  42  42  40  23  29  29  20  28  31  26  29  36  45  38  46  63  47  57  66  43  53  51  30  35  36  24  24  32  27  23  29  29  27  25  25  23  20  19  14  7   7   0   15  18  11  14  20  18  10  20  29  55  66  84  79  88  117 85  86  116 92  76  102 113 80  97  122 69  75  103 40  35  96  33  18  104 43  24  104 45  27  102 45  28  101 43  29  102 42  31  106 41  35  109 41  40  108 40  39  103 39  37  101 46  39  97  45  34  97  44  30  92  34  23  103 35  32  145 74  78  186 116 127 188 125 142 176 127 149 178 133 156 181 134 154 179 131 147 179 131 143 182 132 143 184 132 144 184 132 145 176 128 144 142 101 119 122 91  107 118 94  108 111 88  98  119 87  98  139 91  103 139 83  94  137 81  90  158 101 108 191 129 140 192 129 140 196 133 144 191 129 140 189 132 141 188 135 141 188 136 140 184 132 134 197 138 140 195 133 136 198 133 139 197 130 139 203 137 147 195 128 137 200 129 135 203 134 137 185 121 122 79  28  25  57  23  14  51  14  6   63  1   6   172 82  84  217 94  86  225 94  76  180 61  41  151 26  8   196 45  34  188 21  15  194 21  17  195 26  19  229 73  60  237 85  71  242 84  73  217 54  45  191 24  18  189 22  16  190 25  19  218 57  47  242 88  76  232 85  69  240 95  76  231 89  69  238 91  75  202 52  37  211 57  47  239 86  72  235 86  64  236 96  73  213 81  66  212 98  87  162 79  65  73  7   0   77  14  7   108 42  44  173 95  109 177 108 126 160 119 135 142 116 129 63  36  45  57  25  30  107 63  62  197 146 145 185 133 135 138 88  91  103 58  63  86  43  50  80  39  47  156 106 115 193 130 139 201 132 137 203 135 134 199 134 128 192 127 121 200 132 131 201 128 139 132 65  82  104 59  79  124 90  107 126 92  109 123 92  107 120 93  108 116 93  109 110 89  104 102 79  95  97  70  85  98  64  80  99  56  73  140 89  106 164 105 125 167 104 123 170 107 128 170 107 128 166 104 127 165 107 129 163 110 128 164 116 132 157 109 125 162 113 132 159 110 129 156 109 129 162 119 138 150 108 128 151 114 132 147 116 134 144 119 138 140 121 140 136 122 139 131 123 138 128 124 139 129 125 140 125 121 136 129 120 139 137 119 141 139 120 140 132 119 137 128 117 133 130 122 135 140 130 141 142 124 138 146 126 138 136 118 132 132 115 131 136 122 139 139 121 143 126 106 131 143 123 148 139 117 138 138 117 136 137 116 133 140 119 136 144 126 140 151 133 145 153 136 146 151 135 145 154 139 146 150 135 142 147 132 137 146 131 136 141 126 133 130 115 122 123 108 115 121 106 113 140 123 129 140 123 129 139 122 128 138 121 127 137 120 126 135 118 124 134 118 121 133 117 120 136 120 123 123 107 110 130 114 117 74  58  61  73  57  60  123 107 110 103 87  90  108 89  93  123 103 105 122 100 102 119 99  100 118 98  99  117 97  98  115 95  94  110 92  90  108 90  88  106 88  86  106 88  88  102 86  86  97  81  82  91  75  76  85  69  72  81  66  69  80  65  68  78  66  70  77  65  69  76  64  68  75  63  67  73  61  65  72  60  64  71  59  63  70  58  62  70  58  62  69  57  61  67  55  59  67  55  59  
93  79  76  95  81  78  97  82  79  98  83  80  100 85  80  103 88  83  104 89  84  103 88  83  145 132 126 185 172 166 188 174 171 182 168 165 188 177 173 181 172 167 147 137 135 184 174 172 182 172 170 135 127 124 56  48  45  35  30  24  24  19  13  71  67  58  111 107 98  180 171 162 187 174 166 195 178 170 135 115 108 121 98  90  149 122 115 154 125 119 159 130 124 155 126 120 116 85  80  79  49  41  58  25  18  67  30  22  79  36  29  81  32  25  82  29  23  83  30  22  84  35  28  75  32  23  70  36  27  54  25  17  48  21  14  141 113 109 172 142 142 181 145 145 184 140 139 185 141 140 176 138 137 175 144 142 155 130 133 60  44  47  56  45  53  34  27  35  35  27  40  36  24  36  49  31  43  77  51  60  97  65  70  99  59  60  88  42  42  72  32  30  59  34  37  37  23  23  32  25  19  27  24  19  18  19  21  13  16  25  14  13  31  23  21  45  56  58  79  74  81  99  74  84  96  84  84  94  111 88  96  121 72  76  121 46  43  118 33  26  111 38  23  110 41  26  109 41  32  107 40  34  105 42  37  106 43  38  107 43  34  106 39  30  109 45  35  103 41  30  105 45  37  100 42  38  83  32  29  100 44  47  158 85  94  199 125 140 188 126 147 180 126 149 183 132 151 182 134 150 179 128 143 181 130 145 186 133 149 181 130 147 147 102 122 119 82  100 114 87  102 119 97  110 113 89  102 122 92  104 131 90  104 119 71  83  112 60  72  126 70  81  172 112 122 192 129 140 199 131 142 194 126 137 198 130 141 197 131 141 193 130 139 200 140 148 182 125 132 193 134 140 193 132 139 197 132 140 193 126 133 203 136 143 201 136 142 147 86  91  169 113 116 68  24  21  43  16  5   37  4   0   59  0   4   157 68  70  217 94  86  226 93  76  217 94  76  164 34  18  196 42  32  194 25  20  199 24  21  194 25  18  240 84  71  240 90  75  238 82  70  225 64  54  188 23  17  188 23  19  189 26  19  240 82  71  242 90  77  232 85  69  240 95  76  230 88  68  235 88  72  193 43  28  232 78  68  247 94  80  236 85  64  235 95  72  229 102 87  198 92  79  109 33  20  78  15  6   84  19  17  170 105 109 173 111 122 167 115 128 153 116 133 145 117 132 56  30  43  51  21  29  73  32  36  185 135 136 203 144 146 165 104 109 103 46  52  83  30  36  125 74  81  194 137 146 201 134 143 200 129 135 195 127 126 201 138 133 189 128 123 190 129 128 200 135 141 136 78  90  74  36  49  73  47  60  102 76  89  109 85  98  114 94  106 109 91  103 98  82  95  89  71  85  90  66  80  98  66  81  106 65  81  141 93  109 164 107 126 167 105 126 168 106 129 168 106 129 165 105 130 168 108 133 166 104 127 164 105 127 158 107 126 156 115 133 144 113 128 135 115 127 135 123 133 120 114 124 106 104 115 99  99  111 92  94  106 91  95  107 86  94  105 79  89  99  74  88  99  72  92  101 63  92  100 70  97  106 75  87  101 66  72  88  67  73  87  77  84  94  71  78  86  57  60  65  85  80  84  112 101 105 127 116 120 135 124 130 139 129 138 134 122 136 134 119 138 138 121 140 137 118 138 142 121 140 146 125 142 151 130 147 157 136 151 158 140 152 157 140 150 153 136 146 154 137 145 151 134 142 151 134 142 153 136 144 151 134 142 147 130 138 144 127 135 144 127 135 144 127 133 143 126 132 142 125 131 141 124 130 140 123 129 138 121 127 137 120 126 137 120 126 130 114 117 133 117 120 131 115 118 119 103 106 86  70  73  81  65  68  115 99  102 130 111 115 122 102 104 120 100 102 119 99  101 118 98  100 116 97  99  114 96  96  112 94  94  110 92  92  109 93  93  108 92  93  106 90  91  100 84  87  93  78  81  87  72  77  84  69  74  83  68  73  82  70  74  81  69  73  80  68  72  79  67  71  77  65  69  76  64  68  75  63  67  74  62  66  73  61  65  72  60  64  70  58  62  69  57  61  
96  82  79  98  84  81  101 86  83  102 87  84  104 89  86  106 91  86  108 93  88  109 94  89  130 117 111 181 168 162 186 172 169 186 175 171 176 167 162 90  81  76  16  6   4   91  83  80  182 175 169 162 158 149 73  68  62  149 146 137 147 144 135 85  82  73  143 140 131 190 186 177 183 174 167 187 174 166 127 110 103 120 99  94  151 126 122 155 127 124 155 125 123 119 88  85  72  39  32  66  29  21  70  31  24  79  39  31  81  34  26  79  30  23  84  31  23  83  33  24  82  33  26  79  35  26  72  33  26  64  29  23  55  24  19  93  64  60  169 141 138 175 144 142 182 142 140 181 137 136 183 141 142 175 139 141 173 144 149 87  66  75  61  43  57  47  33  48  39  25  42  37  20  36  38  20  32  57  34  40  95  61  62  129 79  78  140 75  73  129 64  62  90  41  44  81  49  50  62  42  41  47  37  36  40  33  41  28  22  36  31  23  44  42  39  58  48  51  66  32  45  54  35  55  64  57  71  80  77  74  85  109 77  88  140 68  79  136 47  51  119 34  29  115 37  27  113 38  33  110 41  36  106 41  37  104 41  32  105 43  30  110 44  28  108 38  26  112 42  34  106 38  35  103 43  43  98  48  49  90  38  40  124 53  59  180 103 113 196 127 146 185 123 144 179 126 144 183 132 149 184 133 150 183 130 150 183 128 151 180 128 151 96  54  74  100 67  86  113 89  105 118 95  111 119 92  107 120 89  104 113 79  95  107 69  84  108 64  77  106 58  70  144 91  101 188 131 138 193 128 136 200 130 138 199 127 138 201 129 140 196 130 142 196 136 148 188 135 145 156 105 112 138 85  91  141 85  88  194 132 135 197 135 138 171 114 120 88  37  42  99  53  55  49  14  10  28  8   0   32  5   0   50  0   0   149 63  64  217 94  86  227 91  75  225 98  81  197 64  49  198 40  31  201 29  25  193 18  15  205 36  29  238 84  72  242 92  77  240 86  74  231 73  64  185 22  17  187 24  19  205 44  36  244 88  76  238 86  73  237 90  74  234 89  70  233 91  71  221 76  59  215 65  50  243 89  77  239 85  73  243 92  73  223 84  65  213 95  81  165 71  59  77  7   0   77  18  12  173 107 109 171 110 117 160 113 121 155 119 129 144 113 129 121 94  111 45  21  35  46  18  30  64  27  34  168 119 123 187 125 128 203 134 137 200 135 139 175 114 119 197 137 145 196 133 141 200 129 137 203 128 133 199 129 129 196 133 128 193 134 128 194 136 134 194 133 138 166 113 121 74  41  48  73  50  58  66  43  53  85  63  75  102 84  96  106 88  100 95  79  92  88  67  82  90  63  78  97  65  80  130 87  106 155 104 123 167 110 129 167 105 126 166 104 127 167 105 130 165 105 130 168 108 134 169 106 133 165 109 134 159 116 136 133 106 121 106 96  107 85  90  96  68  83  88  65  86  89  72  96  100 66  89  95  63  83  90  64  84  91  66  89  97  67  92  99  66  93  100 62  95  102 56  99  105 50  93  99  59  87  98  67  87  98  55  75  84  37  56  63  33  51  55  45  56  58  18  22  23  22  20  21  39  33  35  81  75  77  130 123 130 133 123 132 142 125 141 143 122 141 147 126 145 153 132 151 159 138 155 160 139 156 159 138 153 159 138 153 159 139 151 156 139 149 158 138 149 154 137 145 152 135 143 153 136 144 152 135 143 150 133 141 148 131 139 148 131 139 147 130 138 146 129 135 145 128 134 143 126 132 142 125 131 141 124 130 140 123 129 140 123 129 144 128 131 129 113 116 130 114 117 136 120 123 127 111 114 125 109 112 129 113 116 127 108 112 127 108 112 126 105 110 124 103 108 122 102 104 120 101 105 118 99  101 116 97  99  115 96  98  110 94  95  108 92  95  103 87  90  97  80  86  91  76  81  88  73  78  87  72  77  88  73  78  85  73  77  84  72  76  83  71  75  81  69  73  80  68  72  79  67  71  77  65  69  77  65  69  76  64  68  74  62  66  73  61  65  72  60  64  
101 87  86  102 88  87  104 90  89  106 92  89  108 93  90  110 95  92  113 98  93  115 100 95  124 111 105 173 160 154 186 175 171 190 179 175 153 144 139 63  54  49  21  13  10  64  57  51  145 141 132 177 175 163 111 108 99  50  50  40  60  60  50  90  90  80  169 169 159 184 181 172 186 179 171 183 172 166 131 116 111 110 91  87  147 123 121 161 135 134 109 80  82  71  40  38  69  32  26  72  32  24  80  35  29  82  35  27  77  28  21  80  30  21  83  33  24  78  30  20  79  30  23  75  28  20  82  37  32  74  33  29  59  21  18  55  24  21  155 130 126 166 141 136 179 146 139 178 141 135 184 144 144 176 140 144 176 146 154 128 106 119 56  37  56  56  41  60  38  23  44  37  24  42  32  24  35  38  26  30  64  38  37  109 61  57  154 78  78  173 89  87  180 106 105 114 56  55  55  19  21  58  33  39  73  46  61  61  43  57  53  45  58  45  48  57  38  48  57  43  57  66  16  30  43  9   21  35  58  64  78  92  78  93  114 63  82  150 73  89  136 47  53  127 39  38  110 36  33  107 40  34  109 40  33  106 40  28  102 43  25  108 47  28  108 36  22  119 45  36  110 38  39  103 37  39  107 46  51  101 42  44  105 41  41  129 60  63  187 113 126 197 126 144 187 129 144 180 127 145 186 132 155 186 132 156 181 125 152 179 129 156 93  53  77  74  43  61  75  51  67  91  67  83  113 84  102 123 94  112 105 76  94  88  60  75  97  65  78  103 67  77  141 102 107 183 137 140 185 130 133 197 135 138 201 131 139 200 130 140 195 132 143 186 130 143 131 88  97  127 91  95  108 69  70  102 61  59  142 93  88  191 140 137 104 57  63  93  52  58  76  40  42  38  10  6   29  12  2   32  10  0   44  0   0   146 62  60  219 97  86  230 93  77  224 91  76  228 88  75  206 45  37  204 32  28  189 14  9   214 45  38  238 84  72  238 90  76  239 87  76  237 80  71  185 23  18  181 19  14  225 67  58  238 84  72  238 88  74  239 92  76  231 86  67  236 94  74  213 68  51  235 88  72  242 90  77  235 83  70  238 91  75  215 84  66  203 101 86  99  21  8   74  11  2   150 92  90  164 103 108 171 118 126 152 119 126 143 122 131 152 127 146 91  66  87  43  20  38  52  26  39  50  19  27  122 80  84  201 139 142 209 139 141 205 134 138 203 134 137 199 134 140 197 130 137 204 129 136 205 128 134 204 132 133 199 134 132 196 138 134 189 133 132 187 131 134 187 136 141 100 65  71  65  40  46  70  47  55  61  39  51  64  42  55  78  58  70  91  68  84  94  70  86  101 70  86  113 74  92  152 105 125 163 110 130 168 109 131 168 104 128 167 103 129 167 105 130 165 105 131 163 107 134 157 104 130 155 113 135 124 100 116 93  87  97  76  89  95  60  88  89  53  92  91  62  102 102 53  91  92  62  97  101 68  99  104 67  96  102 66  95  103 67  97  105 64  97  104 57  94  100 61  102 108 54  95  101 61  94  101 71  100 108 59  88  94  39  67  71  40  65  69  58  77  81  56  63  69  30  31  36  30  27  34  36  31  38  39  34  41  129 117 127 160 136 152 165 138 155 162 139 159 165 144 163 168 145 163 165 142 160 162 139 155 161 138 154 162 140 153 162 142 153 163 141 153 159 139 150 157 137 148 155 135 146 154 134 145 152 132 143 150 130 141 150 130 139 150 130 139 150 130 139 148 128 137 147 127 136 145 126 132 144 125 131 144 125 131 143 124 130 139 120 126 133 114 120 150 131 137 134 115 121 130 111 115 142 123 127 127 108 112 136 117 121 133 114 120 129 110 116 124 105 111 120 101 105 117 98  104 114 95  99  110 94  97  108 92  95  105 89  92  103 86  92  99  84  89  94  79  86  91  76  83  90  75  82  91  76  83  91  76  83  89  74  81  88  73  80  87  72  79  86  71  78  84  69  76  83  68  75  82  67  74  81  66  73  79  64  71  78  63  70  77  62  69  76  61  68  
103 89  89  104 90  89  106 92  91  109 95  94  111 95  95  112 97  94  115 100 97  118 103 98  123 110 104 183 170 164 189 178 174 179 170 165 151 142 137 97  90  84  98  90  87  89  84  78  151 148 139 155 153 141 25  25  15  14  14  4   9   9   0   10  10  0   117 117 107 176 173 166 180 175 169 191 182 177 131 117 114 116 98  96  142 121 120 123 97  98  68  38  40  66  30  30  75  34  30  79  32  24  82  32  25  81  31  22  78  28  19  79  29  20  80  32  22  79  31  21  80  31  24  76  26  19  86  35  31  82  32  31  66  25  23  46  12  10  102 78  74  172 152 145 175 148 139 181 148 141 178 143 141 181 147 148 171 141 149 161 139 152 65  48  66  57  45  65  40  31  52  31  27  44  26  26  36  29  27  30  43  27  27  73  35  32  127 57  59  167 83  83  177 92  87  117 42  37  80  24  27  79  33  43  63  23  34  56  26  36  63  48  51  50  48  49  43  48  52  45  54  63  43  50  66  26  33  51  32  39  55  73  69  86  107 77  101 124 72  94  140 68  80  132 51  57  114 38  40  110 36  33  110 40  32  107 41  27  102 44  24  106 45  26  116 44  30  110 35  29  111 37  36  112 42  44  106 37  40  103 39  39  104 45  41  104 40  38  157 80  88  196 120 132 198 136 151 180 126 142 183 127 152 186 131 160 183 128 159 181 131 160 120 80  104 71  40  58  67  38  56  74  47  62  77  46  62  91  60  78  94  69  88  94  70  86  93  63  75  120 87  96  170 134 138 182 140 142 188 136 138 195 133 136 205 135 143 199 129 139 197 131 143 182 126 137 131 90  98  95  60  64  100 66  65  126 91  85  186 143 136 166 121 118 65  26  31  100 67  74  87  57  59  35  11  7   23  9   0   24  2   0   49  0   0   140 59  56  217 95  82  231 91  74  227 90  74  235 91  80  219 58  50  207 35  31  192 21  14  220 56  47  241 89  76  232 86  71  235 84  73  239 87  76  186 29  22  176 17  11  238 81  72  238 84  72  242 92  77  234 89  70  233 91  71  235 93  73  220 75  58  238 93  76  238 88  74  239 91  77  230 90  77  218 100 86  153 70  54  74  10  0   105 47  45  176 121 124 168 113 119 160 117 126 148 123 129 143 127 137 134 116 132 75  54  73  54  31  51  46  22  36  49  23  32  72  36  40  190 134 135 201 133 132 198 128 128 211 141 143 201 132 135 202 131 135 214 137 143 213 134 139 205 130 134 204 136 137 197 137 137 185 129 130 196 137 141 192 139 145 149 108 114 83  51  56  74  44  52  66  36  48  71  43  57  88  60  75  95  64  80  95  60  80  117 78  97  152 104 126 162 108 131 166 107 129 169 105 129 169 104 128 169 103 130 169 105 132 167 104 133 160 104 131 154 110 135 149 120 140 101 87  102 80  84  93  69  94  98  39  78  77  19  65  63  0   41  38  11  55  56  35  75  77  56  91  95  62  93  98  60  90  98  61  94  101 62  97  103 58  95  101 55  92  98  59  96  102 58  95  101 54  89  93  52  90  93  57  95  98  61  95  97  60  89  93  60  79  86  45  58  67  44  54  64  44  53  62  41  45  54  29  26  35  136 114 127 172 144 159 170 147 165 168 147 166 166 143 161 163 140 158 163 140 156 165 142 158 165 142 158 163 141 154 163 141 154 162 140 152 160 138 150 159 139 150 159 139 150 159 139 150 159 139 150 159 139 150 152 132 143 151 131 140 150 130 139 149 129 138 148 128 137 146 127 133 145 126 132 145 126 132 140 121 127 145 126 132 131 112 118 137 118 124 143 124 130 132 113 117 133 114 118 133 114 120 124 104 113 120 100 109 115 95  104 111 91  100 109 89  98  107 88  94  104 87  95  102 85  91  101 84  92  101 84  92  99  84  91  98  83  90  96  81  88  95  79  89  94  78  88  93  77  87  91  75  85  90  75  82  89  74  81  88  73  80  86  71  78  85  70  77  84  69  76  83  68  75  82  67  74  81  66  73  79  64  71  78  63  70  
105 90  93  106 92  92  108 94  94  112 98  97  114 98  98  114 99  96  116 102 99  120 106 103 130 116 113 182 168 165 183 172 168 194 185 180 185 176 171 91  84  78  86  78  75  86  81  77  177 174 167 95  92  83  11  8   1   21  18  11  7   4   0   17  14  7   34  31  24  174 171 164 179 174 168 187 178 173 145 131 128 111 93  91  128 104 104 68  39  41  69  37  40  76  38  37  76  28  24  81  31  22  85  30  23  86  31  24  86  31  24  82  30  19  78  30  18  82  34  22  83  33  24  83  30  24  85  27  25  84  30  30  80  34  34  55  20  18  53  29  25  155 136 129 173 149 137 180 152 141 176 143 138 179 148 146 173 144 149 171 150 159 99  85  100 55  48  64  42  41  57  24  32  45  14  27  36  21  30  35  32  30  31  50  28  30  89  40  44  125 57  58  177 94  86  178 91  82  138 53  58  91  20  28  83  31  33  78  43  39  61  36  29  55  38  31  58  43  46  47  39  50  53  55  68  54  57  74  47  48  66  51  49  70  65  60  83  93  78  99  116 80  94  126 69  78  133 50  58  127 38  40  109 41  30  105 44  26  107 44  27  106 43  28  114 47  38  101 32  25  108 37  33  119 45  42  112 37  34  105 36  31  104 47  38  103 44  38  128 49  52  175 94  101 195 127 138 189 128 144 183 125 149 184 129 158 185 130 161 181 131 160 170 128 152 111 73  94  83  49  65  69  37  52  70  36  52  89  56  73  92  65  82  96  68  83  128 90  103 157 116 124 191 146 151 189 140 144 195 139 142 199 134 140 204 133 141 203 132 140 211 143 154 187 127 135 92  43  47  81  39  41  132 92  92  184 145 140 181 138 132 111 70  68  69  36  43  91  64  73  86  61  65  30  11  7   22  8   0   23  0   0   52  3   0   147 66  62  216 94  81  228 87  70  232 92  77  234 87  77  233 72  64  209 42  36  192 25  17  229 69  57  240 90  76  232 86  71  235 87  75  237 86  75  188 34  26  183 29  21  239 85  75  239 87  74  239 92  76  234 89  70  233 91  71  231 89  69  228 85  68  236 91  74  235 87  73  236 94  80  220 94  82  199 98  86  85  21  9   64  15  8   166 114 118 162 111 120 164 121 131 146 113 122 150 127 137 131 115 126 84  67  85  55  38  56  54  33  52  40  18  31  53  34  40  55  26  28  168 120 118 200 141 137 200 136 134 205 137 136 204 139 137 201 131 131 210 134 136 204 125 130 209 134 139 200 129 135 195 133 138 197 136 141 203 138 146 187 124 133 191 138 146 174 129 136 137 95  105 107 66  80  81  40  56  80  39  57  100 57  77  127 79  101 151 99  122 168 110 135 172 108 134 171 102 130 172 102 130 174 104 132 173 102 132 172 103 132 170 103 134 161 105 134 150 110 136 135 110 131 108 97  113 78  85  95  63  87  91  61  97  97  55  97  96  40  84  83  33  75  74  50  88  89  65  98  103 69  98  104 66  95  101 65  94  100 63  94  99  59  92  97  59  92  97  58  93  97  58  98  98  58  100 99  50  94  93  46  92  92  55  100 103 69  112 118 68  104 116 74  106 119 51  83  96  33  63  73  19  47  51  32  45  51  44  31  41  143 119 132 165 144 159 164 146 162 165 144 161 164 143 160 165 142 160 166 143 159 166 142 158 164 140 156 166 142 158 165 141 155 163 139 153 160 138 151 159 137 150 158 136 149 155 135 147 154 134 145 154 134 145 154 134 145 153 133 144 152 132 141 151 131 140 149 129 138 148 128 137 147 127 136 141 121 130 148 128 137 143 123 132 139 120 126 142 123 129 142 123 129 135 116 122 126 107 113 119 99  110 117 97  108 114 94  105 112 92  103 110 93  103 109 92  100 108 91  101 107 90  98  103 86  96  103 86  96  101 85  95  101 85  95  100 84  94  98  82  93  96  80  91  95  79  90  95  78  88  94  77  87  93  76  86  92  75  85  90  73  83  89  72  82  88  71  81  87  70  80  86  69  79  84  67  77  83  66  76  82  65  75  
108 93  96  109 94  97  112 97  100 116 102 102 118 102 103 117 101 101 119 105 104 123 109 106 154 140 137 189 178 174 184 173 169 186 177 172 161 154 148 30  23  17  13  8   4   22  17  13  152 149 144 58  55  50  13  10  5   10  5   1   17  12  8   12  7   3   14  9   5   157 152 148 186 179 173 180 171 166 154 141 135 106 87  83  76  50  49  72  41  39  73  37  37  73  29  28  81  30  26  90  33  26  88  29  23  86  27  19  90  33  24  86  34  23  79  31  19  80  32  20  83  30  22  83  28  23  86  26  25  87  29  28  78  28  27  67  29  26  45  22  16  111 92  85  172 147 140 177 148 142 176 145 142 177 143 144 183 152 158 168 142 151 140 124 137 56  50  64  41  45  57  28  38  50  19  32  41  19  29  38  29  28  34  43  28  33  66  33  40  89  39  42  138 71  62  182 102 91  185 89  90  129 37  40  96  27  22  98  46  35  91  49  37  85  51  42  68  38  38  56  35  40  53  43  52  47  44  55  51  44  60  51  48  65  43  48  67  57  60  77  88  77  93  116 82  96  139 71  82  132 52  55  112 39  32  108 40  27  111 43  32  110 43  34  101 38  31  108 45  38  110 43  35  108 38  30  112 39  32  110 42  33  102 42  32  103 40  31  113 35  31  148 66  68  185 112 121 199 133 147 190 128 151 181 125 152 183 128 157 180 130 157 178 133 156 175 132 151 158 115 132 108 67  81  83  42  58  88  52  66  102 69  86  143 107 121 178 132 142 191 140 147 190 137 143 193 138 143 196 137 143 202 140 145 195 128 135 205 139 143 196 130 134 205 143 146 164 108 109 162 112 111 188 143 140 193 149 148 167 126 124 72  33  34  82  52  62  99  73  84  88  66  69  28  7   4   40  22  10  42  14  2   48  0   0   166 83  77  222 99  84  227 84  67  235 93  79  237 89  77  238 80  71  209 46  37  184 22  11  234 78  65  233 85  71  235 92  76  239 93  80  232 84  72  189 36  28  196 44  33  238 86  73  237 87  72  234 87  71  237 92  73  230 88  66  227 85  63  233 90  73  237 94  77  235 89  74  224 90  78  212 101 90  155 73  62  61  11  2   128 90  87  160 113 123 165 117 131 147 111 125 152 124 136 142 118 132 96  78  92  57  40  58  51  34  52  56  38  54  52  34  46  36  21  26  47  26  25  127 90  84  197 147 140 197 136 131 203 138 134 201 136 130 208 139 134 208 132 132 213 134 137 211 134 142 203 132 140 201 136 144 193 130 139 197 127 138 204 134 145 194 131 140 188 131 140 180 128 140 187 136 151 179 128 145 162 109 129 165 110 133 185 127 152 192 132 158 186 122 149 180 111 139 177 104 133 177 104 133 177 104 133 172 101 131 171 102 133 172 105 138 166 107 139 157 111 139 151 117 141 185 164 183 132 126 140 74  84  93  73  98  102 56  90  92  67  105 106 60  98  99  59  97  98  61  95  97  62  96  98  66  97  102 67  98  101 66  97  102 62  95  100 62  95  100 62  97  99  55  97  96  49  95  93  51  97  97  58  104 104 57  105 107 57  100 106 61  98  107 56  88  99  57  89  100 60  90  98  45  76  79  25  44  48  55  50  57  66  48  60  157 139 153 163 146 162 169 151 167 171 150 167 167 146 163 166 143 161 167 143 159 168 144 160 165 141 157 165 141 157 164 140 156 163 139 153 163 139 155 162 140 153 161 139 152 159 139 151 155 135 147 155 135 146 155 135 146 154 134 145 153 133 144 151 131 140 149 129 140 148 128 137 149 129 138 145 125 134 145 125 134 147 127 136 143 123 132 136 117 123 129 109 118 122 102 111 119 99  111 117 97  109 116 96  108 115 95  107 112 94  106 111 94  104 109 92  102 107 90  100 108 91  101 106 89  99  104 87  97  100 84  94  100 82  94  98  82  93  98  80  94  98  80  92  97  79  91  96  79  89  95  78  88  94  77  87  92  75  85  91  74  84  90  73  83  89  72  82  88  71  81  87  70  80  85  68  78  84  67  77  
112 95  101 114 98  101 117 101 104 119 103 104 120 104 105 121 105 105 123 107 107 125 109 109 158 144 141 185 174 170 185 174 170 185 176 171 141 134 128 16  9   3   18  13  7   17  12  8   120 115 112 47  42  39  14  9   6   13  5   3   22  14  12  18  10  7   18  10  7   146 138 135 186 179 173 179 168 162 153 138 131 105 85  78  71  42  38  78  43  39  75  34  32  77  29  25  82  27  22  93  33  25  102 39  32  104 41  32  101 43  32  97  43  31  88  39  25  79  31  19  84  31  23  88  30  26  89  28  27  86  26  26  80  29  28  73  32  30  62  35  28  57  34  28  172 144 141 180 148 149 177 142 146 189 152 159 174 137 145 178 145 156 174 150 163 78  64  77  52  52  64  24  30  42  25  29  41  98  98  110 61  53  66  39  23  34  51  31  42  64  37  42  70  35  29  143 86  75  193 103 95  188 83  77  132 38  30  114 34  25  112 45  37  100 45  40  96  51  46  80  46  44  61  40  39  55  39  42  59  41  53  59  47  59  50  50  58  42  49  57  56  58  71  90  79  93  108 79  84  132 80  82  137 55  57  125 35  35  118 45  39  105 40  34  104 43  38  101 42  36  104 41  32  106 44  33  106 44  31  105 41  29  108 40  29  113 40  31  116 37  30  121 42  37  161 82  87  200 126 139 186 121 141 185 125 150 186 132 158 181 128 154 181 127 151 185 132 152 187 134 150 178 128 140 157 111 122 146 102 115 161 119 133 189 141 153 194 137 143 192 130 133 202 140 145 195 134 141 195 134 141 201 142 148 195 136 138 204 144 144 199 138 135 205 142 137 204 141 134 208 149 143 196 143 139 192 146 146 113 73  74  56  24  29  86  58  70  85  59  72  112 85  92  32  4   3   67  38  30  57  19  8   53  0   0   177 90  81  221 98  82  228 86  66  236 95  78  233 87  74  237 83  73  211 55  43  183 30  16  232 80  66  236 90  75  232 89  73  234 88  75  234 86  74  204 53  42  194 43  32  240 90  76  234 87  71  236 91  74  234 89  70  233 91  69  227 87  64  232 91  73  230 89  71  234 91  75  219 93  79  192 98  88  88  23  17  68  29  24  148 116 119 158 115 132 159 116 136 149 118 134 152 125 140 110 83  98  62  38  54  55  34  51  55  38  54  57  43  56  46  35  43  42  30  32  48  30  28  80  49  46  194 151 145 197 140 133 204 139 133 205 141 132 204 135 128 212 137 134 212 133 136 212 135 143 200 127 138 205 142 153 197 133 147 200 129 143 199 127 139 203 133 143 197 132 140 192 132 144 189 131 146 190 129 147 190 128 149 191 127 151 191 127 153 192 126 153 193 124 152 202 132 160 195 122 151 184 111 140 177 106 136 172 105 136 170 105 137 169 105 139 170 106 140 173 109 143 161 104 136 160 116 143 239 210 232 163 150 167 76  80  91  80  97  104 64  92  95  60  94  95  65  105 104 54  94  93  59  99  98  58  96  97  61  100 99  62  97  99  58  96  97  59  99  99  54  98  97  54  100 100 47  93  93  56  95  100 60  97  103 49  89  91  60  94  96  65  86  89  64  78  81  71  81  83  77  88  90  46  66  65  38  54  54  46  45  51  52  42  53  77  65  79  156 142 157 169 152 168 167 150 166 167 146 163 166 143 161 176 151 170 167 142 161 170 143 162 169 142 161 168 141 160 165 141 157 165 140 159 163 140 156 162 139 155 161 139 152 160 138 151 159 137 150 158 136 149 157 135 148 156 134 147 154 132 144 153 131 144 152 130 142 149 127 139 150 128 140 149 127 139 147 125 137 141 119 131 132 111 120 123 101 113 117 95  107 121 98  114 121 98  114 119 98  113 118 98  110 116 96  108 115 95  107 114 94  106 113 93  105 109 89  101 109 89  101 109 89  101 107 89  101 108 87  102 104 86  100 104 83  98  103 83  95  102 82  94  100 80  91  98  78  89  97  77  88  96  76  87  95  75  86  94  74  85  93  73  84  92  72  83  91  71  82  90  70  81  90  70  81  
114 97  103 116 99  105 119 102 108 121 105 108 122 106 109 124 108 109 126 110 110 128 112 112 148 134 131 191 177 174 184 173 169 193 184 179 174 165 160 140 133 127 142 135 129 140 135 131 165 160 157 125 116 117 125 116 117 139 129 130 120 110 109 118 108 107 127 117 115 165 155 153 184 175 170 175 162 156 146 129 121 100 75  68  72  39  32  76  35  29  76  29  23  82  29  23  91  32  26  100 37  30  106 42  33  105 42  33  103 43  33  101 44  33  94  42  29  89  37  24  82  28  18  86  29  22  90  26  24  88  27  26  83  29  27  75  31  28  64  31  24  55  27  23  148 117 122 180 147 156 176 143 152 183 147 157 188 148 159 181 145 157 173 145 157 127 109 121 51  45  55  45  43  54  26  20  34  119 108 122 160 142 156 76  58  72  34  22  32  58  47  51  65  51  48  77  43  34  158 84  73  200 102 91  182 75  67  147 44  37  115 30  25  114 45  40  95  40  33  93  49  40  91  52  45  81  46  44  68  36  41  59  34  38  54  46  44  54  55  57  52  51  65  60  59  75  81  76  82  102 76  79  143 76  83  136 51  58  114 34  37  110 38  39  102 38  36  105 46  40  105 46  38  99  41  30  99  41  29  108 44  32  115 42  33  112 35  25  118 44  33  114 37  29  133 53  54  177 100 110 199 128 144 189 128 146 186 131 154 184 130 153 192 133 155 190 127 146 189 127 142 189 131 143 186 135 144 184 134 143 187 135 147 197 140 149 199 135 136 202 134 133 206 140 142 203 138 142 202 143 149 184 129 132 153 102 99  161 111 102 202 146 133 208 149 135 200 134 120 199 135 125 199 141 137 187 141 141 57  22  26  75  48  57  93  66  81  91  65  78  119 88  94  43  9   8   82  44  35  72  22  11  71  4   0   192 99  91  223 96  77  231 89  67  234 93  76  232 89  75  237 87  73  221 69  56  176 26  11  232 85  69  234 88  73  234 88  73  236 90  77  238 90  78  214 66  54  195 47  35  238 90  76  235 88  72  236 91  72  233 91  71  233 91  69  230 89  69  232 91  73  231 90  73  233 91  77  217 96  85  166 86  77  65  14  10  63  27  27  155 124 132 157 119 140 152 117 139 147 120 139 112 88  104 70  43  58  61  34  49  62  38  54  58  37  52  52  40  50  50  40  48  46  36  37  42  27  24  60  32  29  181 140 136 202 144 140 205 138 130 206 138 127 207 137 125 216 139 133 213 135 135 209 132 140 209 137 149 190 128 141 200 139 154 206 138 153 201 129 141 199 128 136 198 128 136 196 130 142 193 131 146 194 130 147 194 129 149 196 128 151 196 128 153 195 127 152 196 126 154 192 122 150 194 125 153 197 128 156 191 125 153 179 116 145 167 106 139 164 104 138 170 106 141 166 96  132 174 104 140 172 111 144 161 112 141 206 174 197 223 206 224 98  96  109 78  91  99  72  96  100 64  95  97  61  100 99  58  99  95  60  102 100 56  98  94  64  104 103 54  96  94  55  97  96  55  99  100 58  103 108 52  95  102 58  90  101 55  84  92  29  57  60  21  37  36  30  25  22  69  45  43  75  40  38  66  36  34  42  34  31  24  26  25  42  43  48  48  46  57  48  42  54  103 92  106 165 153 167 166 152 167 166 149 165 171 150 167 166 143 161 172 147 166 168 141 160 168 141 160 168 141 160 169 142 161 167 142 161 165 140 159 162 139 157 161 138 154 160 137 153 159 137 150 157 134 150 156 134 147 156 133 149 155 133 146 153 130 146 152 130 143 150 128 141 152 130 143 151 129 142 144 122 134 133 111 124 126 104 116 124 102 115 126 104 117 121 98  114 121 98  116 121 98  114 120 99  114 120 97  113 117 97  109 116 94  107 114 94  106 116 94  107 113 93  105 113 91  104 110 90  102 110 87  103 108 87  102 109 86  102 109 89  101 106 84  97  104 84  95  103 81  93  101 81  92  101 79  91  98  78  89  97  75  87  95  75  86  96  74  86  93  73  84  92  70  82  90  70  81  
119 99  108 122 103 109 124 105 111 127 108 112 128 109 113 130 111 113 132 114 114 132 116 116 149 135 132 188 174 171 186 175 171 178 169 164 188 179 174 181 174 168 152 145 139 154 146 143 181 172 173 152 143 146 145 135 136 186 174 176 183 171 173 182 170 170 193 182 180 181 170 166 179 168 162 183 168 161 153 135 125 94  67  56  69  32  23  76  32  23  84  31  23  90  31  23  99  39  31  104 41  32  107 43  34  106 42  33  105 42  33  105 45  35  101 44  33  96  42  30  87  30  21  88  29  23  88  27  22  87  28  24  84  31  27  80  32  28  70  31  24  60  26  25  97  65  76  158 127 143 176 145 161 172 140 155 180 144 158 180 146 160 176 146 158 157 135 147 67  57  66  47  40  48  36  20  31  129 107 120 171 145 158 146 122 135 37  28  33  33  31  34  48  46  49  63  48  45  77  37  27  165 93  81  204 95  90  185 65  64  138 36  34  118 37  33  104 46  35  95  45  34  101 41  33  102 41  36  98  45  41  83  44  39  64  41  35  50  36  35  47  35  49  51  44  62  54  56  68  81  76  83  108 78  86  142 86  95  138 52  63  127 36  45  114 40  41  105 44  41  100 45  42  100 45  42  106 42  40  107 40  34  109 39  31  108 38  26  104 36  23  110 37  28  123 43  42  159 78  85  201 127 140 193 127 141 188 129 147 191 132 150 193 129 146 193 124 142 194 126 141 197 131 143 197 137 145 196 139 146 197 136 144 198 133 137 202 133 128 207 138 131 206 138 137 197 136 135 194 138 139 149 100 96  93  49  38  97  54  37  138 88  65  199 143 118 211 146 126 216 153 138 203 148 141 141 99  100 47  22  28  71  51  62  88  64  78  96  65  80  123 88  95  45  1   2   97  44  38  96  32  22  89  10  5   197 99  88  223 94  73  234 92  68  232 91  73  233 90  76  235 89  74  233 85  71  176 29  13  233 88  71  234 86  72  234 86  72  237 89  77  240 92  80  226 78  66  195 49  36  235 89  74  235 90  73  235 90  71  233 91  69  233 91  71  233 92  72  230 91  72  231 91  74  231 91  78  215 98  88  120 52  41  54  11  5   77  38  43  148 112 126 155 123 144 144 116 139 113 85  107 69  44  63  57  30  47  71  44  59  70  39  57  58  34  50  46  36  45  49  44  50  51  41  42  47  29  29  48  20  19  152 108 107 205 144 141 208 138 130 212 140 125 212 139 122 215 139 126 214 136 132 213 138 143 193 125 136 139 81  93  166 112 125 188 128 140 202 136 146 204 135 140 206 137 142 196 131 139 195 132 143 197 131 145 197 130 147 196 128 149 196 128 151 195 127 150 193 128 152 193 128 152 192 128 152 193 131 156 191 131 157 186 127 155 175 118 150 166 111 143 164 104 138 175 105 141 178 106 143 166 99  134 166 107 139 153 105 131 156 121 143 170 149 166 180 172 185 94  101 109 63  81  85  68  96  97  63  98  94  55  96  92  53  96  89  59  104 99  57  102 97  59  99  99  59  96  102 59  99  109 56  92  106 65  91  108 67  85  99  38  49  53  17  7   5   51  2   0   120 41  34  149 47  43  136 45  42  82  29  25  25  4   3   44  45  50  36  45  54  45  45  55  44  38  50  135 127 140 165 154 168 165 151 168 171 152 171 165 144 163 176 151 172 173 145 167 173 145 167 172 144 166 172 144 166 169 144 165 168 143 162 165 142 160 163 140 158 166 141 160 165 141 157 163 138 157 162 138 154 161 136 155 160 136 152 159 134 153 158 134 150 158 134 150 152 128 144 144 120 136 137 113 127 132 108 124 129 105 119 127 103 119 125 101 117 123 98  117 123 98  117 123 98  117 122 99  115 122 98  114 120 97  113 119 95  109 117 95  108 115 91  105 113 91  104 113 89  103 110 88  101 110 86  102 108 85  101 109 85  101 108 86  99  106 82  96  104 82  94  104 80  93  103 81  93  103 79  92  100 78  90  98  74  87  96  74  86  100 76  89  97  75  87  95  71  84  93  71  83  
121 101 110 124 104 113 127 107 116 129 110 116 130 111 117 132 113 117 135 116 118 137 119 119 148 132 132 192 178 175 192 178 175 177 166 162 186 177 172 124 115 110 31  24  18  83  75  72  129 121 119 49  40  41  49  39  40  133 121 121 188 174 174 95  81  81  172 161 159 179 168 164 180 167 159 184 170 161 150 130 119 91  63  51  72  34  23  80  32  20  93  35  24  100 37  28  104 41  32  106 43  34  106 43  34  104 41  32  104 41  32  106 43  34  104 44  34  102 44  33  97  38  30  93  34  26  87  28  22  84  27  20  83  30  24  83  34  29  78  33  27  71  31  31  43  11  24  53  26  43  89  62  77  132 104 118 163 133 145 177 147 159 178 150 162 173 152 161 114 101 110 59  48  56  41  24  34  116 92  105 176 148 160 81  58  66  29  19  20  29  25  26  48  41  48  56  46  47  65  45  38  85  38  28  169 78  75  206 96  95  173 68  65  125 34  31  108 39  32  104 41  34  112 39  33  114 41  35  109 44  38  98  45  39  83  45  42  75  46  50  64  37  54  55  37  59  45  42  59  55  54  68  89  79  90  103 70  79  148 76  90  141 53  65  117 36  42  109 39  41  101 41  43  101 42  44  106 41  45  109 41  42  110 43  37  109 45  35  105 43  32  110 42  33  115 35  34  127 45  51  175 98  108 201 129 141 195 131 145 189 127 142 197 128 146 202 131 147 205 133 147 203 133 144 198 133 141 197 135 140 201 135 139 205 135 135 207 134 127 212 139 130 208 139 132 204 141 136 205 148 141 169 119 108 129 82  64  135 87  64  195 142 111 219 158 129 208 142 116 214 149 131 202 147 140 74  34  34  54  31  39  70  54  65  92  69  85  99  69  81  133 92  100 64  13  12  138 71  65  138 60  50  102 13  5   208 102 89  224 92  69  237 93  67  232 89  72  232 90  76  233 90  74  239 93  78  194 49  32  231 84  68  235 87  73  232 84  70  235 87  75  236 88  76  231 85  72  197 51  36  231 86  69  236 91  72  233 88  69  235 90  69  232 90  70  233 92  74  230 90  73  229 92  76  227 89  78  210 98  86  86  22  10  54  13  7   103 58  65  162 121 139 135 107 129 132 108 130 63  38  59  57  32  51  63  40  56  80  56  70  67  36  54  59  35  51  49  37  49  51  44  51  53  41  45  54  35  37  52  23  25  106 64  65  204 141 136 215 143 131 220 147 128 216 141 118 213 138 119 215 138 128 200 128 129 142 77  85  95  44  53  127 80  90  154 101 109 197 136 143 203 137 139 206 138 139 198 133 139 199 133 143 199 133 145 198 132 146 196 129 147 195 127 148 193 128 148 192 129 150 195 133 156 188 129 151 184 126 150 187 129 154 187 131 158 182 125 157 170 113 146 163 103 139 170 102 139 171 101 137 175 108 143 171 107 141 168 111 143 158 110 136 152 114 137 185 158 177 222 208 223 181 179 190 86  95  100 69  89  90  74  103 101 60  95  91  56  97  91  57  98  94  67  98  101 60  93  100 56  94  107 57  93  109 64  91  110 67  85  99  43  53  55  23  5   1   61  0   0   152 53  47  183 55  54  180 64  64  135 67  64  48  20  17  25  28  33  32  47  54  41  48  56  48  48  58  59  57  68  155 149 161 166 155 171 166 152 169 170 151 170 169 146 166 172 147 168 172 144 166 171 143 165 170 142 164 167 142 163 167 142 163 166 143 163 166 143 161 165 140 159 164 139 158 162 137 158 160 135 154 159 134 155 158 133 152 157 132 153 156 131 150 157 132 151 148 123 142 138 113 132 132 108 124 131 106 125 131 107 123 127 102 121 123 98  117 127 102 121 126 101 120 126 99  118 122 98  114 122 95  112 120 96  112 121 94  109 119 95  109 118 91  106 117 93  107 120 93  108 118 94  108 118 91  108 113 89  105 112 85  102 108 84  98  112 86  99  109 85  98  110 84  97  107 83  96  108 82  95  105 81  94  106 80  93  102 78  91  103 77  90  99  75  88  99  73  86  96  72  85  
124 102 114 126 105 114 129 108 117 131 110 117 133 112 119 134 113 118 136 117 119 138 120 120 156 140 140 180 166 165 189 175 172 195 184 180 177 168 163 169 160 155 77  70  64  91  84  78  78  73  69  78  73  70  89  79  78  96  85  83  98  84  83  44  30  27  91  77  74  172 159 153 183 170 162 177 163 152 136 117 103 92  63  49  78  38  26  87  35  24  98  35  26  105 41  31  105 42  33  103 43  33  103 43  33  104 41  32  104 42  31  106 42  32  107 43  34  105 42  33  103 43  33  97  39  28  87  33  23  81  28  20  79  29  20  82  32  25  85  32  26  77  31  31  63  30  37  40  14  25  43  17  28  47  24  34  69  43  52  114 91  99  148 127 136 158 141 149 152 139 148 72  60  70  51  35  45  102 82  91  145 122 130 34  13  18  34  20  20  34  18  19  57  34  40  63  42  47  57  46  44  68  44  40  89  36  30  176 99  93  192 94  91  159 59  59  127 41  42  118 40  40  111 37  36  108 37  35  111 40  38  118 54  55  126 75  84  135 91  106 130 88  110 134 102 126 68  48  73  49  37  59  58  49  66  90  72  84  118 74  87  141 75  87  163 79  92  182 96  107 171 98  109 135 70  78  109 44  52  102 40  45  104 42  43  102 41  38  101 42  36  103 38  32  116 40  40  121 39  45  150 67  75  203 123 134 201 129 140 195 127 140 200 132 147 202 131 147 202 130 144 201 129 140 203 133 141 206 137 140 206 138 137 206 135 129 213 134 127 214 136 126 211 137 128 209 141 130 212 148 136 209 148 130 203 143 119 211 150 121 219 153 121 212 141 111 216 144 120 211 146 128 186 131 124 72  32  33  53  27  36  82  62  74  91  69  82  89  57  70  126 81  86  80  20  20  170 91  84  169 76  68  109 8   0   211 98  84  226 90  66  238 93  66  232 90  70  231 90  73  232 89  75  235 89  74  220 73  57  228 78  63  238 88  73  230 80  65  235 87  73  232 84  70  234 88  73  205 59  44  228 83  66  235 90  71  234 89  70  235 90  69  233 91  71  231 90  72  231 91  74  230 93  77  227 91  79  205 93  81  84  16  3   65  18  12  159 108 115 155 111 128 134 107 126 85  66  86  70  49  68  56  35  52  57  39  53  77  59  71  65  41  57  60  37  55  54  40  55  55  43  55  55  39  49  56  37  43  56  31  35  71  31  31  200 137 132 219 145 132 222 148 123 216 142 113 216 142 117 213 140 123 190 121 116 104 44  46  100 53  59  126 83  90  142 93  97  195 139 142 202 137 135 203 135 132 202 136 138 201 134 141 200 132 143 199 131 144 197 130 147 196 129 147 195 130 150 194 131 150 188 126 147 188 129 151 191 133 157 191 133 158 185 126 154 176 115 148 169 108 142 167 105 142 167 106 140 169 108 142 169 108 142 163 103 137 161 104 137 160 107 137 163 113 142 154 110 137 160 122 145 176 149 168 184 167 183 149 143 155 78  85  91  66  84  86  70  96  95  66  94  95  74  98  102 65  92  99  54  94  102 54  96  108 57  93  107 64  92  103 63  84  87  65  60  57  105 54  51  139 51  50  145 32  36  144 41  44  96  42  40  51  36  33  35  46  48  37  58  63  38  49  55  41  46  52  48  51  60  78  76  87  163 155 170 165 152 169 174 157 176 168 146 167 173 148 170 172 147 169 174 146 169 174 146 169 172 147 169 171 146 167 169 146 166 168 145 165 167 142 163 167 139 161 165 137 160 164 136 158 163 135 158 162 134 156 162 134 157 161 133 155 146 118 140 143 115 137 139 111 133 134 107 126 131 103 125 132 105 124 135 107 129 138 111 130 138 111 130 135 108 127 131 102 120 126 99  116 125 96  114 124 97  112 126 98  113 126 99  114 131 103 117 132 106 119 134 106 120 133 107 120 132 104 119 127 100 115 124 96  111 120 93  108 116 88  102 114 88  99  112 84  96  109 83  94  109 81  93  107 81  92  107 79  91  106 80  91  105 77  89  104 78  89  105 77  89  104 78  89  
126 104 116 128 106 118 131 110 119 133 112 121 134 113 120 135 114 119 138 117 122 138 119 121 162 144 144 196 180 180 184 170 167 178 164 161 194 183 179 178 169 164 82  73  68  83  76  70  87  84  77  78  75  68  81  74  68  99  90  85  179 168 164 69  56  50  159 146 140 183 170 162 180 167 158 186 172 161 145 126 112 99  70  56  76  34  22  93  39  29  107 43  34  107 40  31  105 42  33  103 43  33  103 43  33  103 43  33  105 43  32  106 42  32  110 41  34  108 41  33  105 42  33  100 42  31  90  38  27  81  33  21  79  29  20  82  29  21  85  27  23  79  28  25  72  33  34  48  19  23  48  19  23  46  19  24  42  20  23  46  25  30  71  51  60  117 100 110 146 130 141 87  73  86  48  35  45  100 87  96  77  60  66  40  21  25  32  12  13  57  31  32  66  34  37  65  34  39  60  41  43  66  48  46  69  38  33  94  44  37  169 90  86  190 96  96  139 44  48  137 46  53  140 61  66  156 85  91  177 107 117 186 119 136 183 123 148 179 125 151 179 131 157 168 125 152 170 136 163 118 90  115 69  50  72  67  46  65  103 72  87  115 67  81  149 76  93  173 90  106 191 110 125 198 124 137 194 126 139 177 114 125 145 83  94  117 58  64  111 53  52  96  35  32  108 36  37  117 36  42  132 45  53  191 105 114 206 126 137 203 131 142 197 129 142 197 131 145 200 129 143 202 130 141 206 133 140 208 136 137 205 138 132 204 136 127 215 138 128 215 137 125 214 142 128 210 143 126 206 141 121 212 146 120 220 151 120 219 148 116 222 147 115 218 143 112 229 159 134 213 154 136 111 64  56  62  28  27  53  30  38  78  60  72  94  72  85  98  66  77  126 77  81  89  21  20  174 85  79  197 94  85  142 33  26  219 99  85  229 91  65  237 92  65  233 91  71  230 89  72  232 89  75  229 83  68  236 86  72  229 77  63  238 86  72  225 75  60  240 90  76  230 82  68  233 87  72  219 74  57  228 83  66  234 89  70  235 90  69  236 91  70  235 93  73  226 85  67  233 93  78  230 94  80  226 92  81  198 84  73  73  0   0   130 75  68  169 109 117 146 95  112 101 72  90  83  64  83  79  62  80  57  43  58  49  35  48  76  62  75  73  55  71  57  39  55  52  33  52  57  39  55  57  39  53  58  38  49  53  32  37  56  22  21  180 120 112 219 148 130 214 143 113 216 146 110 222 149 117 213 143 118 202 136 124 108 50  48  113 68  71  126 85  89  142 96  98  197 143 141 207 142 136 208 137 133 206 136 138 204 135 140 203 133 143 202 132 143 201 133 148 200 133 150 199 132 150 196 131 151 191 128 149 191 129 150 192 130 155 187 124 151 179 114 144 172 105 140 173 103 140 176 105 145 172 106 144 170 106 141 168 106 143 167 107 141 171 114 147 168 113 145 165 110 142 171 118 148 169 119 148 175 129 155 169 131 154 170 143 162 214 200 215 168 165 174 79  86  92  69  83  86  74  87  93  68  92  96  57  96  101 58  103 108 59  97  108 56  90  99  64  93  97  75  85  87  96  71  75  124 73  78  121 49  60  108 49  55  85  65  64  63  69  67  29  44  49  29  48  54  35  48  54  39  48  53  45  49  58  47  47  57  84  80  94  164 153 169 174 157 176 175 156 176 174 150 172 175 150 172 177 149 172 177 149 172 172 147 169 168 143 165 161 138 158 158 135 155 152 124 147 150 122 145 148 120 143 147 119 142 146 118 141 146 118 141 146 118 141 146 118 141 140 112 135 138 110 132 135 107 129 135 107 129 138 110 132 143 115 137 147 119 141 150 122 144 152 123 143 148 119 139 143 114 132 138 109 127 136 108 123 136 108 123 137 109 124 139 111 126 143 115 129 143 115 129 144 113 128 141 113 127 141 110 126 137 109 124 136 105 121 133 105 119 124 96  110 121 93  105 118 90  102 115 87  99  113 85  97  112 84  96  111 83  95  110 82  94  114 86  98  114 86  98  115 87  99  116 88  100 
129 105 118 131 107 120 134 110 123 136 113 123 136 113 121 137 116 121 139 118 123 139 120 122 167 149 149 187 171 171 191 177 174 189 175 172 184 173 169 107 98  93  47  38  33  58  51  43  92  89  80  61  59  47  57  50  40  170 161 152 171 161 152 148 135 127 176 166 157 176 166 157 176 166 156 184 170 159 141 122 108 107 77  66  78  34  25  99  45  35  112 45  37  109 40  33  106 43  34  102 44  33  102 44  33  102 44  33  105 43  32  108 41  32  110 39  33  111 40  34  105 41  32  102 44  33  92  44  32  84  38  25  80  32  20  83  31  20  90  29  24  91  32  28  80  35  29  73  36  28  66  29  23  51  17  15  43  17  16  39  17  20  35  16  22  48  28  40  68  47  62  118 100 116 61  49  63  54  44  55  36  26  34  30  13  19  51  22  27  63  27  31  74  36  35  68  30  29  72  36  38  79  47  48  61  35  34  71  40  37  92  41  38  164 93  91  186 92  93  186 86  94  177 91  104 170 97  116 163 103 131 159 102 137 167 102 144 169 107 146 174 125 154 179 133 159 175 125 152 179 129 158 170 125 154 127 91  117 79  50  72  100 67  86  110 62  78  132 70  85  173 92  109 205 121 137 208 130 146 191 120 138 182 120 141 188 131 148 161 104 110 131 71  71  116 46  48  113 34  39  122 32  41  168 77  86  208 122 133 203 127 139 199 133 145 199 137 150 205 139 151 210 138 149 213 136 144 210 136 137 207 140 131 210 144 132 212 142 132 215 145 133 215 152 134 215 155 131 212 151 122 216 152 117 224 152 114 220 145 106 231 155 119 216 143 111 211 151 123 203 156 136 73  39  27  55  31  27  65  49  52  79  66  75  86  66  77  100 69  77  121 71  74  107 36  34  174 77  71  206 95  86  177 63  53  217 94  79  233 92  65  238 90  62  236 91  72  232 89  73  236 90  77  226 78  64  233 79  67  239 83  70  239 86  70  221 70  53  240 90  75  226 79  63  227 82  65  232 87  70  229 84  67  235 90  71  236 91  70  234 89  68  235 93  73  218 77  59  231 94  78  229 93  79  226 92  81  191 74  64  94  12  0   174 111 102 158 96  101 113 61  74  94  60  77  88  67  84  82  71  85  62  54  67  53  41  53  75  63  75  77  69  82  54  41  58  56  31  53  62  34  57  59  38  57  57  39  51  50  35  40  55  27  24  135 81  71  216 148 127 216 148 113 218 151 109 221 151 115 214 147 118 213 147 131 146 89  82  119 75  74  129 89  90  158 110 110 198 140 138 210 141 134 212 137 132 211 137 138 207 134 141 205 132 143 205 131 144 205 132 149 203 132 150 200 128 148 195 126 147 194 126 149 188 120 143 182 113 141 179 108 138 179 105 138 179 103 141 182 101 142 184 103 146 178 100 142 188 113 154 186 118 159 186 124 161 182 126 161 182 128 160 186 132 164 189 134 165 183 126 158 192 137 168 184 131 161 190 144 170 183 148 170 189 164 183 224 210 225 160 157 166 80  85  89  69  89  90  50  86  84  54  96  95  65  100 106 62  95  104 59  96  105 58  90  101 64  82  96  73  82  97  84  86  101 76  86  96  54  85  87  56  90  91  58  73  80  41  48  58  37  48  54  46  57  61  34  41  49  44  47  56  47  43  57  93  85  100 165 150 169 171 152 172 172 148 172 172 148 172 172 146 171 169 143 168 166 141 163 160 135 157 153 129 151 149 125 147 153 125 150 151 123 148 148 120 145 146 118 143 144 116 141 143 115 140 142 114 139 141 113 136 143 115 138 140 112 135 138 110 133 143 115 138 151 123 146 156 128 151 156 128 151 154 126 148 157 128 148 157 126 144 154 123 141 151 120 138 149 118 134 148 117 133 149 118 133 149 118 133 148 117 132 147 116 131 146 114 129 143 112 127 143 111 126 141 110 125 141 108 125 140 109 124 139 108 123 137 107 119 134 104 116 131 101 113 129 99  111 128 98  110 127 97  109 126 96  108 126 96  108 125 95  107 125 95  107 125 95  107 
131 107 120 133 109 122 136 112 125 137 113 126 138 115 125 139 116 124 141 118 126 141 120 125 149 128 133 190 171 173 187 171 171 187 173 172 188 174 173 186 175 171 184 173 169 183 174 167 179 175 164 189 185 173 182 173 164 179 169 160 177 164 158 186 173 167 172 161 155 185 175 166 185 172 163 158 141 131 108 84  72  112 78  68  94  47  37  104 47  38  104 40  31  111 44  36  103 43  33  102 44  33  101 43  32  101 43  32  104 42  31  107 40  31  109 38  32  110 39  33  106 42  33  104 45  37  96  46  35  88  40  30  83  33  24  87  32  25  99  35  33  104 41  36  95  42  34  83  35  23  82  35  25  77  37  29  68  33  27  57  27  25  44  18  21  37  11  20  39  15  29  45  27  41  38  27  41  30  24  34  37  30  37  42  25  31  60  27  34  70  29  33  72  31  27  80  35  30  85  35  34  93  49  48  76  48  47  65  39  38  73  39  38  86  34  36  168 86  92  176 83  93  177 89  105 176 98  120 168 103 135 163 101 142 167 97  147 170 102 149 158 104 136 179 126 154 187 127 155 190 127 158 184 125 157 174 123 154 169 130 159 138 103 127 119 75  98  121 63  85  144 66  88  178 93  114 199 120 141 199 125 148 189 125 151 187 127 152 189 131 146 195 133 144 186 119 128 161 85  95  134 48  61  140 52  64  201 117 130 207 129 142 201 135 145 196 135 143 200 135 143 208 137 145 213 138 142 212 138 137 210 142 133 211 145 133 211 141 129 216 147 131 211 147 122 210 149 118 213 153 117 216 152 114 225 152 109 229 152 108 226 147 106 227 157 121 214 161 130 148 110 89  47  23  13  56  38  38  71  56  61  89  72  80  93  70  78  101 66  73  127 71  80  157 85  89  198 107 106 206 101 95  197 84  76  223 100 85  233 92  72  237 88  66  238 91  75  234 88  75  235 92  76  226 78  64  224 68  55  246 88  76  243 87  74  218 65  51  242 86  71  224 71  55  223 71  57  240 93  77  231 86  69  237 92  73  236 89  69  235 86  66  239 89  72  213 70  54  229 93  79  224 92  79  223 91  78  187 65  52  150 52  39  179 100 93  140 78  81  110 62  74  96  61  81  90  69  88  82  71  87  75  69  81  51  43  54  66  56  67  80  69  85  61  46  65  65  39  64  65  37  60  56  35  52  53  37  47  52  42  43  53  32  27  91  45  32  211 151 127 221 157 121 221 154 111 219 150 108 219 151 114 216 150 124 196 137 119 149 101 91  165 117 113 197 141 140 208 143 139 217 140 134 219 139 132 212 136 136 209 134 139 207 131 141 208 132 144 208 131 147 204 129 149 197 124 144 191 119 141 183 111 135 180 107 134 179 106 135 181 106 137 183 106 142 184 104 143 184 101 145 184 101 145 185 102 146 190 112 154 187 112 155 192 125 166 188 128 166 189 131 169 190 132 170 191 131 167 195 133 170 188 127 161 192 132 166 192 137 168 183 134 163 189 149 173 174 140 164 168 145 163 202 190 200 158 161 166 88  106 108 57  83  84  60  85  92  60  88  99  57  95  106 51  93  105 53  92  107 54  91  107 60  97  113 53  95  107 50  103 107 53  98  101 67  84  92  49  56  66  38  52  55  33  47  50  45  54  59  40  45  51  46  46  56  53  47  61  93  82  98  171 156 175 174 155 175 175 153 176 173 149 173 172 146 171 170 144 169 168 142 167 166 140 165 165 139 164 162 134 159 160 132 157 156 126 152 153 123 149 149 119 145 147 117 143 145 115 141 144 114 140 143 113 137 147 119 142 153 125 148 157 129 152 158 130 153 157 129 151 156 128 150 158 129 151 155 124 142 155 124 142 156 123 142 154 123 141 153 120 137 151 120 136 151 119 134 150 118 133 149 117 132 149 117 132 148 114 130 146 114 129 146 112 128 144 112 127 144 110 127 143 111 126 140 108 123 139 107 120 138 106 119 136 104 117 135 103 118 133 103 115 133 101 114 131 101 113 130 98  109 127 97  107 127 95  106 125 95  105 
134 108 119 136 110 121 138 112 125 140 114 127 141 115 128 143 117 130 145 119 132 144 121 131 143 120 130 101 80  87  112 93  97  100 84  87  88  72  73  80  66  65  73  59  58  91  80  76  101 92  85  106 96  87  95  80  75  79  64  61  74  56  56  70  54  54  79  65  62  89  76  70  104 89  82  105 82  74  108 75  66  109 66  57  96  44  33  101 44  33  105 45  35  102 42  31  105 47  35  101 43  31  99  41  29  103 43  32  106 43  34  104 40  31  105 38  32  107 40  34  107 42  36  102 39  34  102 43  37  100 42  38  91  31  30  92  32  31  103 41  42  107 46  45  102 41  36  101 42  34  95  38  27  86  34  21  79  33  20  76  33  24  67  28  23  54  22  23  44  19  25  37  22  29  27  20  28  30  25  32  36  27  32  44  25  29  61  30  35  71  31  32  82  34  32  80  27  21  93  36  27  104 51  43  87  46  40  76  45  43  75  46  51  73  37  49  95  37  52  165 91  108 170 83  99  178 87  104 180 94  119 182 98  132 179 100 147 168 96  144 162 101 135 175 116 144 188 125 156 187 124 155 187 123 157 188 127 160 184 127 160 179 122 155 188 127 158 173 106 137 161 88  118 163 87  117 179 105 132 194 121 148 196 126 154 190 124 151 191 127 153 190 126 150 193 128 152 200 128 152 198 123 144 193 116 136 195 118 136 200 126 139 202 132 140 199 133 137 199 133 134 202 134 133 202 131 129 199 128 124 201 130 124 207 134 127 209 133 120 211 134 114 210 139 107 209 144 106 208 145 110 211 147 109 220 148 100 225 147 98  227 146 99  228 157 115 204 156 120 81  50  29  52  32  31  53  36  46  78  55  65  103 73  83  102 69  76  106 63  72  150 89  107 175 104 122 182 109 116 190 106 104 197 94  87  217 99  87  227 93  81  234 87  77  242 89  81  237 86  75  235 94  76  228 86  66  214 58  43  242 82  70  242 84  73  223 65  53  243 80  65  235 72  57  219 59  45  236 83  69  238 95  79  227 84  67  236 83  65  245 88  69  233 76  61  222 72  58  228 96  81  227 101 86  220 88  73  205 73  60  206 80  68  204 102 97  133 74  76  96  60  72  100 68  91  89  65  91  83  68  87  81  73  88  60  58  69  64  56  71  89  67  90  74  45  73  65  41  65  59  40  59  53  38  45  54  44  43  54  44  42  55  38  31  63  27  15  189 138 117 217 154 123 224 155 114 220 148 100 224 152 104 221 152 110 216 152 116 210 150 126 209 147 134 212 143 136 217 139 135 221 136 129 220 135 128 217 137 136 211 135 139 209 132 140 210 134 146 209 132 148 202 125 145 191 116 139 185 109 135 184 108 136 182 107 137 181 106 137 180 105 138 180 104 140 180 104 142 180 103 145 181 103 145 178 100 140 180 104 143 179 102 146 175 102 147 180 108 154 185 116 163 190 122 169 195 127 174 198 131 175 192 127 169 195 133 172 189 132 167 191 137 169 185 136 165 188 142 171 182 142 168 183 148 168 193 166 183 225 207 221 170 164 178 78  86  97  59  81  92  59  96  104 50  93  100 54  92  103 53  91  102 57  95  106 52  92  100 55  100 103 56  96  98  68  93  98  68  85  92  37  52  55  39  53  54  39  50  52  42  52  54  42  47  53  45  45  53  51  48  59  98  87  103 168 154 171 177 158 178 171 149 172 173 149 173 171 145 172 182 153 181 176 147 177 176 147 175 174 144 172 173 143 169 174 141 168 172 138 165 169 135 162 167 131 159 164 130 155 163 129 154 167 135 159 164 134 158 162 134 156 162 134 156 162 133 155 161 132 152 159 130 150 160 129 147 160 127 146 157 124 141 156 122 139 154 121 138 156 122 139 155 122 139 154 120 137 152 118 135 151 117 133 150 116 132 151 114 131 148 114 130 149 112 129 146 112 128 146 109 126 143 109 125 143 109 125 142 108 124 141 107 123 139 105 121 137 103 120 135 103 118 135 101 115 133 101 112 131 98  107 131 100 108 132 99  106 129 98  104 
136 108 122 137 111 124 140 112 126 141 114 129 143 115 130 144 117 132 147 119 134 147 120 135 148 122 135 129 106 116 58  37  44  69  50  54  68  49  51  72  56  57  66  50  50  59  45  42  73  60  54  71  58  52  73  55  53  60  40  41  64  44  46  66  50  51  64  50  50  67  53  50  84  67  60  96  69  62  75  36  29  90  42  32  109 52  43  99  41  30  101 43  32  103 45  33  99  41  29  104 44  33  107 47  36  105 45  34  104 41  32  104 41  32  109 45  36  113 48  42  107 42  36  105 40  34  108 45  38  108 45  40  97  36  31  94  33  30  99  38  35  100 39  36  105 40  34  104 40  31  99  39  28  94  36  22  85  32  16  77  28  14  74  27  19  69  30  25  53  27  28  36  20  23  39  32  39  32  27  33  37  28  33  52  36  39  57  28  32  80  40  41  76  22  20  95  34  29  106 44  33  101 41  31  98  45  41  100 54  57  100 62  77  114 76  99  84  39  62  89  32  51  159 85  98  165 81  96  185 96  116 181 92  122 171 89  135 177 101 148 178 110 147 185 122 153 190 127 158 190 125 159 188 123 157 190 125 159 192 124 161 189 121 158 195 125 161 191 121 157 187 116 150 187 116 148 191 120 152 194 123 153 197 124 153 193 123 151 196 127 156 195 129 157 198 128 156 198 125 152 196 122 147 195 120 141 195 121 138 197 124 135 195 122 129 192 122 122 191 122 117 195 125 117 199 129 121 203 130 121 204 130 121 206 130 117 213 134 117 214 137 111 216 141 102 215 144 100 210 147 106 212 148 104 220 149 97  225 148 94  230 150 99  213 145 100 171 126 93  51  24  7   50  32  32  55  35  46  98  66  79  108 68  79  113 66  72  132 79  87  140 81  101 141 82  102 165 112 122 175 113 114 192 112 105 192 94  85  210 97  91  216 91  85  231 92  87  232 89  81  231 91  74  231 86  67  216 56  40  228 62  50  245 84  74  233 73  61  235 72  55  236 71  52  214 52  39  237 81  68  237 94  78  234 89  72  234 75  56  246 83  66  232 70  57  223 76  66  214 96  84  196 88  75  199 87  73  214 96  84  224 95  89  206 98  96  123 68  71  99  72  81  89  61  84  97  71  98  88  66  87  86  69  85  76  68  81  65  54  68  95  69  94  100 71  99  54  32  55  50  33  49  53  41  45  55  43  43  51  41  42  53  37  37  60  30  20  148 103 84  213 154 122 226 157 115 234 161 110 231 156 101 224 153 101 220 152 107 216 150 115 216 149 123 220 144 128 222 142 131 225 138 128 224 137 128 217 138 133 212 136 136 210 134 138 211 134 142 209 133 146 202 125 143 195 117 139 191 113 137 188 112 140 187 111 139 185 110 141 184 109 142 182 108 143 181 107 144 181 106 147 181 106 147 189 113 152 181 105 144 179 102 144 179 103 149 173 100 146 176 104 150 187 118 163 195 128 172 193 126 169 194 129 169 198 136 173 193 133 169 195 138 173 190 134 169 191 137 171 186 135 168 183 134 163 186 142 169 187 147 173 191 163 186 147 138 157 78  87  102 60  84  96  66  99  108 58  92  102 56  93  101 57  96  103 55  96  100 58  99  101 59  97  100 64  93  97  63  88  92  64  85  86  36  55  53  35  51  50  41  53  53  43  53  55  46  51  55  39  39  47  34  28  40  98  87  101 166 149 167 174 155 175 178 154 178 179 150 178 168 137 168 182 151 182 173 142 173 176 146 174 175 145 171 177 143 170 176 142 169 175 139 167 176 137 166 172 136 162 170 136 161 171 137 162 169 137 161 165 136 158 164 135 157 163 134 154 163 131 152 162 129 148 160 127 146 161 127 144 160 126 143 159 125 142 158 124 141 158 124 141 157 123 140 154 120 137 152 118 135 156 119 136 155 118 135 154 117 134 153 116 133 152 115 132 151 114 131 149 112 129 148 111 128 147 110 127 146 109 126 145 108 125 143 106 124 141 104 122 137 103 120 137 100 117 134 100 114 137 101 113 137 101 111 135 100 107 132 97  104 
140 109 125 139 111 126 144 113 129 143 114 132 147 116 134 146 117 135 150 119 135 149 121 136 150 124 137 149 126 136 119 96  104 93  72  77  120 101 103 106 90  91  77  61  61  81  67  66  67  53  50  81  66  63  112 92  93  145 125 127 147 126 131 103 84  88  83  67  68  73  57  57  61  42  38  53  24  18  88  47  41  97  47  40  96  37  31  104 44  34  100 40  30  106 46  36  103 43  32  105 43  32  104 42  31  103 41  30  105 43  32  107 45  34  104 42  31  99  37  26  105 43  32  101 39  28  103 41  30  103 41  28  100 38  25  102 40  27  110 48  35  112 50  39  109 45  36  107 43  33  108 46  33  105 48  31  99  42  25  85  32  16  76  26  15  69  29  21  56  26  24  41  22  24  47  38  43  41  36  42  45  35  43  58  43  50  63  38  44  91  50  54  85  27  25  98  31  25  106 42  33  107 42  38  108 39  44  113 44  62  157 94  123 158 103 135 143 97  125 95  50  71  89  37  49  142 80  91  147 74  93  181 103 129 179 101 141 188 113 156 189 121 158 190 125 159 191 126 160 190 122 159 189 121 158 189 121 158 193 123 160 193 123 160 190 118 156 194 122 159 200 126 161 201 127 160 199 125 158 197 124 154 197 122 152 198 124 151 188 114 139 190 116 139 192 114 136 190 113 133 191 112 131 197 116 131 198 118 129 194 117 125 195 119 123 198 122 122 201 126 120 203 129 118 208 132 118 213 136 118 219 138 119 220 140 117 216 139 111 217 141 107 218 144 97  218 147 95  216 149 97  217 150 98  222 149 94  226 151 94  225 152 97  215 152 109 114 72  50  48  19  13  49  29  28  74  49  53  108 67  81  120 66  80  129 67  70  148 86  89  109 57  69  62  20  32  110 77  84  152 116 118 165 114 110 182 117 111 185 110 105 193 104 100 211 103 100 222 97  91  228 90  77  243 90  74  234 62  50  225 51  40  239 75  65  238 78  64  224 65  44  232 73  51  208 48  32  230 77  61  235 90  73  240 90  73  242 79  62  237 69  56  218 55  48  228 91  85  188 91  84  113 38  32  104 34  26  152 69  63  206 96  95  197 99  100 114 65  68  94  71  79  89  66  84  84  59  81  99  66  87  95  64  80  94  72  85  81  63  75  83  64  83  91  72  92  68  51  70  63  46  64  57  40  50  51  34  44  54  40  57  56  38  50  67  36  34  108 65  46  213 157 120 221 155 105 232 159 104 223 148 91  225 154 102 224 154 105 221 154 111 221 153 114 222 151 119 224 148 122 225 144 125 224 142 128 221 143 131 217 140 134 213 138 135 211 135 137 207 130 138 201 123 136 195 118 136 192 115 135 187 112 135 186 111 134 184 110 137 183 108 138 182 107 138 182 107 140 181 107 144 182 106 145 178 100 139 176 98  137 181 106 145 182 112 149 172 106 144 173 112 146 185 125 159 192 133 165 191 130 163 195 134 165 195 134 167 187 127 161 190 133 168 189 133 170 192 137 177 193 138 178 190 138 174 192 142 177 188 143 176 174 137 170 179 153 182 157 145 169 95  97  118 66  82  98  64  92  103 59  96  104 55  96  102 54  98  101 56  96  98  62  97  101 63  94  97  62  92  94  70  96  95  54  79  76  47  67  66  28  46  46  34  48  49  37  47  49  45  48  53  48  45  54  55  45  56  94  80  95  180 159 178 170 146 168 175 147 172 177 147 175 179 146 177 180 147 178 175 145 173 175 145 171 177 143 170 177 143 170 177 141 169 176 140 168 175 139 167 174 140 167 172 138 163 170 138 162 169 137 160 168 136 159 167 134 155 167 132 154 167 129 150 165 127 148 164 126 147 164 126 147 164 126 147 163 125 146 161 123 144 160 122 143 159 122 140 158 121 139 155 118 136 155 118 136 155 116 135 154 115 134 153 114 133 152 113 132 150 111 130 149 110 128 148 110 125 148 110 125 147 108 126 146 107 125 145 106 125 143 106 124 142 103 122 141 104 121 137 99  114 136 98  113 133 95  110 128 90  105 
142 109 128 144 111 130 146 113 132 148 115 134 149 116 135 149 118 136 151 120 136 152 121 136 155 127 139 154 128 137 150 127 133 159 137 140 152 132 134 154 135 137 164 146 146 146 130 130 162 148 147 154 138 138 164 144 146 156 133 139 163 142 149 162 143 149 158 142 145 156 140 140 77  56  53  78  49  45  88  45  39  96  43  37  104 43  38  105 42  35  109 45  36  105 42  33  108 46  35  106 44  33  105 43  32  103 41  30  103 40  31  103 43  33  106 46  36  109 49  39  105 45  35  106 44  33  107 45  34  107 45  32  105 43  30  104 42  27  103 41  26  102 38  26  105 41  32  103 39  30  102 40  27  105 46  30  105 46  28  96  40  23  84  32  18  73  29  20  61  28  23  48  27  26  31  20  24  29  24  30  31  24  31  37  26  34  65  44  53  90  54  58  115 54  51  108 37  31  102 33  28  116 48  49  110 36  49  154 80  105 175 103 140 171 105 143 160 106 140 156 110 136 122 78  95  103 55  67  138 79  97  147 79  104 195 121 158 195 120 159 195 125 162 192 124 161 191 123 160 191 123 160 193 123 160 192 122 159 193 123 160 195 123 161 196 124 162 196 122 159 193 119 156 190 116 149 188 115 145 187 112 142 185 110 140 184 108 136 186 108 132 189 110 131 192 111 130 193 110 126 194 112 126 199 118 127 202 121 128 201 122 127 203 124 127 206 128 126 208 131 125 208 132 119 211 133 113 216 136 111 220 137 107 217 137 102 219 144 105 219 146 101 221 148 93  221 149 90  221 151 91  222 152 92  224 152 93  225 155 96  219 152 97  201 146 107 66  28  19  59  30  32  58  34  30  91  61  61  117 65  78  137 69  84  144 64  67  166 94  95  79  32  38  51  21  29  45  26  32  65  45  47  132 98  97  155 114 112 164 116 116 172 110 111 190 109 106 205 100 96  217 84  75  240 86  74  238 66  54  218 42  29  229 58  48  239 73  61  220 57  38  230 69  49  210 48  33  225 68  53  234 84  69  238 87  70  234 67  51  233 65  52  219 57  52  219 89  87  152 72  71  82  31  30  67  23  24  88  29  33  178 89  93  183 98  103 103 58  63  92  69  77  94  71  87  87  60  79  126 89  107 109 71  86  95  61  75  91  63  75  87  67  79  84  67  83  84  65  84  58  37  56  55  32  48  59  38  55  55  37  61  55  34  51  67  37  39  83  42  24  209 156 116 220 157 103 232 162 102 231 156 98  228 155 102 228 154 105 226 156 105 223 155 106 223 155 108 223 151 111 222 147 116 220 144 121 216 141 122 215 139 125 211 137 128 208 133 128 203 127 129 198 121 127 194 118 130 194 117 133 189 115 132 188 113 133 188 113 134 186 112 137 186 112 139 187 112 143 186 112 145 187 113 148 184 108 146 185 111 148 183 111 148 182 112 146 185 118 149 192 126 154 198 130 155 201 129 153 202 127 150 207 129 153 207 129 155 203 127 155 204 131 161 197 130 165 194 130 167 195 133 170 197 136 170 203 144 176 189 132 165 192 138 170 196 147 177 185 146 175 157 133 157 95  91  108 72  89  99  63  96  101 54  95  97  53  99  99  50  91  93  58  98  100 57  95  98  62  97  99  64  96  95  64  94  92  55  81  80  35  57  55  35  53  53  38  49  51  39  44  48  38  37  43  44  37  45  59  45  58  95  77  93  166 143 163 181 153 176 179 149 175 179 146 175 180 147 176 177 144 173 177 144 171 177 143 170 177 143 170 177 141 169 176 140 168 175 139 167 174 138 166 171 137 164 170 136 161 170 136 161 169 135 159 170 135 159 171 133 156 173 131 155 172 130 152 167 128 149 165 127 148 164 126 147 162 124 145 160 122 143 160 122 143 161 123 144 162 125 143 158 120 141 158 119 138 157 118 137 157 118 137 156 117 136 155 116 135 153 114 133 152 113 131 150 112 127 149 111 126 150 109 127 147 106 124 146 104 124 144 102 122 144 102 124 143 101 123 147 105 125 146 104 124 143 100 120 138 95  115 
145 110 132 146 111 133 148 113 135 149 114 136 151 116 138 151 118 137 152 119 136 152 121 136 143 116 125 163 138 144 166 144 147 170 148 150 165 145 146 169 151 151 161 142 144 164 148 149 165 151 151 173 157 160 170 149 154 164 141 149 168 145 153 164 143 150 176 157 161 173 154 156 74  50  48  71  40  37  87  42  37  106 51  46  105 42  37  101 36  30  111 44  36  105 41  31  107 43  31  105 41  29  105 43  32  109 46  37  107 47  39  101 42  36  98  39  33  99  40  36  105 46  42  105 44  39  101 40  35  99  39  31  104 41  34  106 43  34  108 44  34  109 45  36  109 44  38  108 45  38  103 43  32  102 43  29  103 44  28  103 44  28  94  38  25  82  32  23  64  25  20  54  28  27  43  31  33  46  41  45  43  41  46  38  31  39  51  35  46  70  37  44  130 69  66  110 35  30  112 40  41  100 30  38  138 71  89  180 114 142 164 96  133 162 94  135 169 101 142 159 97  134 159 109 134 147 102 122 106 61  81  128 74  98  172 103 134 193 119 156 192 122 159 190 119 159 190 119 159 192 121 161 193 121 161 191 119 159 191 119 159 194 119 160 193 118 157 189 113 151 183 107 145 181 106 139 182 107 138 184 108 138 183 107 137 183 105 131 193 111 134 195 112 132 197 114 130 199 117 129 199 118 125 199 118 124 201 122 127 206 127 130 205 129 133 204 128 128 204 129 123 209 133 119 217 139 116 224 145 112 227 145 105 224 143 96  221 148 97  222 150 92  225 151 86  227 152 84  227 152 84  228 153 86  229 156 88  226 158 95  219 159 109 139 90  60  53  17  19  52  25  34  68  43  38  100 62  59  133 70  81  149 65  80  163 64  67  171 87  87  61  16  21  51  30  37  38  22  32  38  21  29  54  27  34  98  66  71  140 108 113 151 109 113 171 111 111 192 107 104 218 95  88  237 90  80  240 80  66  219 49  36  226 44  40  241 59  55  226 53  39  230 60  45  220 48  38  221 54  45  236 80  67  239 83  68  227 60  42  222 54  41  215 58  53  214 90  90  124 55  58  76  36  44  72  38  52  75  31  44  101 31  41  175 105 113 125 80  87  87  57  65  94  68  81  73  45  59  101 65  79  152 110 122 152 106 119 120 80  91  91  68  78  85  68  78  88  67  84  66  43  63  64  39  60  62  39  59  59  40  62  60  39  56  69  39  41  69  30  13  182 133 92  222 163 105 229 161 98  235 161 98  233 156 102 232 154 105 229 153 101 226 153 98  222 153 94  220 151 96  215 146 104 213 142 110 210 136 109 210 135 114 210 134 118 208 132 119 204 129 123 203 127 127 202 127 132 202 126 136 202 126 138 199 125 140 199 125 142 199 124 145 198 124 147 199 125 152 199 124 154 199 125 158 198 126 163 200 130 167 193 123 157 195 124 154 209 133 161 203 119 143 188 93  113 187 84  103 196 83  101 203 86  104 211 95  114 220 111 130 220 121 142 214 126 150 207 129 153 208 134 159 203 129 152 210 137 157 205 131 154 207 133 156 206 130 156 206 136 162 182 128 151 104 73  88  79  82  89  67  95  96  56  98  96  54  103 100 49  95  95  55  99  102 53  98  103 57  101 104 61  101 101 60  96  94  61  93  92  54  83  81  32  54  52  37  53  52  38  48  49  19  23  26  43  41  46  48  38  46  27  11  22  105 84  99  180 155 176 172 142 166 181 148 175 178 145 174 178 145 174 178 145 174 179 144 174 179 142 173 180 141 172 179 140 171 176 139 170 175 139 167 172 136 164 171 135 161 170 134 160 172 134 159 173 133 159 175 133 157 176 130 156 175 131 156 169 127 151 167 127 151 166 126 150 165 125 149 163 123 147 162 122 146 162 122 146 163 124 145 158 118 142 159 117 139 158 116 138 157 115 137 157 115 137 156 114 136 154 112 134 153 111 131 154 113 131 152 111 127 148 105 124 143 100 119 139 96  116 136 92  115 135 91  116 134 90  115 134 88  116 133 87  115 131 85  113 128 82  110 
149 109 135 150 110 136 152 112 138 153 115 140 154 116 141 153 118 140 153 120 139 153 122 137 172 142 152 195 170 174 191 169 171 196 176 177 196 176 177 186 168 168 192 173 175 190 174 175 180 165 168 189 174 177 187 168 174 190 169 176 195 172 182 190 169 176 186 170 173 194 176 176 187 163 161 117 86  81  93  48  43  101 46  41  97  34  27  115 48  42  112 45  37  103 36  27  105 41  29  105 43  30  106 44  33  103 43  35  100 41  37  102 44  42  112 53  55  120 64  67  127 68  74  125 66  72  116 55  62  108 46  51  107 45  50  107 42  46  104 38  40  104 38  40  102 38  39  105 44  43  107 46  41  104 44  34  105 43  30  105 43  30  100 40  29  91  37  27  79  36  30  49  19  17  40  26  26  26  22  23  23  21  26  30  27  36  34  24  35  68  38  46  125 63  64  110 36  35  112 46  50  124 64  76  156 101 124 154 97  129 166 102 139 172 101 143 179 102 148 166 93  136 159 98  132 154 101 131 152 104 130 138 85  113 133 66  97  174 100 135 179 107 145 179 107 147 181 109 149 182 110 150 184 109 152 182 107 150 181 106 147 181 104 146 178 102 141 178 102 140 180 103 139 182 105 139 184 108 138 186 110 138 190 111 140 190 112 136 192 110 133 194 111 129 197 115 129 201 120 129 201 122 127 197 121 123 200 124 128 204 129 133 201 129 133 201 131 133 205 134 130 209 137 123 212 138 111 215 140 101 221 143 95  225 148 92  222 151 89  223 153 84  228 154 81  231 155 79  234 154 81  233 155 81  230 158 82  224 160 96  206 153 111 75  34  16  56  25  33  50  24  37  67  38  34  114 69  64  145 69  79  156 58  71  180 69  75  148 56  57  60  15  20  36  17  23  47  31  42  96  76  88  60  32  44  83  51  62  97  65  76  107 70  77  127 78  81  157 82  79  208 93  88  222 79  71  232 80  67  220 52  43  226 41  39  239 49  49  231 48  42  227 48  41  227 44  40  223 45  41  239 75  66  237 77  63  230 60  43  209 43  29  213 60  54  215 97  97  102 41  46  59  27  38  63  31  52  70  32  53  80  28  40  100 45  51  137 90  100 102 62  73  94  62  73  72  44  56  100 67  78  112 72  83  148 98  110 164 116 128 145 112 121 124 97  106 101 74  89  82  57  76  59  34  55  59  36  56  54  35  54  59  39  51  69  40  45  67  31  19  143 98  59  224 169 112 224 161 90  228 156 84  234 156 94  234 153 97  231 150 94  226 150 90  221 150 84  218 150 89  214 146 99  213 144 105 216 143 110 217 143 114 217 143 118 215 140 121 214 138 125 212 137 131 213 138 135 211 136 140 210 135 142 210 134 146 207 133 146 206 132 149 205 130 150 204 130 153 204 130 157 203 130 160 196 124 161 200 130 166 198 128 162 199 130 158 200 127 147 177 96  113 159 67  80  170 66  75  180 66  74  177 60  68  177 60  68  180 70  79  172 75  84  177 91  102 179 107 118 184 118 128 192 125 134 174 107 116 169 99  110 154 78  91  155 70  89  167 86  105 151 82  100 128 84  97  88  79  82  73  92  90  63  98  94  60  102 100 58  98  100 60  99  104 58  99  105 57  98  104 54  95  97  64  104 103 62  98  98  60  92  89  37  63  60  34  54  52  38  50  48  37  43  41  38  38  40  31  25  29  31  18  27  29  11  23  104 81  99  174 149 170 182 154 177 179 149 175 178 145 174 179 144 174 180 143 174 181 142 173 181 142 173 180 141 172 179 140 171 177 140 171 174 137 168 173 137 165 174 135 164 174 134 161 175 132 160 177 131 159 178 130 156 175 129 155 171 129 153 169 129 153 171 128 155 168 128 152 169 126 153 164 124 148 163 121 145 161 119 143 164 122 146 164 122 146 164 120 145 162 120 142 162 118 143 160 118 140 160 116 141 159 115 138 147 104 123 145 102 121 140 97  117 136 93  113 133 88  111 131 85  111 131 85  113 132 83  113 131 82  112 132 83  115 132 81  114 130 81  113 
153 110 138 154 111 139 156 113 141 155 115 142 155 116 143 154 119 143 154 121 140 154 123 138 170 140 148 193 168 172 189 168 167 190 170 169 189 171 171 146 130 130 78  62  63  107 92  95  179 169 170 177 165 167 147 130 136 88  69  75  106 85  92  183 164 170 179 163 164 188 173 170 195 174 169 182 152 144 97  52  46  100 45  38  111 48  41  104 37  29  105 38  30  111 44  35  103 39  27  109 47  36  107 47  37  99  40  36  101 45  46  128 73  78  167 111 122 193 136 151 187 130 149 188 130 152 178 119 141 167 105 128 159 94  118 143 75  100 124 54  78  115 47  68  103 39  53  103 42  50  102 42  44  101 41  40  102 41  36  105 42  33  106 43  36  102 45  38  89  41  37  56  22  20  46  28  28  32  26  28  30  29  34  34  34  42  33  27  39  63  40  50  120 59  64  121 52  55  100 49  56  147 105 119 123 85  108 121 76  105 138 78  114 167 96  136 167 88  133 184 102 148 177 102 145 167 99  140 174 109 149 163 99  134 153 86  121 143 71  108 170 95  136 173 98  141 175 100 143 175 100 143 176 99  143 176 99  143 175 98  140 175 97  139 179 101 141 181 103 142 186 106 141 187 108 140 187 108 137 186 108 134 187 107 134 187 107 132 192 113 135 197 116 135 199 121 135 201 124 134 202 127 131 202 130 133 200 131 134 198 132 136 201 136 142 198 133 137 201 136 134 209 143 129 212 145 118 214 145 104 220 149 95  227 156 92  223 153 81  225 156 79  230 157 78  234 157 79  238 154 81  237 155 79  228 160 77  219 162 95  148 103 70  53  20  13  54  28  39  58  32  45  78  44  43  129 76  72  151 64  72  166 59  69  185 68  76  132 37  43  66  21  26  53  33  42  38  18  30  95  68  83  152 119 130 127 87  98  106 66  77  104 61  70  108 58  61  135 61  60  208 93  90  214 72  68  232 81  72  229 62  56  230 42  43  235 40  44  231 43  41  230 42  40  233 38  42  231 40  45  240 65  62  231 63  54  215 45  30  212 49  34  223 76  68  203 91  87  85  29  30  69  37  48  69  34  56  63  28  48  63  30  39  63  22  28  132 76  89  130 76  90  108 72  82  76  49  58  97  65  76  94  58  68  104 62  72  147 101 112 168 118 130 160 114 127 144 112 125 130 103 118 79  54  73  59  36  54  60  42  54  53  33  42  61  34  43  68  33  29  106 66  31  221 172 114 226 167 89  233 165 80  236 158 84  237 154 86  234 150 86  230 149 84  225 150 83  222 151 89  219 151 102 219 150 109 224 152 112 226 152 115 225 150 119 221 147 120 220 145 126 218 144 131 217 142 136 215 140 137 212 138 139 211 136 141 210 134 144 206 132 145 205 131 148 204 129 149 204 129 152 204 128 156 204 124 161 199 123 159 196 127 158 194 132 155 191 133 148 187 130 137 188 126 127 192 122 120 180 101 97  176 93  87  173 88  83  166 87  82  145 76  71  156 98  94  168 120 116 167 126 122 163 124 119 198 154 151 195 145 144 169 108 113 145 74  82  144 71  82  149 83  95  118 71  79  99  83  84  81  87  85  69  91  89  62  90  91  67  95  99  68  95  104 67  95  106 61  94  103 53  93  95  63  105 104 53  92  91  57  91  90  61  90  86  39  62  56  20  37  31  19  30  24  18  22  21  34  32  33  32  23  28  32  19  28  29  13  26  129 108 125 171 148 168 177 149 172 179 145 172 182 143 174 182 143 174 182 141 173 181 140 174 180 139 173 180 139 173 178 138 172 178 138 172 177 138 169 175 136 165 174 134 161 176 133 161 177 131 159 178 130 156 177 129 155 174 130 157 170 127 154 168 123 152 164 121 148 163 118 147 159 116 143 156 112 139 153 109 136 149 105 132 148 104 131 148 102 130 147 103 128 147 101 129 145 101 126 145 99  127 143 99  124 138 94  117 137 94  114 136 91  114 135 89  115 136 88  114 136 87  116 136 87  117 138 87  120 135 83  119 135 83  119 137 83  119 133 81  117 
156 110 138 156 111 140 158 113 142 158 115 145 157 117 144 157 119 144 156 121 141 155 124 139 173 146 153 195 170 173 190 170 169 182 164 160 166 151 148 30  16  15  26  12  12  43  33  34  137 128 129 185 176 177 79  64  67  26  10  13  29  12  18  97  81  84  188 174 173 188 173 168 183 164 157 181 153 142 110 67  58  98  46  35  99  39  29  112 48  39  102 38  29  108 44  35  106 43  34  103 43  35  98  39  35  108 50  49  143 88  94  183 129 142 196 141 160 184 130 154 188 133 162 189 132 164 178 118 154 168 106 143 172 106 144 172 104 143 170 100 137 173 103 137 155 91  117 137 76  94  117 57  69  106 46  54  104 42  45  103 39  39  105 39  40  104 44  43  96  46  45  70  34  34  43  23  24  39  30  33  36  34  39  28  28  36  37  34  45  56  36  47  112 61  68  107 47  55  115 73  87  83  50  69  96  64  88  94  53  83  83  26  59  124 54  91  173 95  135 173 92  135 174 95  142 177 99  147 170 92  142 172 96  142 173 101 141 170 95  134 171 94  136 176 99  143 179 100 145 177 100 144 178 99  144 180 102 144 181 103 145 183 102 143 182 102 141 182 102 139 182 103 135 185 105 134 189 109 136 191 111 136 192 113 135 192 113 135 193 114 135 199 120 139 199 123 135 196 124 128 196 126 126 199 131 128 195 129 130 184 122 123 156 95  100 142 82  84  143 82  77  169 108 90  202 137 107 219 152 107 222 154 93  222 154 83  224 155 77  228 157 77  231 158 81  235 157 83  241 155 82  237 155 79  227 160 79  213 162 97  78  42  20  52  26  29  48  26  38  59  33  44  106 67  68  130 69  68  162 66  70  178 63  70  180 63  69  125 33  38  60  17  24  40  20  29  45  25  37  58  34  48  141 108 119 158 118 129 149 103 116 132 82  93  111 59  63  125 49  49  208 90  90  204 61  57  228 70  67  230 58  56  228 42  43  227 37  37  227 39  37  231 42  40  235 34  42  239 40  47  240 56  58  224 49  44  220 47  33  212 50  35  216 75  65  191 88  81  77  29  27  65  40  46  61  30  48  66  35  53  49  28  33  59  30  34  77  23  36  145 84  99  109 63  76  97  59  70  94  62  73  101 69  80  104 68  78  105 62  72  160 103 118 170 116 130 158 117 131 151 119 132 145 117 132 133 109 123 102 82  91  68  48  57  62  35  50  68  36  39  78  41  15  204 159 104 218 163 81  235 171 81  237 160 78  239 156 78  238 152 79  234 150 80  231 153 81  230 154 92  228 156 108 228 157 115 224 151 108 224 151 108 224 150 111 221 146 114 220 146 121 221 146 127 219 143 130 214 139 133 215 140 137 213 139 140 212 137 142 210 134 144 207 133 146 206 132 149 205 130 151 205 129 155 205 128 160 195 126 155 197 142 165 208 164 181 223 190 199 247 221 222 241 216 211 205 176 168 248 211 202 251 208 199 249 205 196 227 187 179 179 146 139 169 146 138 156 143 135 133 126 118 124 120 111 109 98  92  133 112 109 136 104 105 124 79  84  125 76  82  119 74  81  117 85  90  103 91  93  82  86  85  68  84  83  55  79  79  65  90  94  66  93  100 72  96  106 62  92  100 61  98  104 54  95  97  56  94  95  66  100 99  66  95  91  35  60  54  24  43  37  13  26  19  15  21  17  23  25  22  46  42  43  48  42  46  47  35  45  46  32  45  133 116 132 173 150 170 181 147 174 184 145 176 185 144 176 186 142 175 184 140 175 183 139 174 182 138 173 179 138 172 180 139 173 177 137 171 175 136 167 175 134 164 176 133 163 177 132 161 179 130 159 178 129 158 173 127 156 166 121 150 159 113 142 152 107 136 150 104 133 147 102 131 146 100 129 144 98  126 146 100 128 145 99  127 145 99  127 144 98  126 146 97  126 143 97  125 143 94  123 140 94  122 137 93  120 137 93  118 138 92  118 138 92  120 140 91  120 140 91  120 141 90  121 141 90  123 139 85  121 139 84  123 137 82  121 134 79  118 
159 111 137 160 112 138 159 113 142 160 115 144 158 117 147 158 119 146 157 122 144 155 124 139 164 139 145 200 178 180 186 168 164 175 160 155 146 135 131 39  29  27  114 104 103 168 159 160 148 143 140 135 130 127 161 149 149 147 133 133 70  55  58  70  58  58  178 169 164 184 174 165 188 171 161 182 156 143 112 74  61  102 52  41  101 43  32  105 42  33  107 44  35  103 40  33  104 45  39  98  40  38  105 49  50  155 100 106 188 134 148 186 133 153 185 132 158 183 130 160 189 135 171 179 124 163 168 109 153 166 105 149 167 104 147 169 104 147 171 104 148 169 102 145 167 103 138 166 105 136 164 104 129 160 98  119 150 86  102 133 67  79  115 48  57  100 37  45  91  38  44  93  52  58  55  30  34  38  26  30  31  26  32  29  26  35  39  36  47  41  25  38  99  61  72  80  36  51  77  39  60  78  44  69  81  42  73  108 61  93  136 77  109 94  27  58  157 86  120 172 96  135 178 99  147 175 95  148 176 91  148 176 91  146 177 93  142 179 97  143 177 95  141 176 97  142 179 97  143 178 99  144 181 100 143 182 101 144 183 102 145 185 102 144 186 104 142 186 104 140 187 106 138 191 108 136 192 109 135 193 111 133 195 114 133 197 118 137 204 125 144 194 118 131 198 123 130 206 134 135 200 131 126 195 131 122 181 118 111 138 77  72  141 81  80  125 66  62  127 67  56  161 101 77  201 139 102 219 156 103 223 158 92  223 156 78  229 158 76  230 159 79  228 158 89  229 154 89  244 160 90  229 149 78  233 171 98  165 120 65  50  20  9   50  29  38  51  29  41  63  33  43  112 66  69  139 69  71  165 61  62  179 60  62  182 69  71  103 17  20  60  19  25  41  24  32  41  28  38  44  26  38  80  57  65  159 126 135 158 112 125 166 112 125 147 88  94  138 56  58  196 73  75  225 73  72  212 42  43  238 58  57  224 42  39  227 46  39  228 45  37  228 41  36  236 35  41  239 38  46  233 42  47  225 41  41  219 40  33  212 50  39  225 91  82  157 64  56  74  37  31  52  38  38  55  35  46  57  37  48  42  32  31  55  37  35  57  14  23  104 46  60  142 81  99  116 62  78  97  61  73  96  69  78  100 68  79  95  57  68  123 73  85  158 106 119 166 115 130 154 110 123 151 115 129 153 122 137 142 120 132 147 126 141 124 99  121 106 74  87  77  41  25  182 141 95  224 175 98  226 167 77  235 164 76  239 159 74  242 157 74  241 156 76  233 151 75  229 150 84  229 152 106 230 155 115 226 152 105 227 153 104 226 153 108 223 149 110 222 147 116 221 146 123 220 144 128 217 143 130 215 140 134 212 137 134 212 138 139 212 137 142 209 133 145 210 134 147 210 133 151 202 130 150 194 131 150 184 133 150 212 179 190 198 181 189 157 158 160 138 150 148 104 123 117 86  105 99  85  98  91  83  92  87  80  86  82  76  85  82  76  88  88  72  92  91  67  96  94  63  97  96  62  98  96  62  94  93  73  91  93  87  92  96  91  88  95  88  81  88  89  82  89  91  89  94  89  93  96  82  94  94  74  96  94  26  56  54  50  84  83  63  99  99  67  101 103 59  94  98  62  100 103 57  97  99  56  91  93  65  97  96  68  97  95  47  72  68  28  47  41  27  42  35  18  28  20  29  34  30  47  49  48  51  49  52  26  24  29  21  16  23  52  44  55  130 113 129 181 149 173 183 142 172 185 141 174 185 141 174 187 141 177 180 134 170 180 134 171 184 140 176 180 138 174 179 138 172 177 136 168 176 135 165 177 134 164 177 132 161 177 131 159 176 130 158 176 127 157 173 126 158 175 126 158 171 124 156 172 123 155 169 122 154 170 121 153 169 120 150 159 110 140 156 107 137 151 102 132 147 98  128 145 94  125 143 94  124 143 92  123 142 93  123 142 95  127 143 98  127 145 99  128 154 108 136 158 109 138 157 107 136 166 112 144 155 101 135 146 90  127 142 86  123 139 83  120 137 81  118 
163 111 134 163 111 134 162 112 139 160 114 143 161 116 147 159 119 146 157 122 144 156 125 141 163 137 146 191 171 172 185 167 163 186 173 165 178 167 163 162 154 151 156 148 146 54  49  46  14  13  8   11  8   3   34  26  23  109 99  97  186 174 174 168 158 156 176 169 161 183 175 164 184 170 157 166 143 129 127 91  77  105 59  46  97  40  31  109 49  41  95  35  27  109 50  46  97  38  40  104 47  54  160 104 113 185 131 145 181 128 148 186 134 157 184 131 161 187 136 169 171 119 157 164 109 151 165 108 151 165 106 150 169 106 151 168 105 148 163 98  141 166 101 144 165 100 143 165 103 142 166 105 139 169 106 137 169 105 131 166 101 123 162 95  113 157 93  110 134 77  92  80  37  47  69  39  47  42  22  31  38  27  35  39  29  40  32  21  35  50  32  48  77  46  62  97  59  80  88  47  77  97  53  88  132 82  119 91  35  70  145 84  115 120 56  83  153 84  115 168 94  131 175 97  145 177 94  150 179 94  153 180 92  152 181 92  146 181 95  144 179 96  142 179 97  143 180 98  144 181 100 143 182 101 144 184 101 143 185 102 144 186 104 142 188 106 142 187 106 138 191 108 136 194 112 135 195 113 135 196 115 132 198 117 132 201 121 134 202 122 133 204 127 133 204 128 128 203 128 122 204 134 122 213 146 130 189 123 107 128 66  51  104 42  29  127 68  52  168 107 86  204 141 108 221 157 111 224 160 99  225 159 85  228 160 79  229 159 74  233 164 87  223 157 99  203 133 81  233 153 92  238 164 99  217 163 103 100 63  21  51  28  22  49  29  40  54  28  39  74  37  45  126 71  76  155 75  76  177 65  64  185 63  60  178 73  70  99  21  21  62  23  26  41  26  33  40  28  38  38  26  36  57  40  48  110 83  92  162 120 134 163 111 124 170 113 120 180 101 104 186 72  72  216 72  71  222 56  58  220 44  44  224 50  43  220 43  33  223 42  31  232 45  36  239 41  42  234 33  39  230 35  41  232 44  45  224 41  37  215 52  45  214 85  79  137 52  47  68  35  30  51  42  43  54  41  50  50  37  46  41  36  33  39  28  24  55  26  30  71  21  33  138 69  90  132 63  84  111 63  79  102 66  78  96  65  73  102 71  79  106 66  77  122 76  87  159 105 119 170 118 131 158 114 127 151 118 129 141 117 130 150 127 145 141 115 140 150 119 137 153 118 112 167 128 97  208 162 103 224 168 94  234 166 91  239 163 85  237 156 74  237 155 71  241 160 78  234 156 82  225 148 96  228 151 105 227 152 97  227 154 99  227 154 103 224 151 108 223 149 114 224 149 120 223 147 124 221 145 129 226 149 139 217 142 136 213 138 135 212 138 139 210 135 142 210 134 144 210 134 147 205 134 148 202 142 154 181 135 145 110 85  91  89  85  86  83  99  99  60  92  89  62  104 100 52  97  92  56  98  94  60  99  98  66  100 101 70  101 104 68  101 106 63  100 106 58  99  105 51  99  103 54  108 110 52  103 104 58  96  99  64  91  98  67  90  96  70  91  96  73  91  95  76  91  94  78  92  95  75  90  93  69  90  91  26  56  54  40  79  76  54  95  91  60  99  98  63  99  99  58  96  99  59  97  100 62  96  98  67  99  98  67  96  94  50  75  71  36  55  49  38  53  46  35  46  40  42  51  46  46  50  49  39  43  42  33  34  36  38  39  43  46  45  51  67  57  68  146 118 140 179 140 169 190 149 179 182 138 171 182 137 170 195 148 184 182 134 172 183 137 174 182 138 174 181 137 173 179 135 170 178 134 167 177 133 166 177 132 163 176 131 160 176 130 159 177 128 160 177 128 160 176 127 159 175 126 158 175 124 157 172 123 155 172 121 154 171 122 154 174 123 154 172 121 152 168 117 148 165 114 145 165 111 143 162 111 142 163 109 141 161 110 143 155 108 142 160 113 147 156 110 139 159 110 139 162 112 139 161 108 136 166 113 143 163 108 139 154 98  133 151 95  130 147 91  126 145 89  124 
167 110 129 166 111 132 165 111 135 165 112 142 161 114 146 161 118 148 160 122 147 157 124 143 161 135 144 189 169 171 191 176 171 174 164 155 187 178 173 179 171 168 47  42  39  17  13  10  7   8   2   25  25  17  130 125 119 24  17  11  132 122 120 176 169 163 178 176 164 176 173 158 175 166 149 161 142 127 128 95  80  98  54  43  104 49  42  98  39  33  101 42  38  100 41  43  106 48  60  155 98  115 186 131 150 190 135 158 187 133 159 184 131 159 181 127 159 172 118 152 165 111 147 162 107 146 161 105 144 161 103 143 163 101 140 163 101 138 167 103 140 170 105 145 169 103 149 168 102 150 165 102 145 167 102 142 168 102 138 169 102 135 171 102 131 168 102 129 109 47  72  99  48  67  100 64  78  50  24  37  52  32  44  40  22  36  76  55  72  120 95  116 142 110 133 112 71  101 146 91  131 127 66  110 142 79  122 152 87  127 130 69  100 156 93  120 157 88  119 170 96  133 175 97  145 175 94  150 177 96  154 179 95  154 181 94  147 183 95  145 183 97  144 181 98  142 182 99  143 183 100 142 183 100 142 187 102 143 188 103 142 190 106 142 192 108 141 192 109 137 195 111 135 198 115 135 200 117 133 200 118 132 203 121 133 205 124 131 201 119 121 211 130 127 213 133 124 209 132 116 206 130 107 213 139 114 218 146 121 203 136 107 175 108 81  196 131 99  218 153 115 225 158 113 223 154 95  221 153 82  226 155 75  227 157 72  235 167 84  213 148 80  196 137 95  101 41  5   193 123 72  218 155 102 183 136 94  57  25  0   43  25  21  41  24  32  57  26  34  86  39  47  134 68  72  159 69  69  179 59  58  183 60  55  175 76  70  92  21  15  62  23  26  42  25  33  38  28  37  34  28  38  37  25  35  61  41  52  137 103 120 168 124 141 158 108 119 170 105 109 195 101 99  211 92  86  195 53  51  215 56  52  226 55  47  225 47  35  221 39  25  223 35  23  231 38  33  237 41  42  235 40  44  227 37  39  226 40  41  217 53  52  199 73  74  115 34  33  64  32  33  53  44  49  55  43  53  46  36  44  42  37  34  38  31  25  42  28  27  53  18  25  110 38  60  159 76  102 128 59  78  118 66  79  103 68  75  97  70  75  90  67  73  96  65  73  129 76  92  162 104 119 170 118 130 156 114 124 151 123 137 140 116 132 151 123 146 152 120 141 154 119 125 163 123 113 168 122 96  206 153 113 222 160 113 230 161 102 239 167 91  237 163 76  229 154 61  236 162 75  238 163 95  224 150 89  226 152 89  225 154 92  225 152 97  223 149 100 223 148 108 223 149 114 224 148 122 221 146 123 214 138 122 218 144 131 220 146 137 215 140 135 210 134 136 212 135 141 212 136 146 207 134 145 200 132 143 196 143 151 140 108 113 91  80  84  77  91  92  65  97  96  54  100 98  53  103 102 55  103 103 56  101 104 59  96  102 60  93  100 61  90  98  62  90  101 65  93  104 64  98  107 46  94  96  52  100 102 63  101 104 64  97  102 62  96  98  63  97  98  66  96  98  68  94  95  67  85  89  58  73  78  47  66  70  24  52  53  43  82  79  62  103 99  60  99  96  59  95  95  59  97  100 62  100 103 64  98  100 66  96  96  67  93  92  52  74  72  38  57  53  40  55  50  43  55  51  45  54  51  35  44  41  25  31  29  34  40  40  47  53  53  46  51  54  26  23  30  50  29  46  155 123 146 181 145 171 183 142 172 188 144 177 178 131 167 188 140 178 186 138 176 184 136 174 182 136 173 180 134 170 179 134 167 179 134 167 178 133 164 176 131 160 176 130 159 178 129 161 178 126 162 178 127 160 176 125 158 177 123 157 174 123 156 175 121 155 173 122 155 176 122 156 175 121 155 173 119 153 171 117 151 171 116 148 169 115 147 169 114 146 167 113 147 165 115 150 168 118 153 161 112 142 165 115 142 165 115 140 161 109 132 161 107 131 166 110 137 164 107 139 162 105 138 160 103 136 159 102 135 
174 112 127 172 111 127 170 110 135 168 112 141 167 113 145 163 116 148 161 121 148 158 125 146 165 137 149 194 174 176 186 171 168 185 174 168 187 178 171 156 151 145 24  19  16  57  56  52  56  57  51  110 111 103 73  68  62  18  11  5   73  66  60  170 166 157 178 176 164 169 167 152 177 168 151 168 151 135 122 90  77  92  48  39  104 51  47  100 42  40  101 43  42  102 45  51  151 94  113 186 130 155 182 126 153 181 125 154 190 135 166 182 127 159 173 117 152 160 104 139 157 101 138 158 102 139 124 66  104 154 94  132 154 92  129 126 65  99  163 99  134 161 97  134 168 98  148 166 98  149 165 99  147 165 99  145 166 99  143 167 99  140 168 97  137 167 97  133 111 46  78  148 92  119 97  54  74  98  64  81  51  20  38  91  62  80  71  38  59  146 108 133 146 102 135 129 77  116 116 50  96  132 60  110 138 64  113 171 100 142 163 98  132 166 101 131 167 97  131 175 100 139 176 97  145 176 93  147 178 95  151 180 97  153 181 97  147 183 100 146 182 99  143 182 99  141 183 100 142 183 101 141 186 101 142 188 103 142 190 106 142 192 108 141 194 111 139 194 112 135 197 114 134 200 117 133 202 120 132 203 122 129 204 123 129 208 126 128 208 125 119 209 127 115 209 128 109 219 139 116 221 142 112 214 135 102 219 143 107 227 153 114 218 147 105 221 153 106 224 154 103 222 152 93  225 155 86  234 163 85  238 164 79  233 161 77  223 156 78  224 163 106 118 67  38  67  19  0   139 81  44  190 138 99  127 89  66  44  20  8   40  26  25  46  27  33  75  35  44  112 52  60  147 68  71  165 65  65  186 58  57  189 64  58  169 76  68  82  17  11  60  19  23  44  23  32  37  27  36  36  30  40  35  25  34  45  27  39  78  49  67  134 100 117 158 117 131 171 120 125 178 108 106 199 110 104 195 86  83  192 60  56  197 42  38  218 47  39  227 49  37  228 44  32  227 40  31  232 40  37  232 38  39  227 34  37  225 39  42  216 53  56  181 61  63  99  23  27  66  33  40  52  40  50  54  40  55  46  34  44  42  33  34  41  36  32  31  25  25  54  29  35  76  13  32  153 71  94  147 62  83  136 62  77  114 69  74  95  69  70  94  74  76  96  69  76  105 57  73  130 73  90  157 103 116 164 118 129 152 120 131 148 120 135 144 115 135 154 121 142 147 111 125 154 114 122 165 121 120 164 114 105 187 130 111 215 155 119 229 164 106 229 163 85  235 168 79  233 164 73  228 157 77  235 163 89  228 156 84  228 155 87  224 153 91  222 149 94  222 148 101 224 149 109 224 149 117 223 147 121 216 141 118 220 144 128 220 144 131 216 142 133 216 141 136 214 138 138 211 136 140 210 135 140 209 138 146 198 137 145 192 147 154 129 104 110 85  80  86  83  97  100 67  91  95  70  101 104 64  95  100 66  95  101 70  95  102 72  95  101 75  93  103 74  93  100 74  92  102 69  94  99  61  101 101 59  104 101 62  101 100 61  97  97  57  97  96  57  99  97  60  100 99  63  99  97  71  97  98  71  95  97  67  93  94  57  87  87  58  97  94  64  106 102 61  100 97  65  104 103 63  101 102 62  100 101 61  95  96  65  95  97  67  93  94  51  72  73  35  54  52  37  52  49  40  52  50  39  49  48  34  43  40  29  38  35  36  45  44  39  48  47  44  53  52  22  23  25  26  12  25  47  24  42  155 126 148 182 148 173 176 135 165 189 144 177 183 136 172 183 133 171 185 135 173 184 134 172 181 134 170 180 133 169 180 133 169 179 132 166 177 130 162 176 129 161 178 126 162 180 126 162 179 125 159 178 124 158 177 123 157 176 122 156 175 121 155 175 121 155 174 120 154 175 119 154 174 118 153 174 118 153 174 119 151 173 118 150 171 116 148 170 114 149 166 114 150 163 112 145 164 111 141 170 117 143 161 108 128 158 105 123 160 105 124 166 108 132 163 104 132 163 104 134 162 102 136 161 104 137 
180 112 123 178 112 126 175 112 133 172 112 138 170 113 146 167 116 149 164 119 150 161 123 148 179 148 163 190 167 173 189 171 169 190 177 171 177 168 161 147 142 136 21  16  13  30  29  25  100 101 95  103 103 95  11  6   0   20  13  7   72  65  59  171 167 158 178 176 164 176 174 161 185 176 161 170 152 138 126 93  84  94  51  45  90  39  38  108 52  53  94  38  41  143 85  97  191 133 158 175 118 150 187 130 163 188 131 164 184 127 162 181 124 159 167 107 145 168 108 146 162 102 140 163 103 141 151 89  128 102 40  79  97  33  70  141 77  114 164 100 137 176 109 150 168 96  144 168 96  146 166 98  149 167 99  148 168 100 149 169 100 147 171 98  144 170 97  142 155 84  124 94  30  65  100 47  77  139 93  119 56  14  38  121 79  103 67  22  45  137 84  114 168 101 144 167 95  143 150 78  128 146 72  123 165 89  138 175 98  144 172 97  138 169 97  135 173 101 141 177 102 145 180 96  146 181 92  146 184 93  150 184 97  150 177 100 144 178 103 144 182 101 142 185 100 141 186 101 142 187 102 141 187 102 141 189 105 141 191 107 140 193 110 140 197 113 139 197 113 136 199 116 132 202 120 132 203 122 129 203 123 126 205 125 126 208 127 123 210 128 114 217 135 114 214 132 108 220 137 107 227 145 108 225 143 103 220 142 96  214 138 88  224 151 96  226 154 95  227 156 92  229 156 87  231 158 81  234 159 76  233 157 71  228 156 74  227 164 95  195 143 95  69  31  12  62  28  19  80  34  18  147 105 89  58  31  24  46  30  30  40  28  32  51  28  34  92  41  50  136 63  70  160 70  70  176 64  63  193 57  57  192 64  61  162 73  65  75  14  9   60  17  24  49  23  34  38  25  35  39  29  40  40  27  36  49  32  42  60  39  56  62  37  56  100 72  87  148 115 124 158 116 118 163 109 107 182 114 113 194 102 103 200 71  75  208 54  56  211 43  40  221 44  36  223 45  35  225 40  35  230 38  37  234 41  42  224 40  42  211 52  56  162 52  55  93  22  28  72  36  48  55  37  53  57  36  55  52  34  48  43  32  36  39  30  31  37  28  33  48  27  36  57  15  27  105 37  52  171 70  88  156 58  71  121 65  66  110 76  74  101 72  77  99  67  78  104 63  79  105 58  76  124 74  86  154 108 118 156 120 130 151 119 130 153 121 136 153 118 138 155 120 140 151 114 132 163 121 141 154 110 125 163 116 124 167 117 108 196 143 109 223 168 111 227 168 92  227 165 80  233 167 83  230 162 79  234 163 85  232 160 86  229 156 88  225 151 90  223 150 97  225 151 104 225 151 112 225 150 118 232 157 128 223 148 125 214 139 120 218 142 128 221 147 136 215 140 134 210 135 132 214 140 141 213 138 143 200 130 140 200 138 149 196 146 157 167 129 140 146 118 130 136 114 127 114 98  111 102 90  100 96  86  95  86  81  88  79  78  83  76  79  84  77  85  87  78  89  91  74  94  92  66  99  92  56  96  87  53  93  84  56  98  88  58  104 94  55  105 96  53  103 94  53  100 94  57  98  94  60  99  96  62  101 100 61  100 99  56  98  96  56  98  96  51  93  91  56  96  95  60  100 99  60  99  98  60  96  96  67  98  100 66  94  95  47  71  71  33  53  54  39  55  55  38  49  51  40  50  51  43  52  51  44  53  52  45  54  51  35  44  41  36  45  42  17  21  20  26  21  28  28  16  28  57  39  55  161 136 157 177 143 170 178 137 169 188 141 177 185 135 172 186 134 173 185 133 172 184 132 171 183 131 169 183 131 169 182 130 166 180 131 163 180 129 162 181 127 163 181 125 162 180 124 161 179 123 160 178 122 157 177 121 156 177 121 156 176 120 155 176 120 155 177 120 155 177 120 155 177 120 155 177 120 153 176 119 152 174 117 150 172 117 149 170 114 149 169 116 146 171 117 143 163 108 129 139 82  97  155 99  112 170 112 126 167 108 126 165 105 130 165 105 133 164 103 136 162 102 136 
183 112 118 182 112 122 179 110 129 177 111 138 173 112 145 170 114 149 167 118 150 162 122 148 174 141 158 189 163 172 198 178 179 185 172 166 185 176 169 168 161 155 32  27  23  12  8   5   12  11  6   8   8   0   18  13  7   21  14  8   91  84  78  183 178 172 164 161 152 175 171 160 183 173 161 168 150 140 130 97  92  96  52  51  95  43  47  95  38  44  125 68  77  183 125 140 187 128 158 185 128 163 187 130 165 189 129 165 188 128 166 184 122 161 173 108 150 165 100 142 172 107 149 166 101 143 136 69  113 139 72  116 156 89  133 165 100 143 176 111 154 156 87  132 175 99  148 174 98  147 169 97  147 166 98  149 165 97  148 166 96  148 168 94  147 170 93  145 162 89  135 156 88  129 160 100 136 118 63  94  93  40  70  137 84  112 70  14  43  148 83  117 175 96  143 172 88  140 175 95  146 174 96  146 180 100 151 173 93  144 181 102 149 176 97  144 173 96  142 177 98  146 182 93  147 186 93  148 190 96  149 186 98  148 177 101 140 178 104 141 183 103 142 187 102 141 188 103 142 189 105 141 190 106 142 191 107 141 193 110 140 194 111 137 199 115 138 199 116 134 201 119 133 203 122 129 204 124 127 205 125 124 206 127 123 209 131 121 209 128 109 222 142 117 221 140 111 220 137 103 221 139 101 225 144 99  233 153 102 233 157 99  225 151 86  226 153 84  228 156 82  231 160 82  233 161 79  236 162 77  240 164 78  240 169 91  229 169 109 144 99  60  46  18  6   46  22  22  58  24  25  59  27  30  51  32  36  40  29  35  39  28  36  53  26  33  99  39  47  149 64  71  167 64  65  182 62  61  197 55  54  188 58  58  156 68  66  71  13  12  62  19  29  53  25  39  39  26  36  37  27  35  41  26  33  52  35  43  50  38  48  53  41  55  55  34  51  66  42  56  107 81  90  135 104 110 143 101 111 157 95  106 194 98  110 201 77  87  203 57  58  209 47  44  215 46  39  224 45  38  232 40  39  233 39  40  225 41  43  208 54  56  145 45  47  89  28  33  71  39  52  56  37  56  56  35  54  53  35  51  45  32  41  39  28  34  40  28  38  43  26  36  48  21  28  69  13  22  165 63  76  171 64  72  142 66  66  121 70  67  107 70  77  103 71  84  105 66  85  102 61  79  107 65  77  117 77  86  145 107 118 156 120 132 161 125 139 147 110 128 147 112 132 157 122 146 143 107 133 160 125 149 150 111 130 160 119 125 163 119 106 176 130 96  209 156 102 227 170 101 229 168 88  234 168 84  234 166 83  234 163 83  230 158 86  226 152 87  224 152 93  226 153 102 227 153 108 225 151 112 199 124 92  222 147 118 227 152 129 219 144 125 216 143 128 217 143 132 214 139 133 214 139 136 213 137 141 213 138 145 199 127 138 205 139 151 205 143 158 193 136 153 194 141 159 180 131 150 184 140 157 180 139 155 172 138 152 163 135 147 151 129 141 134 118 128 116 104 114 102 97  103 82  86  89  77  87  88  74  90  89  72  94  92  66  95  93  61  95  94  60  99  98  64  104 103 61  101 100 56  98  97  56  96  96  61  101 101 65  104 103 65  104 103 61  101 100 60  100 99  56  98  96  60  100 99  62  101 100 66  100 101 63  91  92  43  67  69  31  50  54  39  54  57  38  49  53  40  50  52  38  46  48  35  44  43  42  48  46  42  51  48  39  45  41  18  24  22  15  19  22  22  21  27  30  20  31  66  48  64  175 145 169 178 139 168 180 135 168 193 141 179 188 133 173 188 131 172 187 130 171 186 129 170 186 130 169 185 129 168 183 129 165 182 128 162 183 127 164 182 126 163 181 125 162 181 125 162 180 124 159 179 123 158 178 122 157 178 122 157 177 120 155 176 119 154 175 118 153 175 118 153 175 118 151 174 117 150 173 116 149 172 115 148 174 117 149 177 121 148 170 112 134 142 85  100 114 57  66  156 96  104 178 116 127 171 109 122 173 110 131 172 109 136 171 107 141 168 107 141 
185 109 113 184 109 116 182 109 126 179 109 135 176 111 145 171 114 149 168 116 152 165 120 149 179 144 164 204 177 186 192 172 173 186 171 166 180 169 163 177 170 164 98  93  89  16  12  9   9   8   3   15  12  7   9   1   0   32  22  20  176 166 164 173 166 160 174 169 163 175 171 162 175 165 156 167 147 140 127 92  90  102 56  59  102 49  57  108 51  60  171 113 127 191 132 152 178 119 151 199 139 177 184 124 162 183 121 160 194 129 171 189 124 166 184 117 161 163 95  142 160 91  138 170 100 150 167 97  149 168 98  152 167 97  151 164 95  150 172 103 158 169 96  149 174 96  144 174 95  142 170 96  145 167 97  147 168 98  152 171 98  153 174 97  153 176 97  152 173 96  148 168 95  141 167 100 141 115 53  90  154 93  126 104 41  72  110 43  76  170 96  133 183 99  148 170 82  133 183 95  146 187 100 153 173 89  141 179 96  150 176 96  149 177 94  148 178 91  146 182 93  149 186 93  150 186 93  148 187 98  146 186 99  142 182 100 138 185 103 139 188 104 140 189 105 141 190 106 142 191 107 143 192 108 142 193 109 142 196 111 140 197 113 137 201 118 138 201 119 133 202 121 130 205 124 130 206 126 127 207 128 124 209 130 125 212 134 122 213 137 114 214 139 110 214 137 107 223 145 109 227 148 109 225 147 99  227 150 96  224 148 86  228 155 86  229 157 81  229 161 80  233 162 80  234 164 79  233 161 77  231 159 75  225 157 84  204 148 97  84  45  14  49  33  20  43  31  35  48  23  42  44  19  40  40  28  40  37  32  39  42  32  43  60  30  40  114 44  52  163 68  72  172 59  61  187 59  58  203 54  56  193 58  62  149 60  64  69  12  21  61  18  35  51  22  40  38  26  36  37  31  35  42  28  28  49  37  37  49  47  50  46  45  51  54  40  57  58  39  59  68  47  66  89  64  85  91  58  85  102 62  88  126 71  94  161 80  95  196 81  88  207 67  68  207 52  47  217 44  38  230 36  36  231 33  34  226 40  41  204 56  56  128 38  37  78  32  32  60  39  46  53  41  55  51  37  52  50  34  47  46  30  41  43  30  40  38  26  40  44  28  41  45  22  28  63  17  19  122 38  36  173 69  68  170 67  68  140 58  60  116 69  77  107 75  88  103 63  87  104 65  86  102 72  84  91  61  71  110 74  88  155 114 130 148 109 127 163 124 142 152 115 133 153 120 137 147 118 136 145 117 132 150 122 136 150 120 128 152 118 119 155 115 105 169 122 94  199 146 102 223 165 102 226 162 88  232 164 81  233 163 78  230 158 82  228 155 86  229 155 92  228 155 100 228 154 105 226 151 109 150 76  39  204 129 97  231 157 130 221 146 123 217 142 123 222 146 132 217 143 132 213 138 132 211 135 135 219 143 147 219 142 148 205 129 139 202 130 142 205 134 150 198 129 148 203 135 156 196 131 153 195 131 155 191 131 156 190 132 157 188 133 162 187 133 165 184 133 166 183 132 165 188 137 168 177 132 161 154 122 146 126 104 127 101 88  108 83  78  98  74  77  96  66  79  95  68  92  104 61  94  101 64  97  104 67  98  103 65  94  98  60  90  92  63  97  96  62  101 98  56  98  94  62  104 100 60  101 97  60  96  94  60  90  92  49  74  78  36  55  61  35  50  55  38  49  53  39  47  50  29  34  37  19  25  25  28  32  31  48  54  52  44  49  45  34  40  36  23  33  32  16  24  26  20  19  25  45  33  45  94  69  90  184 148 176 178 133 166 182 130 168 188 131 172 188 130 171 189 128 170 189 128 170 187 129 169 186 128 168 185 127 165 184 126 164 183 125 163 183 125 163 182 124 162 181 123 161 180 123 158 180 123 158 179 122 157 179 122 157 179 122 157 178 121 156 179 119 155 178 118 154 178 118 152 178 118 152 177 117 151 177 118 150 176 117 147 168 110 134 142 83  101 121 61  73  118 57  64  165 105 107 175 113 118 174 111 120 172 108 125 172 106 133 171 106 138 169 105 140 
182 106 108 182 107 112 181 107 122 182 108 131 180 109 141 177 113 147 172 115 148 166 120 148 185 148 166 191 163 175 190 171 173 184 170 167 180 171 166 183 176 170 122 114 111 90  82  79  84  79  75  75  67  64  105 95  93  72  62  60  168 158 156 179 171 168 168 163 157 171 164 156 174 164 155 164 143 138 123 89  90  113 68  75  92  40  53  161 102 122 190 130 155 185 125 153 192 131 165 177 115 154 190 125 165 193 126 169 186 119 162 193 124 169 189 121 168 183 115 164 175 105 157 168 95  148 174 99  155 170 95  151 171 96  153 173 100 156 165 94  152 173 100 155 173 95  143 174 95  142 172 96  145 170 96  147 170 97  152 170 95  151 172 93  150 171 92  147 170 92  144 175 99  148 167 95  141 169 101 142 156 85  125 131 60  100 162 87  126 173 95  137 178 92  141 186 98  149 184 94  146 173 84  138 185 98  153 180 95  150 176 93  147 185 100 157 183 94  152 188 95  152 186 93  148 184 94  145 185 98  143 184 99  140 185 101 137 190 106 140 190 104 139 191 105 140 192 108 141 193 109 142 194 111 141 195 112 138 196 114 137 198 115 135 202 120 134 202 121 130 203 122 128 206 126 125 209 128 125 209 130 123 213 133 122 215 138 122 217 141 115 219 144 112 219 143 107 225 148 106 227 149 100 227 150 96  232 156 98  226 150 88  227 155 83  231 160 82  233 163 77  231 162 71  230 160 72  233 163 77  236 164 82  228 163 97  171 122 82  57  26  5   40  27  18  35  26  31  45  26  46  41  22  44  37  31  41  36  31  37  42  29  38  68  32  42  120 50  58  166 71  77  162 53  58  179 50  54  200 52  52  194 58  58  144 53  60  69  11  23  56  19  36  40  22  36  35  28  36  40  35  39  43  31  31  52  40  42  44  43  48  44  42  53  51  38  56  58  39  59  62  43  63  92  70  91  81  58  86  98  69  97  98  63  87  110 57  75  137 55  67  166 59  65  187 62  60  207 53  51  230 42  43  238 39  44  221 41  44  198 58  59  114 34  33  70  31  32  51  34  42  52  42  53  51  38  48  47  31  41  43  27  37  41  25  36  44  27  43  37  21  34  48  31  39  57  22  26  82  14  11  162 67  63  182 62  64  171 62  67  127 66  73  106 68  79  111 67  90  102 64  87  91  65  78  96  73  83  97  64  81  105 68  86  141 107 124 151 117 133 150 118 133 144 116 130 147 123 136 143 121 134 142 122 134 141 119 131 146 120 131 155 123 126 157 117 107 157 111 87  183 132 89  221 165 104 227 165 82  233 163 75  233 160 81  235 158 88  234 159 92  234 160 99  230 159 103 226 156 107 140 68  28  181 108 76  211 137 112 222 147 126 228 153 132 222 147 128 215 139 123 218 144 131 215 140 135 212 136 136 216 137 140 218 137 144 217 135 147 213 132 147 209 130 149 209 132 152 207 132 153 205 131 154 204 130 157 202 127 158 200 124 162 199 124 163 201 126 169 202 127 170 200 123 165 198 126 166 189 129 167 182 132 169 183 139 175 175 138 172 151 122 153 122 103 131 79  77  98  62  72  84  56  73  81  61  82  85  73  93  92  72  94  91  73  100 95  60  93  86  59  99  91  63  104 98  56  97  91  54  90  88  64  95  97  64  89  94  48  67  74  36  51  58  40  51  55  40  48  51  27  35  37  15  21  21  19  25  25  45  49  48  42  44  43  45  49  48  40  49  48  35  43  45  45  48  53  48  45  52  55  41  56  103 78  99  183 144 173 184 137 171 188 132 171 191 128 171 190 127 170 190 127 170 190 127 170 188 127 168 187 126 167 187 127 165 182 124 162 182 124 162 183 123 161 183 121 160 182 120 159 181 121 157 178 121 156 178 120 158 178 120 158 176 118 156 177 117 155 177 115 152 177 115 152 176 116 150 174 117 150 174 118 147 173 118 141 149 92  111 110 52  66  110 50  58  139 77  80  182 118 119 172 106 108 181 112 117 180 110 121 177 108 126 176 108 133 175 106 134 
184 114 114 186 114 118 183 107 119 182 103 122 187 109 135 184 111 140 176 113 142 170 120 145 184 150 167 193 170 180 167 152 157 136 128 126 164 159 156 166 161 157 136 126 124 174 163 161 182 168 165 178 164 161 173 159 158 126 115 113 169 161 159 146 141 137 132 127 121 166 159 151 146 136 127 170 151 145 124 94  96  113 73  82  126 74  96  190 131 163 179 114 156 187 120 164 171 106 146 176 111 151 185 114 156 194 123 167 189 117 163 191 122 169 184 118 164 189 126 173 187 120 171 175 105 157 175 96  151 177 97  150 175 95  148 172 94  146 168 96  144 166 97  144 173 97  146 174 96  148 173 95  147 172 95  147 173 94  149 173 94  149 174 94  147 174 94  147 175 95  146 174 96  146 174 96  146 173 97  146 174 96  144 174 96  144 175 97  145 176 97  145 176 93  145 177 93  145 179 92  145 179 92  147 180 93  148 181 94  149 182 95  150 183 96  149 184 95  149 184 96  147 183 95  145 183 96  141 185 100 141 187 105 143 188 106 142 189 105 139 192 105 137 194 108 137 195 111 137 195 113 136 195 113 135 195 117 133 197 119 133 200 120 131 206 125 132 206 126 129 209 128 127 210 130 123 213 130 122 210 131 118 215 133 119 216 138 116 216 140 108 222 147 107 219 145 98  222 147 92  227 152 85  227 152 84  231 155 93  229 153 91  232 157 90  230 157 78  230 160 64  237 168 65  231 161 65  237 166 76  234 163 81  223 163 103 97  60  33  54  31  23  38  23  20  40  25  28  46  27  33  48  33  40  33  31  34  32  28  29  50  28  31  91  48  55  125 60  68  165 84  93  121 25  37  171 54  62  203 60  52  194 57  47  137 41  43  71  11  21  44  23  32  33  32  38  27  28  33  28  26  31  51  38  45  58  42  53  50  37  55  52  38  61  55  36  58  60  37  57  64  44  55  89  72  82  90  72  88  87  64  82  99  65  81  104 62  76  105 61  74  117 60  69  139 58  64  175 54  59  222 47  54  230 36  45  216 45  51  186 55  61  96  23  32  66  30  40  62  41  56  53  39  52  54  37  45  49  33  36  43  30  37  48  32  42  42  22  34  42  21  36  45  31  46  43  19  32  69  20  26  128 43  48  189 58  64  183 54  59  145 67  67  122 69  75  114 65  84  106 67  88  95  71  84  89  72  82  87  64  82  99  74  93  75  51  67  59  35  49  70  48  61  93  73  85  125 105 117 135 117 131 127 109 123 125 107 119 101 79  91  92  67  73  82  52  50  77  43  33  77  39  20  193 149 104 222 168 82  233 167 71  237 158 79  244 161 91  242 163 94  231 158 89  224 161 94  222 161 104 169 101 64  136 64  40  197 121 107 217 139 126 231 156 135 220 145 122 219 144 121 217 144 125 213 143 131 213 140 134 220 140 139 220 135 140 223 133 143 215 129 142 214 134 147 208 131 147 204 131 148 204 131 150 204 129 152 205 127 153 206 125 158 206 124 162 203 125 165 203 125 165 203 125 164 200 125 164 196 125 165 193 126 169 193 128 171 191 128 171 191 128 171 186 132 168 177 137 163 151 127 143 89  80  85  67  72  66  48  62  49  50  68  52  48  69  52  50  74  58  46  78  63  40  76  66  44  84  76  52  91  88  57  92  94  67  96  102 61  79  89  36  49  57  39  48  53  42  52  53  37  47  46  33  44  40  40  49  48  45  49  50  46  45  50  48  45  52  49  48  56  44  47  54  33  41  44  43  51  53  26  30  33  32  25  33  120 95  114 182 142 169 186 132 168 186 123 166 199 131 178 189 121 168 192 129 174 187 124 169 192 131 172 184 123 164 183 125 165 185 124 165 187 122 164 189 121 162 188 120 161 186 119 160 181 121 159 178 120 160 178 122 161 178 120 160 184 119 161 182 115 158 178 114 151 178 117 151 175 120 152 170 120 145 140 92  106 109 59  68  114 58  67  117 58  64  144 80  81  181 113 114 176 104 105 185 111 112 184 109 113 184 109 114 181 108 117 180 107 118 
182 110 111 183 108 112 189 109 120 189 108 123 183 106 126 182 113 134 178 119 141 162 117 137 185 154 169 189 169 178 86  74  78  56  47  48  81  76  73  72  67  64  77  67  65  79  68  66  179 164 161 169 154 151 99  88  86  36  26  24  150 145 142 42  39  34  81  78  71  141 134 126 73  63  54  177 160 153 114 85  89  122 84  97  178 128 153 179 122 157 184 116 165 188 120 169 175 108 151 179 112 153 188 115 158 199 123 169 194 121 167 195 123 169 184 118 164 184 121 166 186 120 168 191 119 169 194 114 167 190 106 158 184 100 152 181 102 150 177 104 150 170 98  146 170 93  145 171 93  145 172 94  146 172 94  146 174 94  147 174 94  145 174 94  145 175 95  146 172 92  143 172 92  143 173 93  144 173 93  146 174 94  147 174 94  147 174 94  147 174 94  145 178 95  147 178 95  147 179 95  147 180 96  148 182 95  150 183 96  149 184 95  149 185 97  148 182 94  144 187 99  147 190 104 149 194 109 151 198 113 152 199 117 153 200 118 154 201 117 150 206 120 149 210 122 147 209 124 145 209 126 144 208 128 141 206 129 137 208 131 139 212 133 138 202 122 123 208 127 124 214 131 125 215 133 121 214 133 116 217 136 115 220 140 117 222 143 113 219 144 105 224 150 103 224 148 96  226 152 89  227 153 78  226 153 76  231 156 88  229 154 89  232 157 89  236 160 82  234 162 62  240 169 63  233 164 63  231 162 71  224 156 81  205 149 100 63  34  18  39  23  24  48  32  32  42  26  26  44  25  27  39  25  25  32  28  27  45  35  34  55  23  24  97  51  54  145 87  99  133 65  78  106 22  37  175 68  74  197 56  47  193 56  46  130 36  37  76  21  27  41  20  27  31  28  35  41  38  45  45  38  46  44  27  37  56  33  49  62  40  63  54  34  59  62  40  61  60  39  54  62  43  49  88  69  73  87  67  78  100 74  87  103 67  81  103 67  81  98  70  84  100 68  79  113 64  68  148 58  60  203 48  54  220 43  51  205 52  55  151 36  41  89  27  38  61  33  47  55  41  58  49  37  51  50  33  39  51  32  36  39  27  31  46  30  40  43  23  34  40  22  36  39  31  46  39  22  38  54  16  27  97  24  33  181 54  61  192 59  64  158 62  63  139 68  72  125 67  82  112 68  85  99  69  81  94  72  84  92  71  88  87  66  85  85  64  79  59  39  51  42  22  34  44  26  38  44  26  40  49  33  46  51  34  50  55  38  54  53  35  47  63  42  51  59  34  38  62  34  33  61  30  25  137 98  65  217 169 87  229 166 69  241 162 83  239 155 83  242 160 87  236 162 87  228 166 91  220 162 98  188 123 83  128 57  37  180 103 95  205 126 121 217 141 125 223 148 125 224 148 124 220 145 122 213 144 128 215 143 131 221 142 137 219 133 134 223 134 140 220 133 142 213 133 142 211 135 147 206 134 146 205 133 147 207 130 150 207 127 152 208 125 155 208 124 158 205 125 162 203 126 162 205 125 162 202 124 163 199 124 163 199 124 167 199 123 169 201 123 171 202 123 170 199 124 165 192 129 160 172 125 145 146 121 125 110 103 95  101 108 92  90  103 83  85  100 77  73  92  70  73  96  78  63  91  77  58  94  84  60  96  92  60  95  97  68  99  104 65  85  94  44  58  67  38  47  54  44  52  54  41  51  50  36  47  43  40  49  48  45  50  53  48  47  53  47  44  53  42  39  50  40  40  48  50  58  61  20  32  32  16  26  25  21  22  24  38  22  33  142 110 131 188 139 171 192 131 172 186 120 166 196 128 177 191 125 173 187 124 169 189 126 169 186 125 166 183 125 166 185 124 166 188 121 164 191 120 164 191 118 161 187 119 160 182 120 161 179 121 161 178 120 161 177 116 158 182 115 159 182 113 157 183 115 154 182 118 153 174 119 150 139 90  111 112 66  76  104 58  60  108 56  60  112 53  57  156 92  93  184 114 116 184 108 112 185 106 109 187 108 111 187 108 111 186 107 112 184 107 113 
193 111 115 184 103 109 190 109 118 191 113 127 180 109 125 175 117 132 166 122 137 140 108 119 174 151 159 189 173 176 170 155 158 55  43  43  99  89  88  51  43  40  137 129 126 40  32  29  159 149 147 167 157 155 79  71  68  42  37  33  152 151 146 41  40  35  36  36  28  128 124 115 150 141 134 180 165 160 120 93  98  133 95  108 172 122 147 184 127 160 191 124 167 185 118 162 186 119 160 186 119 160 187 116 158 193 120 163 191 118 163 193 122 166 188 123 165 188 126 167 185 118 162 194 121 167 201 119 168 200 113 166 196 109 162 195 112 166 190 113 165 184 110 161 188 110 162 188 108 159 186 106 157 184 104 155 181 101 152 179 99  150 177 97  148 176 97  145 175 93  142 176 94  143 177 95  144 178 95  147 178 95  147 178 95  147 178 95  147 178 95  147 177 93  145 178 94  144 180 93  144 181 94  145 182 93  147 183 95  146 184 96  147 185 97  148 183 95  143 191 104 149 199 112 155 202 117 158 204 120 156 204 123 156 205 124 156 207 124 154 212 126 153 213 128 151 214 131 147 215 134 143 214 135 140 214 135 138 216 137 140 217 139 139 217 137 136 221 140 136 223 141 129 219 138 119 218 138 111 222 143 112 223 147 111 222 147 107 223 149 104 225 152 101 227 152 94  233 158 91  233 157 81  232 157 76  236 163 86  234 160 87  232 155 83  242 165 87  238 164 69  237 166 62  238 169 68  234 168 81  229 165 103 138 88  53  47  22  17  38  25  32  40  29  27  47  33  30  40  21  25  41  22  26  46  34  34  38  18  17  85  45  46  134 85  91  136 90  103 101 47  61  95  25  35  156 55  59  207 65  63  191 53  50  127 43  43  65  16  20  60  26  40  49  26  42  50  34  47  64  48  59  71  50  59  65  39  50  62  33  53  60  35  54  53  35  51  51  38  48  59  44  49  88  67  74  103 71  86  103 64  82  108 67  83  108 70  85  104 73  88  100 73  82  98  68  66  125 62  57  179 51  50  205 55  56  179 51  48  113 22  21  79  37  41  48  35  45  43  42  56  47  45  58  51  35  45  46  27  33  41  26  33  44  31  40  43  27  37  38  26  36  35  32  43  39  29  40  51  20  28  73  11  16  153 44  47  189 65  67  171 61  62  158 66  71  140 66  79  125 67  82  109 66  76  105 72  83  103 75  90  90  66  82  98  76  89  82  60  72  54  32  44  44  24  35  40  22  34  46  28  42  53  36  52  52  35  51  57  39  55  65  45  57  59  36  44  64  39  42  67  39  38  91  57  30  211 164 92  230 169 80  244 167 89  238 154 81  243 161 85  238 162 84  228 166 83  223 163 91  211 147 101 127 56  34  161 83  81  193 114 117 200 123 115 221 144 128 226 148 125 226 148 125 218 146 124 218 147 129 221 143 131 214 134 127 206 125 122 220 140 141 211 135 139 214 139 146 209 136 145 208 134 147 209 132 150 208 129 151 207 127 154 206 125 157 202 125 159 202 125 161 204 124 161 204 124 161 201 123 162 200 124 163 200 123 165 201 122 167 201 122 167 200 124 163 200 133 166 180 126 149 170 134 144 121 103 101 108 106 93  100 108 87  100 114 89  92  110 84  94  112 90  82  103 86  73  101 89  66  99  92  62  96  95  68  99  102 67  92  99  54  71  79  39  50  56  43  51  54  46  51  54  44  50  50  42  48  48  45  50  53  47  50  55  42  45  50  50  50  58  39  42  49  36  41  45  10  18  20  15  21  21  28  28  30  21  10  18  57  33  49  154 116 141 186 134 170 191 130 172 188 120 167 194 126 173 191 123 170 185 122 165 189 128 170 183 125 166 185 124 166 188 121 164 191 120 164 191 118 163 189 118 162 184 119 161 181 120 161 180 119 161 181 116 159 185 116 160 185 114 156 186 116 153 186 121 155 167 111 138 113 62  81  101 55  58  107 62  59  108 57  56  114 55  57  170 105 109 182 111 117 185 108 116 185 105 114 190 109 118 189 109 118 188 108 117 189 109 118 
185 105 108 189 113 117 187 116 122 172 109 117 164 115 121 164 129 135 129 107 110 69  57  59  162 154 152 167 159 157 115 104 102 121 110 108 57  46  44  53  43  41  121 118 113 54  51  46  73  68  64  103 98  94  52  49  44  22  21  16  89  89  81  93  93  85  101 101 91  100 96  87  181 172 167 188 170 170 123 96  103 135 97  112 181 131 156 182 123 155 187 121 159 191 123 164 187 120 161 189 122 163 190 119 161 195 122 165 193 120 163 187 116 156 182 115 156 180 115 155 190 122 163 190 117 162 193 111 159 199 112 163 203 116 169 199 114 169 193 114 169 194 117 171 194 116 166 195 115 166 194 114 165 194 114 165 193 113 164 192 112 163 192 113 161 192 113 161 192 110 159 192 110 159 190 108 157 188 106 155 186 102 154 183 99  151 180 96  148 179 95  145 180 96  146 179 95  145 181 94  145 180 93  144 182 94  145 184 96  147 185 97  148 186 98  148 189 102 147 197 110 153 204 117 159 205 119 156 203 119 153 203 119 152 205 122 152 206 123 151 209 125 149 210 127 147 212 130 142 213 133 136 213 135 131 214 137 131 216 138 134 219 140 136 221 140 136 221 141 132 223 142 123 224 144 117 228 150 114 229 154 112 230 156 109 228 154 105 230 156 107 229 156 101 232 156 94  239 162 90  237 161 83  236 162 77  240 168 84  238 163 82  239 161 86  243 164 85  239 162 70  238 164 65  236 171 71  230 169 86  217 161 112 74  31  12  51  28  34  40  28  40  33  23  22  45  34  30  41  25  28  50  27  33  49  20  24  65  31  32  127 85  87  138 95  102 120 82  97  73  31  45  85  28  35  144 54  56  196 53  57  200 60  63  124 40  40  69  18  23  117 73  90  123 90  111 115 92  110 113 93  105 119 93  102 88  58  66  64  30  44  69  37  52  58  36  48  55  40  47  59  42  48  80  54  63  111 70  88  116 69  87  115 69  82  115 71  84  113 72  88  110 74  84  101 70  68  121 66  61  159 54  50  189 61  58  171 51  50  110 19  18  77  32  35  50  37  44  45  45  57  48  47  61  46  34  46  45  27  39  45  29  39  45  29  39  42  29  36  38  28  36  33  32  40  40  33  41  52  26  35  65  13  17  115 27  26  175 66  63  182 59  62  175 60  67  154 64  74  137 67  78  121 65  74  113 70  79  99  65  79  94  66  81  89  63  76  89  65  78  66  42  55  42  20  32  51  31  43  53  35  49  59  42  58  54  37  55  54  37  53  56  38  52  52  32  43  56  35  42  64  42  45  65  34  14  179 138 76  229 172 91  238 165 88  240 158 82  245 164 85  238 161 79  227 161 74  229 168 88  224 159 105 142 73  44  142 66  66  185 108 116 194 116 116 209 131 121 224 141 123 234 152 130 223 147 123 222 147 126 218 142 126 210 134 121 174 97  89  212 137 132 212 138 137 213 138 142 211 136 141 211 135 145 211 133 147 209 130 149 208 128 153 205 126 155 202 125 157 202 125 159 205 125 160 205 123 159 203 123 160 203 123 162 203 123 162 203 122 163 203 122 163 200 122 162 198 127 161 189 129 155 179 132 150 147 116 121 111 96  89  106 105 87  100 110 85  98  113 84  101 113 89  95  108 88  84  105 90  72  100 88  63  95  90  67  99  98  69  97  101 65  85  92  44  57  65  41  48  56  44  47  52  49  50  54  44  48  49  44  49  52  43  53  54  38  48  50  42  49  55  43  48  52  28  32  35  23  27  28  13  15  14  18  18  18  39  33  37  22  6   16  77  50  69  173 133 160 179 125 161 192 129 172 189 122 166 188 120 167 193 128 171 185 122 165 183 125 166 185 124 166 188 121 165 191 120 164 191 118 163 189 118 162 186 119 162 184 119 161 183 118 161 185 118 161 189 118 160 186 114 154 185 115 151 185 120 150 149 91  116 106 53  69  107 61  63  108 63  58  109 58  55  118 59  61  168 103 107 181 110 116 183 107 117 186 109 119 189 109 120 189 109 120 189 109 120 186 109 117 
182 116 117 171 111 111 163 113 112 158 123 121 138 120 116 103 100 93  77  87  78  76  89  79  94  106 94  180 186 176 100 95  89  59  50  45  117 108 103 131 124 118 57  56  51  118 119 113 179 175 172 182 179 174 174 171 166 81  81  73  167 167 157 84  84  74  58  55  46  154 147 141 182 168 167 167 146 151 112 82  94  124 82  102 175 125 150 186 127 157 179 114 148 193 125 162 188 121 162 191 122 166 190 117 160 194 119 162 193 118 159 186 114 152 191 123 162 192 124 163 188 120 159 191 118 161 193 111 159 197 110 161 201 114 167 198 111 166 189 108 164 192 113 168 194 114 165 194 115 163 194 115 163 194 115 163 197 115 164 197 115 164 197 115 164 197 115 164 197 113 163 197 113 163 197 113 163 197 113 163 198 111 162 198 111 162 197 110 161 196 109 160 192 105 156 190 104 153 188 100 150 186 98  148 185 97  147 185 97  147 187 97  148 188 99  147 193 104 148 200 112 154 206 120 157 207 121 156 205 120 153 204 121 149 206 123 149 207 125 148 209 127 150 212 129 147 214 133 139 215 136 132 216 138 128 217 139 127 219 141 131 221 141 134 218 138 129 219 140 125 223 146 120 228 152 116 229 155 108 228 155 104 227 154 101 226 155 101 232 161 107 235 163 104 235 160 92  240 162 87  239 162 80  237 163 74  238 167 75  236 163 71  244 167 85  240 162 79  241 162 70  242 168 71  233 169 71  220 167 89  157 111 77  58  25  20  50  29  44  32  21  37  41  32  35  36  26  24  44  29  32  52  23  28  61  11  20  134 83  90  132 93  96  125 94  100 88  57  73  66  32  48  78  36  40  123 44  47  191 47  56  203 53  62  138 44  45  75  14  19  103 52  69  123 85  108 119 94  113 115 93  106 122 97  103 124 92  97  110 69  77  80  38  48  72  39  48  56  29  36  60  37  43  88  58  66  105 58  76  129 74  93  123 70  80  123 70  80  125 67  82  127 69  83  120 67  75  129 67  68  137 49  47  163 53  52  190 61  66  148 35  41  88  26  29  67  38  43  55  42  52  48  40  55  42  29  47  48  34  51  46  28  42  42  25  35  39  28  34  37  31  35  32  29  36  37  30  38  49  28  35  60  19  23  79  16  11  153 60  55  192 59  64  191 54  62  167 60  68  149 67  73  135 66  71  120 67  73  108 67  81  107 75  90  98  67  82  101 73  85  86  63  73  55  33  45  47  27  39  48  30  44  52  35  51  52  38  53  52  38  55  56  39  55  59  41  55  57  39  51  65  45  54  64  37  26  126 88  39  223 170 100 233 164 87  238 160 78  244 161 81  242 164 79  233 164 73  233 168 84  227 162 98  167 99  62  127 53  50  175 99  111 196 119 125 198 118 117 216 128 118 232 143 125 229 147 123 226 149 123 217 142 119 209 138 118 137 68  53  195 125 115 214 141 135 212 136 136 214 135 140 213 133 142 213 133 146 210 132 148 207 129 151 204 128 154 202 128 155 203 127 157 206 125 158 207 123 157 204 122 158 204 122 158 204 122 158 203 123 160 202 122 161 200 122 161 196 120 158 200 130 164 188 128 154 179 133 146 134 106 105 115 103 89  105 109 84  103 114 82  107 111 84  104 110 84  95  108 88  82  103 88  67  97  87  65  97  92  67  98  100 68  96  100 52  69  77  41  50  59  42  42  50  49  48  54  48  49  53  42  47  50  39  51  51  37  51  51  36  47  49  40  48  51  30  31  35  25  25  27  24  23  21  17  16  14  20  19  17  32  26  30  30  14  25  97  68  88  173 128 159 187 129 167 190 125 168 192 123 168 189 121 168 187 121 167 185 124 168 186 123 166 189 120 165 191 119 165 191 118 164 191 118 164 187 118 163 185 118 162 183 116 160 186 117 161 187 114 157 186 114 152 186 116 150 181 115 143 122 63  83  105 53  65  106 61  58  101 56  50  108 57  53  116 58  57  148 83  87  181 111 119 185 112 123 187 111 123 186 109 119 186 109 119 186 109 117 185 110 115 
162 117 111 163 126 118 141 119 108 110 104 90  86  99  82  73  98  79  65  98  77  68  101 80  53  78  57  97  111 94  173 175 162 183 176 166 190 181 174 180 171 164 178 175 168 167 164 159 164 156 154 182 174 171 184 177 171 187 180 172 175 168 158 188 181 171 185 176 169 184 170 167 184 163 168 106 78  90  104 66  87  119 73  99  179 124 155 179 115 149 196 129 162 186 116 152 192 121 163 194 123 167 192 116 162 191 114 158 188 111 153 176 101 142 184 112 152 182 111 151 172 101 141 190 117 160 197 118 163 194 110 159 199 112 163 199 115 167 196 113 167 195 115 166 195 116 164 194 115 162 194 115 163 193 114 162 195 113 162 194 112 161 193 111 160 194 110 160 195 111 161 197 110 161 198 111 162 199 112 163 200 113 164 202 114 165 203 115 166 203 115 166 200 112 162 197 109 159 193 105 155 189 101 151 186 98  148 185 97  145 187 98  146 187 98  144 189 101 143 195 107 147 202 116 151 205 120 151 207 122 151 209 125 151 211 127 151 210 128 150 212 130 152 213 133 146 216 136 137 216 138 128 216 139 123 218 139 122 219 140 127 221 142 129 224 145 130 226 148 125 228 152 118 227 152 110 225 152 101 226 153 100 228 157 103 231 160 106 219 148 92  232 161 99  236 159 87  237 160 80  240 164 78  240 165 74  240 168 70  238 166 68  240 163 75  243 163 76  245 166 74  239 166 72  232 171 80  216 169 99  85  49  25  51  26  30  42  25  43  33  22  39  45  36  41  36  24  24  42  22  23  55  20  26  124 66  78  154 96  108 121 86  93  114 91  99  62  38  52  67  39  53  70  35  39  99  27  30  201 55  66  203 46  57  163 50  54  82  5   11  72  21  36  120 85  105 118 90  112 113 89  105 117 87  95  129 94  98  133 91  95  130 85  90  82  39  48  69  32  39  66  35  41  71  36  43  127 74  90  125 63  78  132 71  76  135 70  74  136 64  75  140 66  79  140 64  77  141 65  75  113 38  42  125 36  38  177 57  66  180 63  72  123 41  45  87  32  35  60  29  35  54  38  49  47  34  52  43  30  50  46  25  42  43  23  34  40  29  35  39  33  37  37  30  37  38  28  36  46  26  37  54  23  28  61  16  11  125 46  41  193 58  64  200 53  61  178 59  63  162 66  67  145 67  67  127 66  71  109 66  76  100 66  80  103 71  84  98  68  80  95  69  80  76  55  64  47  27  38  48  32  43  50  36  49  55  41  56  53  39  56  53  39  56  57  40  56  52  36  49  52  36  47  60  36  32  87  53  16  209 160 101 237 171 95  237 161 77  242 160 78  247 167 80  240 167 73  231 164 75  230 164 90  193 125 80  116 46  38  154 81  90  194 118 128 194 113 119 208 117 114 219 127 114 233 145 125 232 150 126 223 148 125 215 147 126 125 60  42  175 109 95  210 140 132 216 138 136 216 134 138 216 134 140 214 133 142 213 133 146 209 132 150 205 130 150 204 129 152 204 128 154 207 126 158 208 124 158 207 123 156 206 122 155 204 123 155 204 123 156 203 123 160 202 122 161 201 120 161 203 125 165 194 123 157 187 127 152 155 114 120 117 97  88  110 108 83  105 112 79  108 109 77  108 111 80  103 111 87  91  106 87  76  100 86  65  96  88  61  96  92  65  96  98  61  81  88  45  58  66  43  43  53  49  46  55  50  49  55  42  47  50  36  51  48  37  53  50  37  51  52  44  52  55  27  28  32  18  16  17  32  28  27  24  23  19  13  15  10  22  22  20  25  19  23  31  13  25  128 93  117 180 131 163 188 127 168 194 127 171 190 121 168 191 123 170 188 122 168 188 122 168 191 119 167 192 119 165 193 117 164 193 117 164 190 117 163 189 117 163 188 116 162 189 118 162 184 111 154 189 117 154 190 121 152 166 102 126 102 45  62  102 51  58  100 55  52  98  53  47  111 62  57  111 55  54  126 66  68  172 107 111 186 117 122 181 112 117 183 112 116 183 113 115 183 115 112 184 116 113 
140 122 108 118 111 93  92  100 79  73  99  74  61  101 74  50  101 70  38  89  58  29  74  45  55  85  59  40  58  36  62  66  51  68  62  50  88  75  67  100 85  80  78  63  60  75  60  57  74  56  56  72  54  52  92  74  70  103 86  78  85  68  58  84  67  59  84  65  61  84  59  62  91  61  73  99  61  82  99  53  82  180 126 160 184 122 159 190 122 159 190 118 155 195 120 159 189 113 159 195 119 166 196 117 165 197 118 165 192 113 160 167 90  136 166 91  134 151 78  121 168 95  138 188 115 158 195 118 162 190 111 156 196 114 160 197 115 161 191 112 157 193 114 159 192 110 156 193 111 157 193 111 159 195 113 161 197 113 163 198 114 164 199 115 167 201 114 167 198 111 164 198 109 163 195 106 160 192 103 157 190 102 153 189 99  151 187 97  149 187 97  149 194 104 155 192 102 153 190 100 151 188 98  149 187 98  146 187 98  146 188 99  145 189 100 144 188 100 140 192 104 142 196 109 143 200 114 143 205 119 146 210 125 148 213 128 149 212 129 147 212 131 148 213 133 144 216 137 133 216 138 125 217 139 119 220 139 118 221 140 121 223 142 123 221 143 120 226 150 118 225 152 109 222 150 100 226 155 103 232 160 110 229 155 110 219 145 100 202 131 77  229 158 94  237 161 85  236 158 75  242 165 75  242 166 72  239 167 67  242 170 70  237 161 67  244 165 72  247 168 75  236 165 75  228 171 90  173 132 76  48  22  7   41  24  34  41  24  40  40  26  41  41  28  37  45  26  30  58  24  25  97  52  55  161 107 120 131 80  97  125 88  105 86  62  76  63  46  56  58  39  45  57  26  31  103 31  35  193 47  58  215 48  58  192 57  64  110 15  21  62  15  23  94  70  84  119 91  113 120 91  111 126 92  106 126 89  96  129 90  93  132 87  92  148 97  106 106 56  65  72  31  39  78  35  42  110 49  64  146 76  86  141 70  68  146 71  66  147 66  65  154 67  75  160 61  79  155 64  81  94  28  38  87  20  29  126 33  43  169 62  72  167 58  63  127 37  39  81  30  29  62  35  40  50  37  54  36  24  44  46  25  42  47  27  38  43  30  37  42  31  37  42  29  38  43  27  38  46  26  38  48  25  33  54  25  21  91  28  21  182 53  57  201 52  58  189 61  62  169 64  61  153 68  65  134 68  70  120 70  81  104 66  79  103 70  81  95  65  75  93  67  78  88  67  76  60  43  53  49  33  44  54  40  53  52  40  52  51  39  53  51  39  53  51  37  52  52  38  53  51  37  50  63  43  44  71  41  17  171 127 78  233 174 98  237 166 76  242 162 75  246 165 76  241 167 72  234 163 71  234 166 85  212 145 90  121 53  34  132 62  64  179 106 113 194 113 122 205 113 118 210 115 111 225 132 117 232 145 125 227 152 131 218 151 132 129 68  50  148 84  72  200 127 120 215 135 134 220 134 137 220 133 139 217 135 141 214 134 143 210 134 146 207 133 148 206 132 149 207 129 151 208 128 157 209 125 158 208 125 155 207 124 152 205 125 152 204 124 153 203 123 158 202 122 161 202 119 163 204 118 165 206 123 165 201 127 160 181 129 142 139 108 105 112 104 83  101 105 72  106 108 71  107 111 74  105 110 78  96  109 83  84  105 86  71  99  85  59  94  87  60  94  93  64  92  95  55  72  80  47  51  62  47  45  56  50  49  57  45  49  52  38  50  46  37  54  48  33  47  47  49  57  60  34  35  39  24  24  24  20  19  17  17  18  13  23  28  22  13  18  12  20  20  18  35  26  31  41  17  33  152 112 138 175 121 155 186 124 165 198 129 174 193 121 169 190 120 170 192 120 170 192 118 169 195 117 167 195 117 167 194 116 166 192 116 165 192 116 165 190 117 163 190 119 163 185 114 154 189 122 157 185 121 148 134 75  95  95  41  55  97  48  54  96  52  51  99  55  52  109 61  59  106 55  52  118 63  60  148 89  85  175 116 112 178 118 110 177 119 108 177 119 105 177 122 102 178 123 102 
98  101 80  84  96  72  73  103 75  55  100 67  28  85  50  27  89  52  49  105 70  61  106 73  70  100 72  65  80  57  37  42  22  67  61  47  59  45  36  76  52  48  76  48  47  78  46  49  71  39  42  80  48  49  76  45  42  73  42  37  77  48  40  65  34  29  69  37  38  72  35  43  78  35  54  110 61  90  180 124 161 177 114 157 186 117 161 188 115 160 193 116 158 195 117 159 193 114 161 195 116 164 191 109 158 193 111 160 200 116 168 187 104 156 197 119 167 189 113 160 185 112 158 193 120 165 191 116 159 189 114 155 194 118 157 186 110 146 176 100 136 181 104 140 197 116 159 196 114 160 196 114 162 194 112 160 194 110 160 193 109 159 194 107 160 194 107 160 182 93  147 182 93  147 181 92  146 181 92  146 182 92  144 183 93  145 187 94  147 188 96  147 184 94  145 184 94  145 185 95  146 187 98  146 189 100 148 191 102 148 193 104 148 194 106 148 194 106 144 193 106 140 193 107 136 195 109 134 200 115 138 207 122 141 212 127 146 211 128 144 213 133 146 213 136 142 218 139 134 219 142 126 222 141 120 223 143 118 225 145 120 227 147 120 223 147 115 228 154 115 228 156 108 224 152 102 230 158 110 231 156 116 203 127 95  167 91  57  196 123 72  234 160 95  243 166 88  237 160 72  245 166 74  239 163 67  236 162 65  241 167 68  247 171 73  237 161 63  243 167 71  237 170 83  219 166 98  103 66  24  43  23  16  46  34  44  40  27  37  41  23  35  44  22  34  51  20  28  88  43  46  150 99  104 129 83  96  130 89  107 117 82  104 73  46  65  50  34  44  61  45  48  68  33  37  100 24  28  201 55  65  212 42  51  196 46  55  145 36  41  64  15  19  48  27  34  123 94  114 119 85  109 126 87  106 126 88  99  126 89  96  131 92  95  141 91  100 149 98  107 121 74  82  79  28  35  115 49  59  146 69  75  154 66  64  161 68  61  162 65  59  170 66  67  174 62  76  161 64  83  82  24  38  62  14  26  79  13  25  123 37  46  175 64  70  166 58  58  120 42  38  73  21  23  54  24  36  47  26  43  46  24  37  49  29  40  42  29  36  38  25  32  44  24  36  47  24  40  46  25  40  46  26  37  51  31  30  65  14  10  164 48  51  197 52  57  196 60  60  180 61  57  163 65  62  144 68  70  125 69  78  115 71  84  105 65  76  104 71  82  97  69  81  90  69  78  81  64  74  46  33  42  55  43  53  50  38  50  52  40  52  56  42  55  50  36  51  56  42  55  54  37  53  59  40  46  64  36  25  129 89  53  221 167 93  234 167 76  244 167 75  241 160 68  239 163 67  241 168 74  236 166 81  224 156 93  130 65  37  118 51  45  162 93  98  191 114 124 205 114 123 208 112 114 213 116 107 226 137 121 225 149 133 215 148 132 137 75  60  126 64  53  184 111 105 210 129 128 224 135 139 224 135 139 221 136 141 217 136 142 213 136 144 210 134 144 209 131 144 209 131 147 208 128 153 207 127 156 208 125 151 207 125 148 205 125 150 204 126 152 201 124 156 202 122 161 208 122 169 204 114 165 208 116 165 202 120 160 190 127 148 162 121 125 121 104 88  111 110 80  106 108 69  106 111 70  106 110 75  101 110 79  95  110 87  80  105 86  64  98  84  61  96  90  65  97  96  61  84  90  51  61  71  43  45  57  48  48  56  47  51  54  39  50  46  40  52  48  42  52  53  41  49  51  32  36  39  23  25  24  21  21  19  19  21  16  17  22  15  21  26  19  21  26  20  17  15  16  32  16  26  65  36  54  172 127 156 182 124 162 186 119 163 196 122 171 193 119 170 195 118 170 195 117 169 195 117 169 196 116 167 195 115 166 193 115 165 193 115 163 189 113 160 191 120 162 186 118 157 187 124 155 172 114 138 100 47  63  93  43  54  91  46  51  92  50  52  94  52  53  98  54  53  103 55  51  117 69  59  119 70  56  163 114 97  178 130 107 168 123 94  167 124 90  166 127 88  166 127 86  
79  95  69  70  95  66  43  87  54  28  84  47  37  101 64  56  118 81  65  112 80  65  100 70  69  92  66  82  94  70  61  64  43  52  45  29  54  36  26  81  50  47  100 55  60  159 108 115 144 93  100 109 58  63  100 52  52  126 78  76  154 106 102 164 116 116 165 116 122 170 118 131 177 121 146 181 120 154 184 117 161 187 115 163 191 114 166 195 115 166 196 114 163 195 111 160 193 109 158 201 117 167 196 112 162 198 114 166 194 107 162 195 110 167 193 110 166 191 113 165 188 112 161 190 117 162 186 115 155 184 117 152 167 98  127 131 61  87  123 51  73  177 103 130 193 115 154 194 112 158 195 111 160 195 111 160 197 113 163 198 114 166 191 104 159 177 90  145 180 91  147 180 91  147 182 91  148 183 93  147 186 93  146 186 93  146 187 95  146 189 97  148 185 95  146 186 97  145 188 99  147 189 100 148 189 100 146 190 101 145 192 104 146 193 105 145 194 107 142 196 109 141 198 112 139 198 113 136 199 114 133 203 119 134 210 126 141 215 134 143 212 133 139 214 138 138 220 141 134 220 143 125 224 144 121 226 146 119 226 147 117 224 145 112 224 149 110 225 152 109 231 159 111 228 155 110 226 152 113 198 121 93  154 72  58  197 116 95  218 141 95  231 156 91  242 165 87  241 164 76  240 161 66  242 166 68  241 167 72  238 164 69  241 168 66  239 166 64  233 163 67  236 175 94  183 136 84  53  19  0   47  32  27  37  28  33  42  31  35  39  18  23  61  23  36  78  30  42  158 105 111 135 86  92  127 94  105 115 86  106 97  61  89  68  36  60  55  38  48  61  39  41  75  29  31  128 42  45  195 55  58  209 44  50  206 53  58  166 50  53  72  18  16  51  25  28  95  64  82  121 83  108 133 89  114 124 82  102 121 90  98  125 94  99  126 85  93  130 83  91  153 103 112 148 91  98  131 58  67  160 71  77  172 68  69  176 63  59  179 58  50  184 62  57  180 61  65  155 59  70  67  14  30  53  20  37  61  25  39  71  18  28  127 41  42  173 68  65  173 63  62  116 22  23  83  20  29  64  24  35  55  29  38  34  19  26  46  35  41  34  21  28  46  24  37  52  28  44  44  21  41  49  28  43  44  28  31  68  24  25  123 23  25  191 58  61  201 59  58  188 54  51  174 62  60  157 69  68  136 69  78  122 70  82  112 66  77  109 71  82  98  68  78  87  66  75  84  67  77  63  50  59  53  41  51  52  40  50  52  39  49  55  39  50  56  40  53  56  40  51  56  38  52  58  38  49  66  39  44  82  46  24  220 171 104 230 169 76  239 167 67  247 169 69  242 164 66  239 164 71  237 165 80  226 158 93  153 90  55  118 56  45  127 63  64  181 108 117 202 115 123 205 110 114 210 112 109 208 118 110 227 150 142 213 145 136 153 90  81  126 61  55  163 89  88  201 119 121 221 132 136 227 136 141 221 135 138 216 134 136 220 141 144 207 131 135 215 136 141 212 132 143 209 130 151 208 128 153 208 126 149 208 126 148 206 127 149 205 127 151 203 127 157 204 124 161 205 119 166 208 116 167 210 116 168 208 121 164 195 126 154 177 127 138 144 117 110 109 101 78  110 114 77  100 107 65  107 111 74  105 111 77  98  111 83  94  113 91  72  103 85  63  99  87  60  95  91  70  98  101 59  76  84  37  46  55  50  53  60  50  51  55  45  50  46  43  49  45  41  46  49  46  51  54  39  44  47  25  31  29  19  24  20  17  22  16  18  23  16  20  25  18  18  23  16  16  16  14  24  19  23  59  43  54  88  56  79  174 127 159 181 119 160 195 123 169 196 119 171 199 120 175 193 113 166 200 120 173 190 110 161 197 118 166 199 120 168 192 114 162 196 120 166 186 115 155 188 124 159 179 123 150 127 75  97  90  44  57  79  36  45  87  46  50  86  45  51  93  52  56  98  57  55  100 60  52  108 66  50  110 70  45  145 106 73  161 126 84  158 126 77  154 128 71  152 128 68  150 129 66  
59  90  59  44  81  48  37  84  50  54  108 72  72  123 90  71  112 82  74  96  73  87  95  74  86  80  64  61  49  33  56  43  27  67  49  35  83  56  49  94  56  55  110 57  63  134 74  82  182 119 128 176 111 117 175 113 116 176 114 115 174 112 113 174 112 115 177 114 123 183 119 136 184 115 144 188 116 154 192 116 162 192 114 164 193 113 166 196 111 166 198 111 166 197 110 163 200 114 163 194 108 157 192 105 156 199 112 165 205 117 175 196 111 168 195 110 169 192 111 167 196 120 169 184 113 155 180 115 149 144 81  108 110 47  68  118 54  70  140 72  85  180 107 126 195 115 152 193 111 157 193 110 156 195 111 160 195 111 161 191 107 159 188 101 156 185 98  153 184 95  153 181 92  148 180 89  146 183 93  147 189 96  149 190 98  149 188 96  147 187 95  144 188 99  147 189 100 146 191 102 148 191 102 148 192 103 147 193 105 147 194 106 146 195 108 143 194 107 139 196 110 137 198 113 136 199 114 133 201 117 132 206 123 133 212 129 137 216 135 141 217 139 139 218 141 135 220 142 130 221 142 125 224 144 119 226 147 117 227 148 115 225 150 111 230 157 114 229 158 112 217 146 100 223 151 111 178 103 74  146 64  50  185 99  98  204 120 109 226 147 104 234 159 91  242 165 85  241 164 74  239 163 67  241 165 67  242 165 73  239 164 71  238 166 66  236 168 67  236 173 80  218 164 92  110 66  31  59  29  18  42  26  26  42  33  36  31  19  19  59  33  36  76  29  39  152 94  108 141 85  96  137 91  101 119 88  103 115 92  110 78  48  76  61  31  55  54  34  45  69  37  40  94  28  29  155 55  57  192 59  62  178 29  33  198 49  55  181 61  63  98  33  29  51  15  15  64  30  46  105 71  95  130 90  117 125 85  109 120 89  104 125 95  105 122 87  94  135 94  102 138 88  97  145 84  92  172 99  106 177 88  94  171 62  67  183 60  62  197 62  56  194 61  52  181 62  58  135 45  47  65  17  29  50  25  44  40  19  38  55  21  35  79  19  19  136 47  43  178 58  59  183 60  63  127 34  42  75  10  16  58  22  26  49  30  32  39  28  32  46  35  43  44  22  35  48  23  42  47  24  44  45  24  41  44  27  37  59  20  25  102 20  22  176 58  58  198 54  54  202 54  54  188 60  59  171 65  67  151 70  77  133 70  81  120 64  75  114 68  79  103 67  77  95  69  80  96  76  87  82  66  76  60  47  57  57  44  54  56  40  51  56  39  49  55  37  49  56  36  48  58  38  50  62  40  53  59  32  49  75  40  34  178 131 75  215 160 70  244 176 75  239 166 61  239 164 63  243 169 74  239 165 80  230 161 94  161 99  60  111 54  37  117 57  57  149 82  89  186 106 109 207 117 119 206 112 113 197 107 106 201 123 121 213 143 141 169 104 102 116 51  49  140 65  69  194 114 117 203 116 122 226 137 141 221 132 134 225 141 141 213 132 131 219 139 138 216 136 137 212 131 138 211 130 147 208 129 150 209 128 147 206 127 146 205 128 146 203 128 149 202 126 154 204 124 159 206 119 164 209 117 168 213 116 169 206 117 161 198 124 157 187 130 147 157 121 123 122 104 90  109 109 75  105 112 71  108 110 73  107 111 76  104 111 80  97  111 85  85  110 88  68  101 84  63  98  91  70  100 100 66  87  92  51  64  72  42  49  55  49  50  54  49  51  50  47  49  46  46  47  51  47  51  54  42  50  52  36  45  44  28  37  32  21  28  21  18  21  14  17  20  13  23  28  21  27  32  26  40  42  39  49  43  47  44  21  37  108 70  95  188 132 167 184 117 160 195 119 168 192 114 166 197 119 169 190 112 160 198 121 167 186 109 155 171 92  139 196 119 163 189 114 155 197 129 166 181 122 152 147 98  120 84  40  55  79  39  48  78  42  46  82  46  48  83  47  51  88  52  52  96  59  53  97  61  47  110 76  51  122 89  54  146 118 71  153 131 73  149 130 64  145 131 58  143 131 55  141 132 53  
36  82  46  61  107 71  72  117 84  68  104 76  76  98  77  107 108 94  147 122 117 174 133 131 179 128 127 152 101 100 100 55  50  68  29  22  85  45  43  97  56  54  104 54  57  131 72  78  186 115 123 187 112 119 185 110 115 184 109 113 182 110 114 183 110 117 182 109 120 179 104 124 189 110 139 194 114 151 197 116 159 197 113 163 197 110 163 197 110 165 199 110 166 199 110 164 200 112 162 192 106 153 204 118 167 199 115 165 193 108 163 188 103 158 200 115 172 194 111 163 187 111 157 184 116 153 144 81  110 112 55  74  100 42  56  114 53  60  164 98  102 182 110 122 186 107 139 194 111 153 199 113 158 199 113 160 200 113 164 197 110 163 195 106 162 195 106 162 193 102 159 186 95  152 181 90  147 182 92  146 186 93  146 188 96  147 189 97  146 191 99  146 188 99  143 189 100 144 190 102 144 191 103 145 191 103 143 192 104 142 193 107 142 194 109 140 199 115 141 200 116 139 202 118 134 204 120 133 207 124 132 211 129 133 216 134 136 218 139 135 217 140 132 217 141 127 219 142 126 223 145 123 226 146 119 228 149 116 227 152 113 228 155 112 224 156 109 223 155 110 224 155 116 156 85  55  131 54  38  180 97  91  204 115 121 206 117 109 236 155 108 239 162 90  240 165 82  240 165 74  239 165 68  241 165 69  242 165 75  241 166 75  241 171 73  229 166 69  224 170 84  188 142 82  64  26  5   51  23  22  41  23  23  44  30  30  50  32  30  61  29  30  153 100 108 143 85  97  133 85  99  132 91  107 119 85  102 102 75  94  59  37  58  52  33  52  62  36  47  81  30  35  129 33  35  179 60  62  177 61  61  138 15  17  176 42  49  185 64  69  134 48  47  69  13  12  50  17  24  63  39  55  95  65  89  128 94  121 116 83  104 125 93  108 122 90  101 118 80  91  134 84  95  146 86  96  151 85  89  172 93  98  199 102 111 192 73  79  195 56  53  193 55  45  184 71  57  117 37  28  61  19  23  44  21  37  50  26  52  57  29  51  51  21  23  75  16  12  149 39  38  192 62  64  181 58  61  127 31  33  73  17  18  52  26  25  40  25  28  47  36  42  40  22  36  45  24  41  48  27  46  45  24  41  47  27  39  52  17  24  82  16  18  152 49  50  195 50  53  214 53  58  203 54  56  186 60  63  165 64  72  148 67  76  136 66  76  126 69  78  112 69  79  103 70  81  97  74  84  85  68  78  66  50  60  58  42  52  53  36  46  56  36  45  59  37  49  58  36  48  58  36  48  62  38  54  62  36  63  66  33  40  127 84  41  228 177 98  231 169 68  235 169 59  239 166 64  240 165 72  238 163 80  235 166 99  179 117 76  106 51  31  107 53  51  115 54  59  161 90  88  197 116 113 199 110 114 196 109 115 190 111 116 199 127 131 180 111 114 118 49  54  128 53  58  170 91  97  196 111 116 215 129 132 225 139 140 224 138 137 222 139 135 217 136 132 221 140 137 215 133 135 213 133 144 212 131 146 209 131 145 208 130 144 207 130 146 204 129 149 203 128 151 205 124 156 206 119 161 211 119 166 211 118 165 205 116 160 199 122 156 196 132 156 175 127 139 142 113 109 110 104 78  111 115 80  108 108 72  111 111 77  107 111 78  101 110 79  98  118 91  77  105 83  67  99  86  67  98  93  69  95  96  66  85  91  41  50  55  45  49  52  51  51  51  49  47  48  50  50  52  46  50  53  43  51  53  43  53  52  43  54  50  42  48  44  43  45  40  45  48  41  36  41  34  45  50  43  41  48  41  43  43  43  35  22  32  49  22  41  139 94  123 189 131 169 187 115 161 196 120 169 195 122 168 189 116 159 196 121 162 142 67  106 172 96  135 195 119 157 198 127 161 184 119 149 167 113 137 79  35  52  79  41  52  66  34  39  79  47  48  72  41  39  79  48  46  83  52  47  94  62  51  94  63  42  113 84  52  132 108 62  143 124 66  144 129 60  141 134 56  137 135 50  135 135 47  132 135 46  
57  113 74  68  123 84  80  127 95  98  132 105 126 141 122 151 145 133 167 136 134 175 129 131 182 127 130 188 132 133 173 123 122 141 96  93  92  48  45  93  47  47  107 57  60  129 68  73  191 116 123 195 114 121 191 110 117 191 110 116 191 110 117 186 106 115 189 107 121 189 108 125 191 107 131 194 111 141 198 113 152 198 113 155 198 110 160 199 110 164 199 110 166 197 110 163 194 108 155 199 116 160 194 113 156 184 102 148 201 119 167 199 115 164 189 105 154 195 113 159 189 115 152 161 94  125 106 47  69  101 47  61  116 59  66  128 68  70  176 108 109 186 110 120 182 102 131 195 113 151 199 114 155 195 109 154 198 112 159 202 115 166 200 111 165 197 108 162 191 101 155 188 98  152 186 96  150 188 98  150 191 99  150 192 100 147 195 103 150 199 108 151 198 110 150 199 111 149 200 112 150 201 114 149 202 115 150 202 117 150 203 118 147 204 120 144 209 126 146 209 126 142 210 126 139 212 130 136 215 133 135 217 136 133 219 138 134 220 140 131 218 141 123 219 143 120 223 145 123 229 149 124 229 150 119 227 149 111 225 152 107 227 157 108 222 156 108 222 157 115 173 106 77  121 48  31  166 87  80  207 121 120 207 117 119 213 124 110 242 161 108 239 163 85  239 165 80  239 166 72  239 167 69  240 166 69  241 164 74  241 165 77  232 163 68  228 171 81  220 172 100 116 78  31  51  18  9   54  27  34  49  29  31  36  16  17  69  43  44  138 103 107 133 84  90  136 84  96  129 85  102 122 83  102 122 88  105 76  49  66  52  38  53  56  38  50  71  38  47  92  25  32  164 45  51  187 56  61  153 53  53  110 16  17  150 36  44  178 62  71  159 59  61  93  17  17  66  27  28  39  18  25  56  33  53  103 75  100 128 94  119 117 82  102 125 94  109 125 89  101 132 81  96  144 88  99  137 82  88  143 81  86  159 82  92  190 90  100 212 88  88  195 71  63  160 60  45  93  21  9   63  23  23  52  28  41  40  16  40  51  29  52  39  19  28  63  25  24  93  14  10  159 47  45  189 56  57  182 59  61  115 35  34  64  19  16  54  29  32  38  25  32  41  28  38  45  28  44  44  26  42  47  26  43  48  27  42  50  20  28  67  17  18  123 35  34  194 55  58  217 52  56  208 47  52  200 54  57  180 59  64  165 64  70  152 65  73  140 67  76  124 68  77  110 68  78  99  69  79  89  65  78  92  72  83  72  55  65  59  39  48  58  37  46  62  39  49  64  38  49  62  36  49  61  36  55  61  35  64  64  32  47  99  57  32  215 167 105 221 166 76  234 170 70  237 167 69  242 169 77  236 161 78  237 167 98  200 142 94  102 51  24  100 51  47  98  46  50  135 72  67  169 98  92  190 110 113 189 108 115 187 110 118 184 111 118 184 113 121 128 57  65  126 53  62  146 69  75  197 118 123 202 120 122 220 136 136 223 140 136 228 145 139 215 132 126 221 138 132 218 137 134 216 135 141 214 134 143 211 134 142 211 134 144 209 133 145 208 131 147 207 128 150 208 125 153 208 122 157 209 121 161 211 120 163 205 119 158 201 121 156 200 130 158 190 128 149 165 122 129 122 105 89  115 110 81  113 107 75  114 110 75  110 110 74  105 111 77  102 117 86  88  111 85  75  102 87  65  95  87  71  97  96  75  96  99  51  65  68  45  50  54  50  50  50  52  50  51  54  54  56  49  50  54  44  49  52  41  51  52  42  51  50  44  53  50  47  52  48  46  48  43  32  37  30  32  39  31  20  27  19  35  37  34  37  31  35  30  12  24  61  29  50  161 115 144 192 127 169 190 119 163 187 119 158 194 128 164 170 103 136 101 32  63  186 113 143 193 120 149 188 120 145 180 118 141 89  41  57  80  40  51  71  39  44  71  41  41  75  45  43  72  43  37  75  48  37  81  55  40  99  72  51  104 79  48  121 100 57  140 123 69  141 127 62  139 131 56  137 134 53  132 135 48  129 134 44  126 132 42  
62  123 82  64  122 82  67  118 85  71  114 86  71  103 80  67  86  67  76  82  70  96  92  81  112 98  89  124 101 93  160 131 125 169 134 128 146 105 101 109 61  59  110 55  58  117 55  60  185 108 114 199 116 124 194 111 119 192 109 117 192 109 119 186 105 114 189 105 118 187 105 119 191 107 123 193 109 132 195 111 137 196 111 144 198 111 153 200 112 160 198 111 162 194 110 160 194 113 156 189 111 150 190 116 153 188 114 151 181 105 143 192 115 151 194 112 148 195 116 148 182 109 136 115 50  70  101 45  58  97  44  52  106 49  55  152 90  93  180 108 111 184 107 117 188 105 131 194 110 144 196 112 148 194 109 150 196 109 152 199 111 159 199 111 161 196 108 159 186 98  149 183 95  145 188 98  149 197 108 156 204 115 161 204 116 158 203 115 157 204 116 154 207 120 155 208 121 155 209 122 156 210 123 155 210 125 154 211 127 153 212 128 151 212 131 148 214 134 147 213 134 140 214 134 137 215 136 132 219 139 132 220 140 129 221 142 129 221 142 125 222 145 119 224 147 117 229 150 120 231 152 119 229 151 113 225 151 106 224 154 103 225 158 106 226 162 118 199 134 102 125 58  41  135 62  55  204 124 123 196 111 108 205 112 105 230 139 112 245 161 97  240 164 78  236 165 75  238 168 73  241 168 73  240 166 71  242 163 71  240 165 74  231 166 74  223 170 90  182 141 85  59  28  0   49  23  24  51  25  38  51  24  31  73  44  48  129 94  100 125 88  95  128 91  99  135 95  106 121 79  99  125 86  107 112 79  96  58  34  47  56  40  51  64  41  49  75  28  34  117 32  39  192 55  63  189 54  61  118 38  41  89  24  30  126 38  50  169 64  78  175 62  68  122 28  28  74  25  20  51  27  27  43  27  40  54  35  57  107 73  98  127 89  112 121 88  105 127 91  105 133 86  102 128 80  94  133 92  100 127 86  92  133 84  90  144 79  85  169 80  84  196 102 100 169 89  80  93  30  21  55  14  12  50  23  30  49  28  45  39  20  39  57  33  47  50  23  28  57  27  17  87  25  14  180 56  56  197 58  61  171 59  58  107 29  29  66  25  29  41  22  28  43  31  41  40  30  41  42  26  37  46  26  38  44  26  40  49  26  34  60  21  22  92  21  19  185 59  60  211 53  54  211 42  45  213 50  53  197 57  58  183 60  62  167 61  65  151 62  68  135 65  75  120 69  78  108 70  81  103 75  87  90  66  79  76  54  66  66  43  53  70  44  55  79  51  65  87  59  73  94  66  81  99  72  91  106 80  105 118 87  103 128 90  81  173 127 91  227 174 106 230 170 84  231 164 77  237 163 76  237 163 76  236 167 90  216 160 101 100 54  20  89  45  42  96  51  56  110 57  51  133 73  65  177 107 107 168 96  100 170 97  104 190 117 126 184 111 122 141 70  78  122 51  59  132 61  67  185 113 116 191 115 115 203 124 120 225 144 140 222 139 133 226 143 137 219 136 130 221 138 134 218 137 136 216 136 137 214 135 138 212 136 140 211 134 142 210 132 145 210 129 146 209 125 148 211 125 154 208 121 153 208 123 156 207 123 157 201 122 154 200 123 155 198 125 155 186 127 145 145 110 108 121 102 85  120 104 79  116 107 76  112 108 71  110 112 73  103 110 76  100 115 86  88  107 88  73  97  84  71  96  93  74  95  96  70  85  88  49  59  61  46  50  51  53  53  53  48  49  51  48  49  51  47  52  55  43  51  53  43  48  51  46  51  54  40  46  46  26  31  27  20  27  20  14  21  13  14  21  13  26  28  23  22  20  21  41  31  39  39  23  34  92  60  81  181 127 159 183 119 154 182 123 153 187 131 158 130 72  96  99  37  58  181 113 134 194 125 144 178 114 130 113 55  69  82  36  46  71  35  39  77  47  47  70  42  39  70  41  37  80  53  42  77  55  31  90  69  38  117 97  60  129 110 67  138 122 70  147 135 75  139 130 63  138 134 60  126 127 47  122 126 42  116 121 37  114 119 35  
49  111 70  61  121 83  65  116 83  57  102 73  58  96  73  66  98  77  69  96  77  73  91  75  80  86  72  98  90  79  96  71  66  171 131 129 178 127 126 180 121 123 126 64  69  128 59  64  169 92  98  201 120 126 200 119 126 194 113 122 194 113 122 193 112 121 197 116 125 190 107 117 191 108 118 192 110 122 194 111 129 195 111 135 198 113 146 199 114 155 198 112 159 193 111 159 195 119 158 191 120 154 188 121 152 166 97  126 140 70  98  176 102 127 193 115 139 189 112 132 132 61  75  101 38  47  103 48  53  100 48  50  110 54  55  173 108 112 189 114 119 187 105 119 189 107 130 188 105 135 197 113 146 204 120 156 201 115 154 198 111 154 200 112 160 199 111 159 194 106 154 185 97  145 184 95  143 194 105 149 206 118 160 210 122 162 208 120 158 206 119 153 208 121 153 209 123 152 210 124 151 211 125 150 210 126 150 211 128 148 212 131 148 213 133 144 214 135 141 214 136 136 215 136 132 216 138 128 219 140 127 221 142 125 222 144 124 222 145 119 223 147 113 228 150 112 230 150 113 230 151 112 229 152 108 230 157 106 230 161 104 227 161 109 215 152 111 142 78  53  118 51  45  155 80  84  195 115 118 201 113 109 210 118 97  240 149 105 244 161 85  240 163 71  236 166 70  236 167 72  238 167 75  241 166 73  243 164 69  239 164 71  237 173 85  219 169 98  104 69  29  53  27  12  49  26  32  39  15  29  75  43  54  127 92  99  130 92  103 131 95  107 116 84  97  124 92  107 129 91  112 123 89  106 71  43  58  63  41  53  55  40  47  69  40  44  84  19  23  150 46  53  198 58  67  179 52  61  91  26  34  76  33  42  113 49  65  149 61  75  179 62  70  166 56  57  83  16  8   62  27  23  51  31  42  35  20  39  60  32  55  111 79  102 122 91  107 118 84  100 132 89  108 127 84  101 114 84  96  124 97  104 127 94  101 138 93  100 134 73  81  150 80  88  163 94  97  154 94  96  108 62  64  57  22  26  56  30  39  45  21  35  51  23  38  54  31  41  29  20  13  64  26  15  157 42  45  202 53  59  200 60  63  155 45  48  73  12  17  51  24  31  40  29  37  35  28  36  45  29  39  42  25  35  41  25  36  48  28  37  55  26  28  73  14  10  166 52  51  202 52  51  214 44  45  222 48  50  209 51  48  197 55  53  184 60  60  166 61  65  149 68  75  131 69  80  110 64  75  103 70  81  117 89  101 116 90  103 116 90  103 117 89  103 118 87  102 116 85  100 119 88  104 121 92  110 111 86  105 123 95  110 127 87  95  131 85  72  185 134 89  221 164 97  240 172 97  238 166 82  239 166 74  235 167 82  221 168 98  112 69  26  78  39  34  91  51  59  91  46  43  106 53  47  153 93  92  161 95  97  153 82  88  197 124 133 179 106 115 164 93  101 129 59  67  120 54  58  161 95  96  168 98  96  193 118 113 212 133 128 218 138 131 231 148 142 227 144 136 219 136 130 220 137 131 217 136 132 214 136 134 211 135 135 211 135 139 212 132 141 212 128 143 213 126 145 214 126 150 207 121 146 207 124 150 207 127 154 203 122 154 200 119 152 205 121 157 200 127 156 169 119 128 134 101 92  126 103 85  118 104 75  113 108 70  112 113 71  103 108 68  106 116 82  98  110 88  82  98  87  73  94  89  71  91  92  79  97  99  56  70  71  45  54  53  47  51  52  44  48  49  45  49  50  49  53  56  48  51  56  46  49  54  50  55  59  44  49  52  22  31  28  17  24  17  19  26  18  20  25  18  19  22  15  22  21  19  42  40  41  48  43  49  44  26  38  119 75  100 191 136 165 185 136 158 164 115 134 94  43  58  108 52  65  180 118 129 192 126 136 170 107 116 89  34  40  79  34  37  81  47  45  75  46  42  70  43  36  85  56  50  77  51  34  90  72  36  110 96  49  134 120 71  146 133 80  141 129 71  139 129 67  128 121 53  125 123 49  112 112 38  107 110 33  102 104 29  99  103 27  
56  121 79  61  119 81  63  108 77  60  99  72  61  93  72  61  90  72  61  90  72  70  93  77  79  87  74  99  86  78  150 112 111 190 131 135 216 143 150 206 126 135 197 120 128 158 81  89  158 83  88  201 126 131 207 130 138 197 120 130 189 109 120 181 101 110 189 110 116 191 110 116 191 111 114 193 112 118 195 114 121 195 114 129 196 114 137 196 115 148 196 113 155 192 114 156 180 110 146 175 110 140 139 77  102 107 45  66  142 78  95  181 113 126 174 101 112 182 109 116 124 55  58  117 56  55  98  44  42  103 52  49  122 63  65  179 113 117 196 116 127 192 108 124 188 104 127 190 106 132 200 115 144 197 112 145 182 96  133 188 102 141 202 115 158 199 112 157 200 113 158 190 103 148 186 99  142 193 106 148 202 116 155 205 119 154 207 122 155 209 124 155 212 126 153 213 127 152 213 129 152 214 131 151 215 132 152 216 133 149 216 136 147 217 138 144 216 137 140 216 138 134 218 139 132 219 141 128 220 143 125 222 146 123 224 147 121 225 149 117 226 148 109 228 151 107 229 150 109 228 149 106 231 155 105 234 161 106 227 161 100 217 154 100 166 103 68  104 41  24  106 37  42  175 101 114 198 116 122 196 108 98  224 131 97  246 156 96  245 161 73  241 166 65  237 168 67  233 167 70  237 166 76  240 167 75  243 165 67  238 164 67  226 164 79  190 142 80  59  28  0   49  28  25  43  23  34  71  47  63  121 85  99  135 95  106 121 85  97  125 93  108 120 86  110 122 88  112 117 86  104 93  65  79  62  40  52  54  37  45  54  39  44  74  35  38  122 32  34  179 58  63  183 56  65  143 39  48  79  25  38  71  37  51  103 60  79  128 57  73  173 57  66  193 69  71  122 31  28  74  14  13  54  27  36  42  30  44  46  29  47  57  39  55  108 86  99  124 96  110 121 83  104 128 93  113 117 93  109 117 93  106 118 87  93  130 93  101 128 86  100 134 83  102 141 82  102 154 91  108 149 92  99  136 86  89  77  36  40  58  23  29  53  21  34  51  25  38  47  32  35  59  17  19  141 31  40  197 47  59  214 47  55  192 49  55  100 19  26  60  23  30  40  27  34  35  30  36  46  31  36  43  26  34  40  29  37  42  29  36  50  30  31  66  18  14  133 36  29  191 54  48  217 49  48  224 44  43  216 44  40  207 50  45  198 60  57  179 63  64  163 70  78  139 67  78  106 54  66  98  57  71  106 74  87  111 83  97  118 90  104 123 92  108 123 92  108 123 90  107 122 89  108 120 89  104 122 97  103 122 95  104 124 85  106 132 86  97  139 88  69  190 133 90  225 160 96  234 163 83  238 165 70  236 170 74  220 169 86  138 97  43  71  37  28  79  43  55  81  39  41  93  45  43  118 65  61  158 98  97  135 69  71  182 109 116 177 104 113 182 111 119 153 88  94  115 53  54  133 72  71  136 73  68  176 105 99  192 115 109 210 130 123 219 136 130 226 146 139 221 138 130 222 138 128 220 137 129 216 137 132 214 136 134 214 135 138 214 133 140 216 130 143 216 128 144 215 126 144 209 124 143 205 126 147 206 128 150 203 123 152 205 121 155 211 118 162 206 120 157 189 126 143 155 109 111 132 100 87  120 103 75  114 109 71  112 113 69  110 111 69  107 111 76  105 110 88  93  104 90  80  95  90  73  91  91  76  96  97  67  85  85  53  65  65  43  52  51  48  57  56  45  51  51  50  51  55  48  49  54  43  43  51  45  48  55  38  46  48  19  29  28  13  22  17  22  29  21  21  22  16  16  15  10  27  26  22  30  30  28  34  40  40  27  20  27  55  21  38  155 107 129 175 132 149 124 82  94  79  36  43  97  48  52  174 115 119 187 125 128 183 123 125 116 62  62  95  51  48  82  49  42  76  47  39  88  61  52  83  53  45  85  58  37  105 91  44  128 118 57  137 127 66  138 128 66  121 111 49  117 108 43  111 103 38  104 101 34  101 100 33  97  96  29  94  93  28  92  92  28  
49  113 76  55  112 77  60  105 76  63  97  72  71  94  74  74  92  76  77  91  78  84  89  82  120 111 106 170 142 141 193 141 145 207 137 145 207 126 135 211 125 136 211 127 140 212 132 143 177 101 111 199 126 135 196 120 130 199 123 133 204 127 135 195 116 122 196 117 122 191 112 115 190 112 112 194 115 118 195 119 123 194 117 127 193 114 135 194 114 143 196 114 150 192 116 152 157 95  120 96  41  60  91  37  53  106 50  61  145 84  92  176 111 115 185 115 117 182 110 111 183 113 111 128 63  59  103 44  38  104 46  42  107 43  44  179 108 114 191 111 122 199 115 130 192 107 126 197 113 136 197 113 136 168 84  108 142 57  86  166 82  115 198 114 148 194 109 148 189 104 145 189 104 146 195 110 151 204 119 158 208 124 160 207 121 156 209 124 157 215 130 159 212 128 152 213 130 150 213 132 149 214 133 148 215 135 148 214 137 145 215 138 144 216 140 142 218 143 140 220 143 135 221 145 132 223 146 128 223 147 123 224 149 118 226 151 119 228 153 114 231 154 108 234 156 107 232 154 106 229 153 101 231 159 101 229 163 103 214 153 98  194 137 92  99  43  18  98  39  31  115 50  58  175 103 115 199 119 122 204 118 101 224 136 88  244 158 85  245 162 70  242 166 68  237 168 73  232 167 77  233 165 80  238 166 81  242 166 72  235 164 76  226 168 95  118 76  28  48  20  8   47  28  34  52  32  44  115 88  105 127 91  105 123 85  98  123 91  102 121 90  106 121 89  113 123 93  117 100 71  89  65  39  52  62  42  53  58  35  43  68  36  41  91  26  30  166 51  56  192 63  68  163 57  61  99  22  28  74  34  45  67  43  57  95  66  84  113 59  75  151 54  63  176 59  65  169 61  61  95  13  15  61  21  29  44  28  39  40  28  40  42  28  41  63  45  57  108 84  98  123 94  112 115 86  104 118 94  110 116 92  106 122 91  99  124 88  98  123 90  107 128 90  111 133 84  106 135 80  101 139 83  96  143 90  98  151 102 108 113 70  79  64  23  37  60  28  41  50  31  35  62  20  24  120 20  30  198 53  66  221 44  54  211 45  55  145 39  49  71  15  24  50  29  34  38  34  35  41  29  33  44  29  34  42  32  40  39  30  35  46  32  32  63  25  22  101 23  19  172 59  55  205 59  59  211 45  45  218 49  44  214 49  43  207 55  52  190 56  57  175 64  70  153 63  72  116 51  59  107 57  68  109 68  82  108 72  86  109 72  89  109 72  90  115 78  96  121 87  104 122 91  107 117 91  102 115 93  95  115 90  94  124 86  109 132 87  108 130 82  82  145 93  72  188 133 92  228 167 104 233 163 75  240 171 76  222 168 82  164 122 62  72  38  26  67  34  43  77  36  40  88  44  43  86  41  36  140 89  86  112 50  51  158 87  93  186 111 118 187 112 119 181 112 117 125 63  64  109 54  51  111 54  47  144 81  74  180 109 103 188 109 105 207 124 120 213 130 126 226 143 137 225 141 130 222 140 128 219 139 130 218 137 133 217 135 137 217 135 141 220 133 142 219 131 143 214 128 141 210 126 141 208 127 144 205 126 147 206 123 151 209 124 157 212 122 160 202 116 153 202 130 154 174 117 126 139 96  90  127 100 79  118 108 73  113 111 70  117 118 78  106 108 71  110 110 84  105 109 92  90  100 91  83  98  95  75  93  93  81  99  101 67  78  80  48  56  58  49  55  55  43  47  48  50  51  55  55  54  59  51  50  56  52  53  58  45  50  53  27  36  33  20  26  22  18  23  17  24  25  20  24  23  19  24  23  19  28  30  27  26  35  32  23  23  25  35  13  25  69  37  50  148 118 126 82  51  56  85  49  49  86  42  41  145 91  89  187 127 126 190 129 128 180 122 120 103 54  50  91  52  45  91  61  50  82  56  43  83  57  44  93  72  45  112 100 48  135 127 62  129 121 56  119 111 46  99  91  28  100 92  29  102 97  33  95  91  28  99  95  32  94  92  31  92  90  31  92  90  31  
51  111 83  52  108 79  54  99  70  63  96  69  79  92  72  88  86  73  123 103 102 174 139 145 195 148 158 197 140 149 204 139 145 211 140 144 212 137 142 212 135 143 208 128 141 211 133 149 203 130 147 201 128 145 202 128 141 205 128 138 201 122 128 200 121 124 193 115 115 192 116 116 189 113 115 186 111 115 191 118 127 196 122 135 189 114 134 194 116 140 193 113 142 121 49  73  83  31  43  84  39  44  94  48  51  108 56  58  136 78  77  188 124 124 180 110 108 187 113 110 181 106 103 196 121 118 145 74  72  110 40  40  113 41  44  152 80  84  187 112 117 193 116 124 194 112 124 195 111 126 176 94  108 128 46  60  128 47  62  186 108 124 176 98  120 198 120 146 199 122 154 200 123 159 203 123 162 205 125 162 210 128 164 216 132 166 216 132 165 214 131 159 217 135 157 216 138 154 217 141 154 216 143 152 216 144 148 215 145 145 216 146 144 217 146 142 221 148 141 218 144 133 222 146 130 227 152 129 226 153 121 224 152 114 226 155 111 230 158 110 230 154 104 235 158 104 232 155 99  235 164 102 221 158 91  216 162 102 207 160 118 96  52  27  82  40  28  80  32  30  120 61  65  184 115 118 199 121 119 198 116 92  234 154 91  240 159 77  242 162 73  237 163 76  233 166 88  228 164 90  224 158 82  235 166 88  234 161 82  233 166 95  188 138 87  64  29  1   52  28  26  58  38  50  109 82  99  120 91  109 116 85  100 127 97  107 120 90  100 120 92  104 118 91  108 89  62  81  56  24  45  53  24  42  61  39  51  68  31  39  100 29  37  147 42  49  196 56  67  187 58  63  118 38  37  79  35  34  58  35  43  77  59  71  90  66  79  106 66  77  125 62  71  156 66  75  177 60  66  143 38  43  67  11  20  51  25  34  45  28  36  43  30  39  43  26  36  65  45  56  105 83  96  124 100 113 120 92  106 119 87  100 125 89  101 128 92  104 125 93  106 123 91  104 127 89  104 127 84  101 127 83  98  135 88  104 134 83  102 144 93  112 133 80  100 91  49  61  49  29  28  56  21  17  99  14  17  189 58  64  217 44  50  217 43  52  186 56  66  94  13  20  51  21  23  40  34  34  42  32  33  40  29  33  38  32  36  38  32  34  40  30  31  53  27  30  79  29  30  117 38  41  161 52  57  195 62  65  203 50  45  212 49  44  213 49  47  207 53  53  196 57  60  175 60  63  130 44  47  134 68  72  122 69  79  119 71  85  121 69  91  118 66  89  113 65  87  111 69  89  107 79  93  107 87  96  112 96  99  113 92  97  122 84  99  135 88  106 131 87  102 130 89  95  131 94  85  169 125 90  233 166 98  239 164 81  226 163 83  202 152 93  72  35  17  61  29  30  75  36  31  83  42  36  83  45  42  105 63  64  110 55  58  130 64  68  190 111 117 188 106 112 185 109 113 163 97  98  104 53  49  91  44  36  102 49  43  177 114 109 185 107 107 191 105 108 203 114 116 223 135 133 221 141 130 223 144 131 223 139 129 224 136 132 228 138 137 222 133 135 214 129 134 215 132 140 213 132 141 214 132 146 213 126 145 210 122 144 212 126 151 211 127 153 204 124 151 199 123 151 202 126 154 197 128 147 161 102 104 138 99  84  120 103 77  114 109 77  109 109 75  114 114 80  111 111 77  112 112 84  105 108 91  92  99  91  81  95  96  79  92  100 79  82  91  73  72  80  49  50  54  49  50  52  50  50  50  50  50  50  51  49  50  51  49  50  50  50  48  47  49  46  22  24  21  20  24  23  21  23  22  20  22  21  26  28  27  37  39  36  35  37  34  21  21  19  27  21  23  27  16  20  48  34  34  70  52  50  90  62  59  87  49  46  142 92  91  194 134 134 196 130 132 201 135 137 164 104 103 102 51  47  97  59  48  100 73  56  91  73  51  93  83  48  122 115 61  117 111 49  112 106 44  106 100 38  96  90  28  91  85  23  91  87  24  93  89  28  94  90  29  95  90  32  95  90  32  95  90  34  
49  94  73  60  99  78  62  90  67  76  90  67  124 117 101 170 145 138 197 152 155 207 149 161 206 138 153 218 146 160 211 140 148 213 144 149 204 137 144 210 144 154 207 138 156 198 133 155 196 138 162 195 137 161 195 133 156 201 138 157 202 135 152 200 132 143 192 122 130 186 117 122 187 118 123 197 128 133 181 112 117 188 118 126 200 126 139 200 123 139 204 123 142 158 85  102 88  37  42  81  39  40  94  48  48  113 63  62  127 71  70  177 116 115 188 120 119 192 121 119 192 116 116 186 108 108 188 109 112 167 91  95  134 57  63  138 63  68  191 116 123 198 121 129 198 115 125 196 110 119 191 108 116 136 55  62  146 67  73  187 110 120 186 110 123 196 121 141 201 127 152 205 130 160 208 133 166 209 134 167 212 135 167 214 138 166 218 140 166 218 140 162 216 142 159 217 143 158 217 147 157 218 149 154 216 150 151 216 151 147 217 152 146 219 152 144 218 148 138 226 154 140 224 151 134 223 151 126 230 159 127 230 161 120 224 156 111 227 157 108 230 153 107 231 153 105 228 153 98  228 158 98  225 165 102 215 164 111 123 82  52  69  32  16  70  32  29  82  40  41  122 68  68  175 110 108 182 107 102 199 119 94  240 162 100 238 163 82  240 165 82  238 166 90  235 166 107 188 121 69  179 107 57  195 122 71  214 143 89  222 160 113 122 77  48  72  38  28  76  51  57  112 88  104 120 91  109 125 94  110 120 92  106 113 85  97  122 95  104 111 85  96  71  48  64  45  22  40  56  27  47  62  28  44  62  25  32  90  30  32  141 37  44  186 56  66  199 59  72  159 43  52  94  35  37  66  40  41  59  39  48  83  65  77  92  68  81  99  67  78  109 63  74  139 66  75  181 60  67  162 45  53  84  19  27  56  25  31  50  31  35  46  34  38  42  25  33  48  31  41  73  56  66  97  75  87  118 86  99  137 101 115 127 89  104 127 91  105 121 89  102 119 89  99  124 91  102 128 92  106 127 90  107 129 90  109 130 85  108 136 87  109 140 87  107 119 77  87  83  64  58  60  30  22  92  12  15  184 59  65  214 48  50  215 41  43  197 50  58  136 31  38  65  19  21  45  31  30  45  30  35  42  29  36  42  31  37  42  31  37  43  32  36  49  30  34  61  29  34  83  32  37  111 36  43  136 36  44  174 55  57  189 55  56  201 56  59  197 48  50  196 52  52  191 59  57  162 50  48  159 65  65  146 66  69  138 65  74  136 64  78  134 65  84  130 67  86  122 69  85  110 69  83  98  71  80  93  74  80  101 80  87  119 83  93  127 86  100 126 89  106 122 90  105 115 85  93  135 99  87  190 133 90  227 163 101 233 174 108 183 136 84  61  28  9   70  42  38  64  31  24  70  37  30  74  43  40  87  52  50  95  47  47  114 54  56  162 87  92  191 110 116 188 109 114 176 108 109 114 60  58  85  40  35  90  42  40  126 70  71  184 112 116 198 115 123 191 101 110 205 119 120 219 141 129 226 150 134 228 146 134 221 134 125 221 134 127 223 138 135 219 141 139 215 139 141 208 133 138 213 136 146 217 133 149 216 129 148 215 127 149 207 125 147 201 128 148 206 134 156 207 131 159 206 132 155 186 121 127 146 98  88  129 104 82  120 109 81  112 107 75  115 112 77  114 112 73  113 113 77  108 108 84  96  99  88  82  94  94  81  92  98  84  88  99  86  86  94  57  58  63  53  54  56  50  52  51  52  52  50  53  52  50  51  50  46  50  49  45  51  50  46  42  42  40  35  37  36  32  33  35  34  38  39  44  46  45  49  51  50  40  40  38  20  20  18  21  23  22  26  26  24  21  17  14  69  58  54  79  58  53  108 74  72  188 142 142 194 138 139 207 141 145 202 133 136 204 140 141 135 82  78  110 70  58  106 79  60  106 92  66  109 103 67  108 102 50  105 100 42  100 95  37  97  92  34  95  91  30  94  90  29  92  88  27  92  88  27  94  89  31  97  92  34  100 95  39  101 96  40  
80  98  84  76  87  73  118 112 98  170 148 137 193 154 147 204 155 151 215 156 160 211 145 155 224 156 169 210 139 153 223 152 166 207 139 154 209 148 164 202 149 169 145 97  121 102 63  90  112 81  112 87  57  91  69  35  72  90  52  89  139 97  133 160 113 145 194 141 167 192 137 156 186 129 138 179 119 121 196 132 132 192 124 121 198 127 125 214 138 138 202 121 127 209 136 143 155 98  105 100 51  57  109 58  63  118 66  70  129 73  76  184 124 126 184 119 123 197 128 131 194 123 127 194 119 124 203 126 132 194 117 125 179 99  110 160 80  91  181 101 114 203 119 132 204 116 128 201 111 121 204 117 126 160 75  82  163 81  87  194 115 121 195 118 128 196 122 135 203 130 149 208 136 158 213 143 167 214 144 168 214 145 166 215 146 165 218 149 167 220 152 167 221 153 168 221 155 167 223 157 167 221 159 164 221 159 160 221 160 157 224 161 156 224 161 152 233 167 155 224 157 141 228 160 141 234 164 139 228 159 128 229 161 126 232 164 125 226 157 116 229 155 120 202 126 90  226 151 111 237 166 120 224 162 113 165 112 70  82  37  14  69  31  18  66  29  23  74  30  27  110 57  53  179 114 110 183 108 105 198 119 102 233 155 109 237 162 97  229 159 87  230 160 98  144 72  34  169 92  72  197 113 103 186 103 95  178 106 92  173 115 101 89  44  38  103 67  69  127 94  105 121 90  105 118 92  103 120 92  106 121 87  104 122 88  104 96  70  81  56  36  47  44  25  44  51  30  49  45  18  33  60  17  26  100 35  31  132 39  32  180 55  53  201 68  73  168 52  65  117 30  46  77  33  46  62  38  51  63  39  52  94  70  83  97  71  84  98  66  79  103 61  71  131 60  68  179 60  66  175 58  66  95  30  38  57  26  32  45  29  32  47  35  39  48  28  37  46  26  37  55  37  49  69  49  60  92  61  76  117 80  97  124 85  103 126 90  104 125 91  105 124 90  104 126 90  104 127 91  105 123 89  105 120 87  104 121 88  107 117 83  100 124 85  103 117 86  94  94  79  74  62  29  24  92  10  16  186 59  66  211 52  48  217 45  41  208 49  53  174 49  55  84  15  18  56  21  25  51  28  38  46  26  38  49  26  42  49  29  41  47  32  39  50  34  37  54  34  35  63  33  35  78  28  37  88  26  37  88  22  34  115 37  50  157 60  69  170 55  60  190 57  60  206 64  62  198 57  50  189 54  48  186 61  55  174 61  57  163 60  61  152 61  66  146 65  74  137 65  76  128 64  78  115 65  77  106 73  84  99  73  84  94  64  74  71  44  53  69  46  52  78  55  63  94  60  74  108 69  74  120 83  65  168 130 94  212 169 126 129 91  54  51  25  8   52  33  26  51  32  28  63  42  39  69  44  39  73  42  37  86  45  41  101 50  47  131 67  67  186 114 117 186 111 116 186 113 120 168 106 111 101 44  50  80  29  34  86  33  39  130 69  77  170 98  110 197 110 127 194 109 116 201 129 115 211 143 120 226 151 132 225 148 132 219 141 128 213 139 128 211 143 134 210 145 139 205 140 138 208 137 141 209 132 142 211 128 144 213 130 150 210 131 152 208 135 155 212 140 162 209 137 161 213 141 161 207 140 147 164 111 105 132 100 79  127 108 78  118 105 70  116 111 71  110 113 70  109 114 74  110 110 82  100 103 86  84  97  90  77  93  93  81  95  98  87  98  102 68  76  79  58  63  66  49  53  54  49  51  50  52  52  50  52  51  49  49  48  44  47  46  42  36  36  34  40  42  39  48  50  49  51  53  52  49  51  50  48  50  49  43  45  42  34  36  33  27  29  28  16  16  16  45  41  40  47  37  35  87  69  65  120 91  87  185 143 144 197 147 148 205 144 149 202 140 143 212 154 153 184 135 130 128 92  80  112 86  69  98  84  58  90  84  48  93  87  39  95  90  34  93  88  32  91  86  30  93  88  30  93  88  30  92  87  29  94  89  31  110 105 47  112 107 49  115 110 54  116 111 56  
86  89  78  105 101 90  130 110 103 162 127 121 200 151 147 214 156 155 214 152 155 223 158 164 213 147 157 219 155 169 217 154 171 212 154 176 172 122 149 130 89  119 122 91  123 115 90  122 106 81  111 95  70  102 105 79  116 109 83  122 79  48  89  114 82  121 93  56  89  149 107 131 185 139 152 191 140 145 194 138 137 196 137 131 200 135 131 208 140 137 209 137 138 206 140 142 206 149 155 165 114 121 119 68  73  131 79  83  140 85  90  169 112 118 203 144 148 188 127 132 192 127 131 207 141 145 195 124 132 194 118 128 204 127 137 199 119 132 177 95  109 199 115 130 206 118 132 207 119 131 205 117 129 187 101 110 168 87  94  205 125 134 196 120 130 200 128 140 204 136 151 211 144 161 216 153 170 218 157 173 217 159 173 219 161 173 222 165 172 224 167 174 225 168 177 226 169 176 225 170 176 226 171 174 226 170 171 225 170 167 227 170 163 227 171 158 217 158 142 234 173 154 232 170 147 226 162 135 231 167 139 230 167 134 225 160 128 229 164 134 170 100 75  194 122 100 203 129 104 233 164 133 201 138 105 89  36  5   75  29  13  75  35  27  74  35  28  70  27  21  96  43  37  177 114 109 178 104 103 188 110 100 217 141 109 233 160 115 212 145 93  115 48  6   159 86  69  185 107 107 180 97  107 195 115 126 168 103 109 129 77  81  118 75  84  122 86  98  115 83  96  121 93  107 118 92  103 112 84  96  126 92  108 83  49  65  49  25  38  43  26  36  46  28  42  53  26  41  62  16  27  87  18  23  139 39  37  182 65  58  189 66  61  170 56  56  122 35  44  88  25  42  72  35  53  61  36  55  70  43  58  99  72  87  95  68  83  98  67  82  101 65  75  123 58  66  176 56  65  183 64  70  101 34  43  57  25  30  43  27  28  45  33  37  52  31  40  55  31  44  57  39  51  60  40  52  67  39  54  77  45  60  106 72  89  117 83  99  128 96  111 129 97  110 124 90  104 121 87  103 119 88  104 114 86  101 107 80  97  104 76  91  108 76  91  97  70  79  84  69  66  59  25  24  98  12  23  180 54  65  208 49  43  223 51  41  217 49  49  193 54  57  106 20  21  69  19  22  60  30  40  49  27  40  54  25  45  53  26  43  50  30  41  50  35  42  53  38  41  60  39  44  69  36  45  75  34  48  73  34  53  88  41  59  116 52  68  111 30  39  129 26  30  160 42  42  189 59  57  196 63  58  192 60  55  189 61  58  182 64  62  173 63  64  162 63  66  153 62  67  148 63  70  138 67  75  114 64  75  106 68  81  102 68  82  72  46  57  57  45  47  56  41  46  67  35  50  66  30  44  57  33  33  68  46  33  108 80  58  54  28  5   39  23  8   42  32  23  50  35  32  57  37  36  65  40  36  69  38  35  84  44  42  96  48  48  109 50  52  165 100 104 179 108 116 181 108 117 182 112 122 135 72  80  82  29  35  78  29  33  71  20  25  105 48  55  164 91  102 188 111 117 186 116 106 196 127 111 213 140 125 222 148 135 224 150 139 218 148 138 208 144 135 200 140 132 200 139 136 209 145 146 215 143 154 217 140 156 220 141 160 218 141 161 211 139 161 208 139 160 211 143 166 217 153 170 215 152 160 196 141 138 138 96  80  134 104 76  125 107 69  119 110 67  111 110 66  110 112 72  111 112 81  106 109 88  91  101 90  79  94  89  75  94  92  79  97  97  84  95  97  70  78  81  54  59  62  46  50  51  51  53  52  54  54  52  49  49  47  43  42  38  26  26  24  41  41  39  54  56  55  51  53  52  41  43  42  42  44  43  48  50  49  48  50  49  44  45  47  53  55  54  43  42  40  49  44  40  73  58  53  107 83  79  187 153 152 201 157 158 208 156 160 217 162 165 210 159 158 220 175 170 165 131 121 106 83  65  85  73  49  74  68  34  82  75  31  90  84  34  93  87  35  90  84  32  90  85  30  89  84  28  91  86  30  97  92  36  102 97  41  100 95  39  99  94  39  98  92  40  
114 116 103 121 119 107 129 114 107 133 108 103 153 114 109 186 138 134 211 155 154 215 156 158 216 159 166 222 168 181 208 159 180 181 138 166 105 70  103 83  55  95  101 80  121 142 118 154 179 141 164 190 149 167 196 158 181 179 146 173 144 115 146 128 101 132 108 82  111 114 86  109 133 100 117 171 135 145 187 146 152 196 150 152 209 160 163 206 154 158 206 153 159 216 163 169 210 160 163 213 163 166 170 121 124 152 104 104 142 94  94  159 111 111 196 148 148 194 144 145 195 143 145 203 147 150 201 139 144 200 133 140 200 129 137 210 134 144 201 121 132 202 120 132 207 124 140 209 126 142 204 122 136 203 123 136 176 100 110 210 137 146 201 131 141 206 140 150 203 141 154 207 149 163 212 158 171 215 165 176 218 171 179 222 177 182 223 181 183 224 182 183 228 186 187 228 187 185 231 187 186 230 186 183 230 185 180 229 185 176 230 184 171 231 184 166 235 187 164 231 181 154 231 180 151 228 175 144 225 172 140 231 178 147 209 154 124 164 106 84  168 104 94  182 113 108 206 136 128 191 123 112 118 56  41  94  41  27  79  35  26  69  28  22  75  36  29  74  31  24  97  44  38  177 116 113 178 107 111 180 106 105 193 120 105 203 132 110 125 60  40  107 41  29  180 104 108 189 112 122 181 111 121 178 117 124 165 110 115 124 75  81  128 87  101 122 89  106 111 87  103 120 97  113 115 89  100 109 82  91  57  27  37  60  30  42  50  23  38  50  28  40  48  27  32  56  15  19  96  14  20  154 39  46  193 58  64  189 61  62  153 55  52  111 40  36  81  29  33  73  33  44  69  34  54  67  35  58  78  53  74  94  71  89  86  61  80  94  67  82  102 71  79  118 57  64  174 54  63  183 62  69  101 31  41  58  26  31  47  31  32  44  32  34  51  28  38  59  33  46  62  42  54  62  41  56  63  36  53  64  36  51  65  38  55  77  50  65  96  69  84  103 77  90  100 72  86  100 72  86  100 73  88  94  70  84  95  71  87  95  68  83  102 70  85  95  65  75  82  63  65  61  27  28  99  16  32  169 45  56  209 47  42  227 49  39  221 46  43  203 53  52  141 39  37  81  20  19  59  27  30  52  31  40  59  28  46  55  26  46  50  29  46  47  33  46  51  38  48  58  41  51  67  39  53  70  37  54  70  35  57  84  46  67  104 61  80  90  42  54  87  30  39  104 37  44  134 55  61  143 54  60  162 58  67  173 59  69  183 61  72  187 63  73  182 63  67  174 62  61  165 62  57  153 64  60  141 72  77  125 71  84  118 71  91  80  49  67  52  45  52  45  40  46  61  37  53  66  37  55  62  44  56  52  37  42  61  42  38  53  36  28  33  29  18  42  38  29  49  28  23  58  28  28  66  34  37  73  36  43  86  39  47  94  41  51  100 43  52  140 79  87  178 112 122 181 111 121 177 105 116 182 117 123 104 53  52  77  36  30  70  36  27  69  31  22  91  41  34  172 111 106 183 113 111 191 115 115 201 121 122 214 134 135 226 150 150 223 152 150 203 138 136 186 125 124 145 85  85  175 113 118 202 134 145 212 141 157 217 144 164 220 148 170 221 151 177 220 155 179 219 157 178 221 163 178 222 166 175 225 171 171 164 110 100 137 95  71  136 112 74  121 108 64  120 108 66  115 110 70  112 113 79  110 114 87  103 106 87  89  97  86  73  94  87  72  94  91  88  102 105 83  92  97  66  76  78  50  58  60  48  52  53  53  55  54  52  52  50  46  46  44  42  43  38  49  50  45  48  48  46  35  35  33  30  32  31  43  45  44  48  52  51  40  44  45  39  43  44  47  49  48  44  44  42  54  50  47  52  43  38  86  68  64  183 157 156 200 166 165 206 164 166 212 168 169 209 165 166 207 168 163 187 157 147 87  66  49  65  53  31  65  58  29  71  66  26  77  73  28  84  80  33  88  84  36  89  86  35  88  85  32  89  86  31  93  90  35  93  90  35  85  82  29  76  73  22  73  70  19  
76  84  69  89  93  79  87  84  75  103 92  86  142 119 113 152 119 114 161 120 114 196 151 148 222 176 178 207 165 175 206 168 189 96  66  94  60  36  72  110 89  130 158 140 182 195 169 204 211 168 185 217 171 181 210 172 185 208 177 193 204 181 201 214 196 218 163 148 171 130 112 134 119 98  117 99  72  89  165 133 148 203 170 181 205 169 179 207 170 178 210 172 183 212 172 180 221 179 183 223 178 181 225 183 185 189 149 150 165 126 127 166 127 128 163 124 125 201 162 163 205 163 165 201 156 159 210 159 164 207 150 156 205 144 151 205 140 148 217 147 157 209 137 149 209 136 153 207 136 152 207 136 150 205 137 150 193 127 137 209 146 155 210 150 160 212 155 164 208 157 166 210 163 173 214 171 180 219 179 187 222 187 191 227 195 198 229 199 199 228 200 197 228 199 195 229 200 196 230 199 196 231 197 195 231 196 192 229 195 186 230 194 182 230 195 176 231 195 171 230 193 166 223 184 155 225 186 157 232 190 165 208 166 142 165 122 103 143 96  86  179 127 129 199 142 149 193 132 137 191 131 133 151 95  94  97  48  44  107 67  67  151 116 114 101 68  63  85  48  40  89  42  36  170 116 114 186 125 130 181 116 120 175 112 105 177 117 109 178 120 118 178 119 123 186 120 130 184 121 132 176 123 129 164 119 124 139 96  103 130 90  99  125 88  106 124 95  115 116 95  114 109 91  105 71  50  59  57  32  38  51  26  30  47  20  27  53  23  35  60  22  33  63  17  17  95  24  22  163 48  51  200 63  71  190 54  64  163 47  56  107 35  39  75  31  32  68  37  42  64  41  47  61  35  48  67  40  57  89  64  85  84  60  82  79  54  75  91  67  81  101 74  83  115 58  64  172 55  63  182 61  68  95  25  33  61  29  34  49  33  34  43  31  33  54  28  39  62  34  49  60  39  54  59  41  55  63  39  55  66  39  56  60  36  52  64  41  57  80  57  73  93  71  84  95  71  84  100 74  87  102 76  89  97  69  84  100 72  87  98  65  82  105 66  84  103 70  81  81  61  63  60  28  33  93  22  36  153 41  53  210 52  51  225 46  39  221 42  37  211 52  48  176 55  47  104 21  17  62  16  16  53  23  31  58  27  43  54  27  46  47  30  46  48  34  47  54  38  51  60  39  54  63  39  55  65  38  57  65  36  58  80  51  71  92  65  82  76  49  64  66  35  50  80  44  58  107 63  76  120 63  78  128 57  73  137 54  70  150 54  68  160 56  67  170 59  65  176 62  62  177 64  58  172 65  59  158 64  65  142 62  71  134 67  85  101 56  76  60  47  56  45  40  46  56  36  48  62  39  55  50  36  51  47  35  47  57  40  48  59  44  47  36  31  28  33  25  22  50  31  27  56  30  29  55  29  32  68  37  42  75  35  43  84  38  48  92  45  53  114 65  71  171 118 126 182 125 132 184 121 129 178 117 122 173 124 120 146 108 99  92  62  51  68  39  25  76  38  25  122 73  66  189 127 130 192 121 129 193 120 127 201 128 135 193 122 126 154 88  89  120 60  60  117 61  60  161 105 104 185 129 132 205 146 152 211 149 160 216 154 169 221 160 178 223 164 184 222 167 186 226 175 194 220 173 189 226 183 193 235 189 192 201 146 141 141 93  73  141 111 75  121 102 59  131 109 70  122 108 71  114 112 74  113 114 82  113 109 84  101 102 84  83  99  88  76  97  92  81  95  96  86  97  101 80  90  92  61  71  73  49  54  57  47  51  52  51  53  52  53  53  51  53  54  49  53  54  49  41  41  39  22  22  20  21  23  22  40  42  41  44  48  49  29  33  34  13  17  18  25  29  30  30  32  31  49  48  46  52  47  43  37  26  22  145 127 125 210 184 183 213 181 182 213 177 177 219 183 183 215 182 177 210 183 174 122 103 88  64  52  30  62  55  27  67  61  27  61  57  19  69  64  24  81  78  35  87  83  36  88  86  37  88  84  36  83  81  30  85  82  31  71  69  20  59  55  8   54  52  4   
72  91  72  68  86  70  77  93  82  102 112 103 131 131 123 150 140 131 159 137 126 159 130 122 161 132 128 190 161 165 187 163 177 86  64  87  73  52  83  102 80  116 209 183 220 210 177 206 216 175 189 226 186 194 212 183 188 199 178 185 204 193 201 195 189 199 215 208 224 197 188 207 131 117 140 100 80  105 93  67  92  130 102 125 210 185 206 219 195 211 215 193 206 223 200 210 227 196 204 230 198 203 225 194 199 221 192 196 201 174 179 169 142 147 166 139 144 185 158 163 203 172 178 206 173 180 206 169 176 207 164 173 214 167 177 205 154 163 216 160 171 210 154 167 207 153 167 203 151 164 207 155 167 204 154 165 204 154 163 204 157 165 212 165 173 210 167 176 217 176 184 218 181 189 219 186 193 221 192 197 222 197 201 224 204 206 226 207 209 224 208 208 233 215 213 234 216 214 235 215 216 235 213 215 236 212 212 236 210 209 235 210 205 235 211 199 231 208 192 227 202 182 233 208 188 227 200 181 186 156 145 144 114 106 136 105 102 147 112 116 178 142 152 182 141 155 189 145 158 187 141 152 197 154 161 183 147 151 183 154 158 172 148 148 160 139 136 127 102 98  99  65  63  157 117 117 183 136 142 183 134 138 179 131 129 185 140 137 183 137 139 175 128 134 185 140 145 184 143 149 175 140 144 132 101 106 116 89  98  114 88  101 122 94  116 108 80  103 94  71  91  53  32  47  44  29  34  45  29  30  45  25  26  52  26  27  60  23  30  69  8   15  127 31  32  182 60  57  198 55  57  190 55  61  158 52  66  106 29  47  76  29  47  61  33  47  65  44  51  59  45  45  52  44  42  61  50  56  89  66  84  74  46  69  77  52  73  92  68  84  97  74  84  111 58  64  176 59  67  181 60  67  89  19  27  63  31  36  48  32  33  43  31  33  57  31  42  65  37  52  61  40  55  58  40  56  62  39  57  64  39  58  67  40  59  64  40  56  79  56  72  93  73  85  93  71  83  95  71  84  104 73  88  101 67  83  111 72  90  109 66  83  114 65  84  112 71  85  73  53  55  57  32  35  83  33  44  132 40  51  205 55  64  223 47  49  220 46  39  215 51  41  201 59  47  149 38  29  94  24  24  63  20  27  58  26  41  51  28  44  45  33  43  50  37  46  61  37  50  66  39  54  64  40  62  63  41  62  64  39  58  84  62  75  88  70  84  74  56  70  61  40  57  75  50  71  94  65  87  98  65  86  98  65  84  100 63  80  103 61  71  112 59  65  131 59  63  152 60  65  177 60  68  189 63  67  188 60  61  174 58  61  158 65  76  126 60  74  75  44  52  57  40  48  57  37  48  63  43  54  60  47  56  53  40  49  61  41  52  56  32  45  58  36  48  44  25  31  47  33  33  40  29  25  47  40  32  63  54  47  72  51  48  89  61  60  99  71  70  109 79  79  158 128 128 181 145 145 190 146 147 190 142 142 186 138 138 178 134 131 178 143 137 151 118 111 100 67  60  95  57  54  163 114 120 183 127 136 194 137 144 200 143 149 191 135 136 151 97  95  126 75  71  139 92  84  185 138 130 189 144 138 193 148 143 198 152 152 207 162 165 214 172 176 218 177 183 221 184 192 223 191 206 220 192 207 224 200 214 234 203 211 235 187 185 163 114 99  139 104 72  131 101 63  139 106 73  131 107 73  119 111 74  117 113 76  123 109 80  114 106 83  96  103 87  86  99  90  81  93  93  83  97  100 85  96  98  76  86  88  60  68  70  49  55  55  47  51  50  52  54  51  50  51  46  51  52  47  44  45  40  31  31  29  29  31  30  42  44  43  40  44  45  23  28  31  22  26  29  17  21  22  33  37  36  42  44  41  29  28  24  33  28  24  58  47  45  192 177 174 209 188 187 211 185 186 217 189 188 223 198 193 217 194 186 181 163 149 120 107 88  94  87  61  75  70  41  55  52  21  58  53  21  72  70  32  74  71  30  76  75  31  81  78  33  75  74  28  85  82  37  71  70  24  60  57  14  55  53  12  
62  95  84  72  103 97  96  126 124 122 148 149 132 152 153 136 148 148 143 148 144 150 149 145 151 147 146 156 149 156 128 121 137 103 93  118 100 86  119 121 104 138 206 185 218 208 184 210 213 190 206 205 188 196 204 194 202 205 206 210 190 200 202 189 202 208 181 191 201 196 203 219 207 205 227 134 125 154 110 95  126 65  50  81  129 116 142 197 187 211 202 198 215 198 194 209 205 197 210 207 199 210 211 203 214 205 199 209 195 192 201 182 179 188 169 166 177 164 161 170 179 173 183 194 184 195 189 177 189 203 187 198 195 175 187 194 170 183 201 175 188 190 166 180 191 170 185 188 170 184 191 170 185 194 174 186 194 174 186 191 171 182 195 175 186 195 178 188 194 178 189 196 183 193 196 186 197 193 187 197 192 189 200 192 192 202 192 194 206 192 196 205 191 196 200 192 196 199 195 195 203 196 195 203 195 192 201 194 191 198 194 192 195 194 193 191 193 194 188 193 194 186 183 183 175 162 161 156 145 141 140 139 133 137 146 138 149 160 152 167 167 158 175 171 159 179 172 157 176 180 163 179 173 157 170 174 162 172 169 166 173 174 175 180 177 178 182 168 168 170 137 128 133 162 147 154 176 157 163 179 160 164 175 156 158 172 156 157 178 159 165 190 167 177 190 163 170 185 156 161 122 93  98  117 90  97  118 98  107 113 93  105 103 78  97  76  48  70  46  21  40  52  30  43  40  25  30  43  27  28  56  27  31  64  19  24  79  14  20  132 42  44  184 58  59  200 58  56  188 52  52  156 41  46  106 29  45  74  25  47  69  36  63  59  37  60  59  43  53  55  45  46  55  50  46  62  53  54  82  61  76  63  35  57  80  55  76  93  69  85  96  73  83  110 57  63  178 63  70  181 62  68  83  16  23  63  31  36  51  35  36  45  30  33  58  30  42  68  37  53  62  41  56  61  43  59  66  43  61  68  41  60  69  40  60  69  40  60  87  60  77  101 77  91  96  72  85  97  69  81  110 72  85  114 70  85  115 67  83  120 67  83  124 70  86  118 72  83  69  47  50  59  39  41  77  42  48  111 35  45  194 54  65  218 51  58  210 55  50  205 54  43  210 59  52  196 61  58  149 44  48  99  24  31  73  23  32  59  29  37  48  36  40  50  38  42  64  36  48  68  37  55  61  42  62  58  43  62  60  44  55  87  70  78  88  71  81  75  57  71  63  42  59  81  58  78  93  69  91  87  68  88  85  71  88  88  74  87  92  75  85  98  68  76  110 59  66  128 55  66  154 56  71  176 58  70  188 58  58  188 56  54  181 62  68  156 60  71  103 40  48  81  40  46  66  35  41  62  39  47  57  40  48  59  42  52  56  36  47  59  37  50  60  36  50  61  41  53  54  43  51  62  62  64  60  69  66  77  88  84  89  91  90  109 107 110 118 116 119 121 119 122 155 153 156 182 178 179 185 173 175 194 174 176 186 161 165 192 165 170 181 159 162 177 161 162 169 159 160 149 139 140 127 106 113 173 148 154 186 157 162 177 147 149 186 156 154 186 155 152 173 143 135 173 143 133 188 160 149 188 161 152 189 164 157 194 171 165 196 177 173 192 176 176 198 184 184 208 195 202 215 204 218 220 213 229 216 214 228 230 220 229 246 218 217 182 144 131 138 98  72  146 107 74  139 102 73  134 105 73  125 109 73  124 112 74  127 111 77  122 108 81  108 103 84  94  97  88  89  98  95  85  96  98  86  97  99  88  98  99  75  85  86  56  65  64  47  53  53  48  53  49  50  52  49  52  53  48  52  53  48  48  49  44  50  52  49  53  57  58  42  46  49  18  23  26  20  24  27  20  24  25  41  45  44  44  48  47  36  38  35  20  21  16  20  16  13  92  82  80  211 197 196 217 199 199 222 202 201 223 204 198 223 205 195 221 205 190 217 204 185 174 166 143 87  81  57  58  54  29  56  52  25  66  63  32  59  56  21  61  59  21  73  71  32  71  69  28  84  82  43  71  72  32  61  61  23  59  59  21  
77  125 135 86  132 145 94  135 157 100 136 162 104 138 163 104 136 157 103 136 151 107 141 151 110 140 151 112 135 153 80  94  121 79  85  119 78  76  115 82  76  114 97  90  123 123 121 145 119 130 148 118 137 151 105 132 143 106 139 146 111 148 154 107 144 150 102 136 146 114 142 156 135 151 174 202 212 239 131 134 165 97  98  129 91  96  126 112 121 150 122 136 162 116 137 158 114 141 160 102 134 149 110 142 157 109 141 156 112 145 160 116 149 164 116 147 165 122 154 169 125 154 170 134 162 176 133 159 174 139 162 178 140 161 178 138 157 172 139 158 173 127 148 165 123 148 168 120 147 168 119 144 166 118 143 163 118 140 161 115 138 156 117 138 157 119 140 159 121 142 161 120 143 161 115 140 160 114 141 162 117 145 169 116 146 172 116 147 175 119 154 176 115 152 168 116 154 165 118 154 170 122 155 172 125 156 174 125 156 174 123 155 170 121 155 165 114 151 159 112 149 155 114 151 157 113 150 158 112 146 158 112 143 161 118 145 166 117 145 167 114 146 169 112 144 165 114 141 162 115 140 160 116 142 159 116 144 158 110 144 156 105 143 154 103 141 154 104 140 154 108 137 153 114 140 153 114 136 147 110 133 141 114 139 144 108 135 142 112 139 150 122 134 150 133 116 134 126 93  110 111 75  89  98  65  74  79  58  65  68  51  57  57  31  42  54  26  40  51  25  38  49  25  38  44  27  35  50  22  34  70  17  35  95  14  31  157 48  54  180 52  53  196 58  58  193 65  64  140 37  38  99  24  29  82  31  46  71  38  59  62  36  63  57  39  63  56  44  58  52  41  47  61  46  49  72  56  59  65  48  58  57  39  53  81  58  76  91  67  83  95  67  79  117 62  68  177 64  70  174 59  64  84  19  25  60  28  33  49  30  32  52  36  39  59  31  43  64  36  51  64  43  58  61  43  59  65  42  60  68  39  59  75  40  62  73  33  57  105 67  88  104 70  87  102 70  83  110 72  85  119 71  85  121 67  81  127 71  84  124 66  78  128 68  80  126 76  85  64  38  41  59  41  41  74  47  52  95  33  38  179 48  56  204 55  59  166 47  43  163 45  41  202 59  65  209 55  67  197 50  60  175 52  57  104 23  20  77  29  25  52  33  29  48  36  38  68  37  52  70  39  57  57  43  58  53  45  56  60  51  56  84  72  74  95  72  80  80  50  62  71  39  54  86  55  70  97  75  88  88  72  83  84  72  82  88  75  84  93  71  83  99  67  80  106 62  77  112 58  74  121 60  78  137 59  72  165 61  58  189 64  58  196 53  57  196 61  68  145 38  44  107 26  32  84  29  34  70  33  40  65  37  49  58  38  49  61  45  55  50  37  46  59  43  53  51  37  50  79  67  89  134 135 156 123 144 161 117 146 162 115 144 162 111 142 160 122 153 171 118 149 167 105 138 153 115 149 161 118 148 159 117 141 153 123 139 152 128 140 154 127 139 155 120 138 152 118 148 159 116 146 156 120 140 147 128 143 146 127 138 140 143 152 151 156 161 157 146 147 141 147 144 137 174 169 163 220 217 210 168 167 162 143 145 140 145 154 151 134 148 148 128 146 148 133 152 158 132 152 159 130 148 160 136 154 168 132 154 167 137 154 161 149 154 150 155 141 128 139 98  80  143 97  73  139 104 76  130 103 73  135 111 75  128 109 69  120 105 66  124 111 77  121 106 85  111 101 91  94  96  91  85  95  94  84  94  93  86  96  97  85  95  96  75  84  83  58  64  64  43  48  44  49  51  48  52  53  48  54  53  48  52  53  48  52  54  51  49  53  54  45  49  52  37  42  45  31  35  38  39  43  44  45  51  49  41  47  45  28  33  29  22  27  23  24  24  22  26  22  19  110 102 100 160 150 148 171 157 154 171 156 151 171 157 146 170 157 141 167 154 137 151 140 120 86  79  60  54  49  29  53  48  26  51  47  22  54  53  23  53  52  21  55  55  21  55  55  19  60  60  26  64  65  31  51  52  20  51  52  20  
80  133 151 85  136 157 88  133 162 88  131 165 89  132 164 85  131 157 78  129 150 79  130 147 78  125 141 93  131 150 80  106 133 44  59  92  87  91  126 98  97  129 75  73  97  89  94  114 97  114 134 107 134 151 112 145 160 109 149 159 96  140 149 104 151 159 112 156 165 99  137 150 119 148 166 146 166 190 190 204 231 123 134 164 99  109 144 60  73  108 58  74  110 96  122 155 85  127 152 89  139 162 85  135 158 78  129 150 90  141 162 85  136 157 89  140 161 86  137 156 91  139 159 97  146 163 93  142 159 94  141 159 92  137 156 88  133 152 94  140 156 90  137 155 87  138 157 82  135 153 82  133 152 85  136 155 87  136 153 83  130 148 85  131 147 90  136 152 83  129 145 85  131 147 85  132 150 87  133 156 88  135 161 85  132 160 79  128 160 80  131 160 79  134 155 80  135 155 83  135 157 87  137 160 91  138 164 90  140 165 89  141 163 85  140 160 94  151 170 98  155 172 98  155 172 96  152 169 95  148 166 95  143 165 94  138 163 91  136 159 86  135 152 85  134 149 87  130 146 88  127 142 89  128 143 88  130 144 85  133 143 81  134 142 83  135 148 86  135 150 87  130 147 89  131 145 92  130 139 93  132 137 96  137 143 90  130 138 87  127 139 82  103 120 69  57  77  55  26  46  66  29  47  71  39  52  57  40  48  51  38  45  46  29  35  43  22  29  48  21  30  57  21  33  59  15  28  73  15  30  115 36  55  169 62  78  189 50  57  204 55  57  188 55  56  144 38  40  94  26  27  75  30  35  67  35  48  60  35  56  63  37  62  60  38  59  57  43  58  54  41  51  63  43  52  72  51  58  63  46  54  58  41  51  82  59  75  94  67  84  99  67  78  121 61  69  174 63  69  167 56  62  81  20  27  60  29  35  53  33  35  55  36  40  62  34  46  67  39  54  64  43  58  62  44  60  66  43  61  68  39  57  74  39  61  78  39  60  110 68  88  110 69  87  109 68  82  118 72  83  127 69  81  130 67  78  133 70  79  145 80  88  140 73  82  126 66  74  81  42  45  76  46  48  72  37  43  92  30  35  166 50  53  181 57  57  129 41  40  110 24  27  150 32  48  188 47  64  208 56  68  200 57  61  169 58  51  113 35  25  71  26  21  64  34  36  71  35  49  71  38  55  67  45  58  60  47  54  61  51  52  92  78  78  99  74  80  92  59  70  78  42  56  90  56  70  97  71  84  87  70  80  87  74  83  87  74  83  94  72  84  97  69  83  105 68  85  111 70  88  108 66  86  111 57  70  140 62  60  159 56  51  185 52  57  200 59  68  181 56  62  151 46  50  110 28  32  94  33  38  75  33  45  68  42  55  47  36  44  58  52  56  54  43  47  54  41  50  52  40  62  59  59  85  99  121 145 95  131 153 90  132 154 92  139 159 83  130 150 84  131 149 99  145 160 79  126 136 86  131 137 96  137 141 99  132 137 118 145 152 134 156 167 146 172 185 103 141 152 95  134 141 172 204 203 206 235 230 125 150 144 200 221 212 229 245 235 115 127 117 160 166 156 233 239 229 237 242 236 232 243 237 153 172 168 117 143 140 115 149 150 109 149 151 116 157 163 110 151 157 110 147 155 115 152 160 111 151 159 111 149 152 121 151 143 136 140 126 142 106 92  146 97  80  139 105 78  134 105 75  135 105 71  134 109 69  122 109 65  125 113 75  125 105 81  119 101 87  96  93  84  92  99  92  89  98  93  86  95  92  86  96  95  85  95  94  72  81  80  56  62  60  51  53  50  53  54  49  54  53  48  54  53  49  53  53  51  52  54  53  49  53  56  46  51  54  50  54  55  45  49  48  44  50  48  45  51  47  34  40  36  17  23  19  13  18  14  25  25  23  34  33  29  160 155 152 193 183 181 198 187 181 191 179 167 211 198 182 202 189 172 192 181 163 96  87  70  60  54  38  59  52  34  49  44  24  43  39  14  47  46  18  48  47  17  52  51  21  47  48  17  53  54  23  39  42  15  36  39  12  
85  131 146 86  132 148 86  128 150 83  128 151 87  132 155 87  134 154 83  135 149 85  137 148 92  140 150 103 143 155 91  120 136 40  57  75  61  66  86  92  88  105 89  78  94  175 167 182 95  92  109 95  100 119 116 129 148 121 144 160 113 147 159 114 154 164 100 143 152 114 154 162 112 146 155 119 147 159 165 182 200 203 213 240 108 112 149 84  85  129 51  49  99  74  84  133 91  129 165 75  126 155 82  133 162 80  131 158 75  127 151 89  141 165 92  144 166 93  145 167 86  141 162 87  142 162 84  139 159 90  143 161 91  143 164 87  138 159 86  137 158 81  134 152 79  137 148 77  137 145 79  139 147 83  142 150 86  143 150 87  144 151 92  147 152 95  148 152 97  150 154 100 153 157 100 153 159 101 153 164 102 154 168 94  145 164 84  136 158 81  135 161 78  134 159 78  136 160 80  136 163 83  137 165 87  138 167 86  140 168 85  141 168 83  140 167 80  140 166 86  148 171 84  145 166 80  138 158 85  138 156 86  135 152 85  128 145 86  128 142 88  132 135 92  134 133 98  132 133 99  130 132 102 131 137 105 136 139 105 144 143 104 146 144 105 146 150 108 148 156 111 145 157 118 148 158 117 147 147 113 143 141 113 147 148 114 143 147 106 126 133 50  59  68  47  35  47  69  46  62  63  36  53  56  33  51  57  45  59  45  39  49  36  37  41  43  34  37  54  23  31  72  14  28  114 23  41  153 47  61  169 63  65  180 58  57  203 49  51  204 54  56  151 43  43  88  16  17  58  19  20  57  36  41  59  37  49  62  38  54  67  38  56  65  36  54  63  40  56  58  40  52  62  42  54  67  45  57  65  39  52  65  39  52  84  60  76  96  68  83  105 64  78  128 62  72  173 64  69  156 51  55  78  21  27  60  31  36  53  30  36  54  31  39  64  36  50  67  40  55  63  42  57  64  43  58  67  43  59  67  40  55  68  39  57  82  49  66  111 72  90  112 70  84  114 71  81  125 72  82  134 68  78  141 70  78  139 68  72  146 74  77  151 75  79  134 62  66  91  30  35  87  30  37  91  31  43  123 50  59  167 69  66  149 54  50  98  33  37  86  28  40  106 31  51  134 40  58  174 53  62  201 67  68  202 65  59  181 58  51  129 39  38  89  27  30  79  36  46  75  39  53  73  35  50  76  43  52  69  49  51  95  76  78  94  68  77  91  61  73  72  39  56  93  60  79  98  69  89  98  73  92  91  73  87  91  75  88  90  74  85  89  71  83  96  69  84  95  62  79  99  57  79  113 66  82  107 56  61  130 64  68  140 46  60  171 60  76  179 65  73  177 60  66  181 65  68  127 28  33  93  31  42  64  32  45  53  43  51  54  52  53  54  41  35  64  46  44  55  39  50  48  41  59  65  76  94  103 131 145 95  137 149 80  129 136 93  140 146 90  134 137 132 168 168 183 215 210 136 169 158 103 134 118 98  122 106 194 212 198 241 253 243 233 244 238 122 137 134 123 140 132 227 241 226 226 239 221 122 135 115 239 248 229 217 222 202 111 112 94  241 238 223 220 216 204 176 176 166 240 247 239 138 157 151 120 151 146 111 151 150 101 149 151 103 152 157 103 152 157 104 152 154 106 156 157 97  153 152 95  150 144 109 155 142 125 146 129 146 123 109 141 98  81  141 105 81  141 108 77  134 101 66  135 110 69  123 110 65  125 113 73  129 105 77  125 104 85  105 98  82  98  100 87  95  98  89  89  96  89  90  99  96  91  101 100 83  93  92  74  83  80  53  58  54  54  55  50  53  52  47  53  52  48  52  52  50  50  52  51  49  53  56  49  54  57  50  54  53  45  50  46  43  48  44  47  52  48  46  52  48  26  33  26  15  20  16  22  24  21  20  20  18  54  53  49  194 189 185 206 197 190 208 198 186 202 189 173 215 200 181 203 190 171 173 161 145 112 105 89  78  69  52  61  54  35  54  48  26  58  54  29  41  37  12  30  28  3   34  34  8   40  40  14  36  38  16  38  40  18  
91  136 142 89  136 142 84  133 140 81  131 140 83  136 144 86  139 147 88  143 148 94  147 151 99  148 152 108 152 155 112 145 152 45  68  76  58  68  77  54  52  63  71  59  69  158 144 157 159 146 164 108 103 123 98  103 123 121 136 155 115 144 158 109 149 159 105 152 158 105 155 156 108 154 152 110 150 150 120 149 155 175 194 209 194 201 229 99  98  138 93  85  136 56  58  109 53  82  122 91  136 169 91  136 169 98  145 175 86  136 161 87  139 161 89  141 162 71  126 146 86  142 159 81  138 155 78  134 149 80  136 153 83  136 154 81  132 153 83  134 155 84  137 153 85  142 151 90  149 153 92  151 157 91  149 153 94  152 156 100 158 160 103 159 158 98  154 151 100 156 153 102 158 155 100 156 155 100 156 157 99  154 161 91  145 157 82  135 153 78  133 154 78  136 160 78  135 162 80  136 161 80  136 161 82  136 162 81  137 162 79  137 161 77  137 163 74  136 161 79  141 164 76  137 156 75  133 147 87  137 146 88  133 138 92  130 131 105 140 133 106 141 119 114 144 118 121 145 123 121 140 121 118 136 122 116 137 122 115 143 121 114 146 123 114 145 129 120 150 138 115 138 130 109 129 120 115 133 117 124 142 126 123 144 137 116 132 131 50  58  60  49  47  52  52  39  48  54  36  48  54  33  50  53  34  53  53  39  54  52  41  49  35  25  24  46  22  20  77  24  30  120 40  53  164 55  74  179 63  74  165 60  56  162 45  36  196 46  48  189 48  54  106 22  20  63  18  15  49  27  29  50  37  44  53  35  47  63  41  54  68  40  54  64  36  50  66  40  53  62  40  53  59  41  53  63  43  55  66  35  51  70  37  54  88  61  76  98  67  82  110 62  76  136 63  74  172 66  70  146 45  49  76  23  29  60  30  38  56  29  38  55  29  40  65  39  52  66  42  56  63  43  55  66  46  58  68  44  58  69  43  56  66  42  55  87  59  73  112 76  90  114 70  83  121 71  80  133 73  81  142 67  74  153 71  75  156 75  74  151 67  65  167 77  77  147 58  62  102 21  27  117 40  50  135 57  71  157 75  87  147 62  65  111 40  38  76  31  36  79  46  55  84  40  55  90  29  44  121 31  40  159 49  52  192 62  62  193 63  63  180 66  66  140 48  51  91  24  31  83  27  38  95  38  53  84  36  50  87  54  63  102 75  82  98  70  82  97  66  81  73  42  60  98  66  87  90  61  81  94  70  86  92  71  86  89  73  84  83  72  80  86  73  82  95  75  86  99  71  86  104 66  87  105 66  84  100 68  79  108 68  77  120 62  77  130 56  71  140 55  62  161 61  63  190 68  67  186 67  69  136 46  56  93  35  47  71  48  54  81  73  70  108 95  79  66  50  35  139 124 121 184 173 179 122 122 130 72  87  92  90  120 120 89  128 123 93  128 122 105 136 128 185 207 194 227 244 226 120 138 112 107 126 96  121 136 105 229 240 210 242 246 223 237 238 222 122 124 111 154 156 142 238 237 216 250 250 224 151 154 127 232 234 210 211 211 187 153 148 126 251 244 225 175 168 152 151 149 137 129 139 128 71  94  86  116 151 145 102 148 145 105 156 157 106 159 163 103 154 157 109 155 153 108 157 151 100 157 148 98  156 142 113 161 145 127 150 132 149 131 117 131 92  75  142 100 76  149 108 78  137 102 64  138 111 68  122 108 63  125 112 70  131 108 76  132 108 82  119 107 85  105 100 81  95  96  82  96  99  90  92  101 96  86  96  95  84  94  93  87  96  95  65  69  68  60  62  59  54  55  50  53  52  47  52  53  48  51  51  49  46  50  51  45  49  50  29  34  30  32  37  31  29  34  30  29  34  28  45  50  44  39  44  38  26  31  27  20  25  21  16  18  15  37  36  32  100 97  92  199 192 182 205 195 183 204 191 175 211 194 176 211 194 174 204 191 174 191 179 163 138 127 109 96  85  67  75  67  46  71  63  42  52  46  24  46  41  19  41  39  16  36  35  14  29  28  8   30  29  9   
77  128 123 79  132 124 72  132 122 69  132 121 74  137 126 81  144 133 93  150 143 106 159 153 111 160 157 102 147 144 106 147 143 98  130 129 37  56  60  55  62  70  68  62  74  59  46  63  83  72  89  100 95  115 78  83  102 94  111 127 118 150 161 102 149 155 101 160 158 92  155 147 95  159 145 101 159 145 109 156 146 119 155 153 193 213 224 174 182 205 65  61  96  75  77  116 37  56  96  43  73  111 93  128 160 87  126 155 91  133 157 78  125 143 84  136 150 85  139 151 75  132 141 78  135 144 87  141 151 93  145 156 97  145 159 98  144 160 104 147 166 112 155 172 102 148 161 104 151 161 106 152 165 104 152 162 105 154 161 106 157 161 104 155 156 98  153 150 101 156 150 102 157 151 100 157 151 100 156 153 101 156 159 94  149 156 85  138 152 81  137 154 78  135 155 77  135 155 78  135 154 79  135 152 80  133 149 78  134 149 76  133 150 73  134 152 72  133 151 76  138 153 78  135 146 85  136 139 97  140 131 94  131 113 97  125 100 114 139 100 117 138 82  123 139 77  127 136 83  120 126 78  106 111 71  94  101 60  87  101 50  87  106 51  84  104 53  110 127 82  112 123 83  105 113 74  118 124 80  128 132 95  102 107 87  60  61  53  47  44  39  52  43  44  49  38  44  54  38  49  63  44  63  60  39  56  51  31  40  61  31  31  71  21  14  107 36  30  148 56  61  166 66  76  155 61  75  138 53  60  133 54  50  149 56  51  183 52  58  172 53  59  72  11  8   55  27  23  52  30  33  52  32  41  52  32  44  58  38  50  63  41  53  61  37  50  67  39  51  65  39  50  56  43  52  59  43  54  67  34  53  75  37  58  90  64  77  100 67  78  115 58  73  145 65  76  174 69  73  136 42  43  75  26  30  58  31  38  61  31  41  61  31  43  66  42  55  67  45  58  67  47  59  71  49  61  69  43  54  71  45  56  70  49  58  94  68  77  112 76  86  117 71  81  125 72  78  140 74  78  152 65  71  165 69  71  170 72  69  171 69  65  179 69  70  149 40  43  128 27  33  160 67  77  161 70  85  139 55  71  111 37  52  91  35  44  70  42  41  72  54  50  69  45  45  81  44  51  90  34  47  104 32  44  126 39  48  161 58  62  184 65  67  184 64  66  165 60  64  130 40  49  100 26  43  96  37  57  106 59  77  105 66  84  106 69  87  100 66  83  74  43  61  99  72  89  92  70  83  98  78  89  92  77  82  85  73  75  94  82  84  91  76  79  84  64  73  94  70  83  100 72  87  95  67  82  85  65  77  91  71  82  109 81  96  98  65  76  135 95  96  182 123 117 152 56  44  176 59  52  185 64  71  126 26  38  151 101 104 255 244 236 251 237 211 95  86  57  245 234 214 254 245 230 132 122 113 50  46  37  53  59  47  65  78  61  107 120 102 117 126 105 214 218 193 248 249 218 105 107 70  106 108 69  139 144 104 238 242 205 227 230 201 247 246 225 131 129 116 164 158 144 250 242 221 246 239 213 199 195 168 243 241 216 182 182 156 168 166 143 241 236 216 168 165 148 168 170 157 173 187 174 127 157 147 114 155 147 105 154 150 105 160 157 93  147 149 108 156 156 110 145 138 114 150 136 114 159 139 121 166 145 144 179 159 171 185 168 206 193 177 203 168 149 146 91  70  154 97  68  146 102 65  142 111 67  128 105 63  129 110 68  133 109 73  131 108 76  128 111 83  113 102 80  103 98  79  97  99  86  92  99  92  84  95  91  83  95  93  89  99  98  83  89  87  71  76  72  60  61  56  54  53  48  54  53  49  53  53  51  49  50  52  46  48  47  26  28  23  26  29  22  20  22  17  17  20  13  43  46  39  46  51  44  41  46  40  33  38  32  41  43  38  43  44  38  44  41  34  145 138 128 202 190 178 212 196 180 207 189 169 215 197 175 214 197 177 204 187 167 197 180 160 196 181 160 163 151 129 179 166 147 159 148 128 53  45  26  37  30  11  36  31  12  38  33  14  34  31  12  
47  101 85  48  105 86  43  105 80  41  105 78  43  109 81  47  111 85  57  116 96  69  123 109 79  129 118 100 147 137 114 157 147 117 154 147 87  113 112 44  59  66  54  57  74  66  61  83  64  55  76  86  78  99  109 112 131 91  104 120 97  124 135 108 147 154 111 163 161 98  159 151 91  154 143 105 167 154 101 154 144 105 150 145 147 178 183 189 207 221 135 143 166 71  76  108 32  41  82  44  59  102 58  77  117 106 132 165 107 141 168 110 151 169 97  145 157 98  151 159 106 159 165 100 153 159 102 152 159 102 149 159 107 149 163 113 150 168 113 145 166 116 147 168 121 152 173 112 143 164 106 138 159 108 143 162 107 146 161 102 145 154 103 148 153 107 155 155 103 154 149 103 156 150 100 155 149 101 156 151 101 155 157 93  148 153 84  136 149 80  133 149 79  136 155 80  137 156 81  137 152 83  137 149 84  136 147 83  137 147 82  139 150 82  140 152 80  138 152 85  142 153 92  143 147 102 147 140 111 146 124 105 131 96  100 118 70  108 119 59  111 123 49  114 121 44  117 116 49  111 106 48  93  87  39  75  72  21  71  76  12  76  87  18  92  103 37  106 116 55  101 104 49  94  92  41  94  91  38  84  79  39  65  58  40  46  38  35  52  42  41  55  43  47  57  46  52  53  37  48  55  28  45  71  34  51  80  37  46  78  22  23  127 54  47  145 62  58  154 63  70  144 56  72  125 50  70  119 53  67  123 59  60  139 58  57  176 59  68  158 51  59  60  12  10  48  28  27  48  27  34  52  32  43  55  34  49  55  37  51  60  42  54  59  39  50  68  40  54  65  39  50  56  43  52  58  45  54  68  37  53  73  41  56  92  66  77  103 67  77  120 56  72  153 65  79  174 69  73  124 34  34  72  27  30  58  32  41  63  31  44  64  32  47  66  44  57  62  44  56  70  50  61  74  53  62  66  39  48  74  44  52  83  57  66  104 73  81  115 73  83  124 73  82  132 73  79  148 73  77  164 65  68  179 66  68  179 66  62  189 70  66  186 60  61  163 40  42  158 49  54  164 67  74  134 47  56  106 32  45  96  35  53  87  43  58  74  49  52  73  55  51  68  48  47  88  62  65  85  47  60  84  37  53  89  35  48  105 32  41  149 44  51  177 61  64  176 67  70  169 70  73  151 61  73  123 42  59  122 50  70  119 58  76  119 71  87  111 73  88  77  49  63  84  63  72  94  75  81  91  72  76  95  77  77  94  76  74  114 99  94  120 107 101 153 139 138 143 127 128 94  73  80  133 114 120 228 215 222 223 212 216 101 89  91  143 128 125 242 225 218 255 233 221 218 145 128 177 69  56  191 52  55  184 61  64  194 129 123 255 228 210 247 232 201 131 125 89  255 251 222 245 240 220 111 99  87  54  41  32  52  44  33  60  54  40  77  71  55  82  77  55  236 229 201 247 239 203 93  84  45  102 95  51  182 177 135 255 253 214 216 215 184 239 239 215 126 123 108 184 177 161 255 245 224 255 241 215 242 235 207 247 243 216 153 152 124 196 194 169 253 248 226 190 185 166 243 244 228 229 240 224 90  114 100 113 145 132 112 149 141 113 152 147 127 163 161 142 173 167 180 198 184 189 206 187 196 222 197 196 224 199 197 214 195 200 203 186 210 194 178 209 170 153 166 100 78  156 87  58  154 100 62  148 106 66  138 106 67  133 108 68  133 107 70  130 106 70  129 109 76  125 109 83  113 105 84  99  97  82  88  95  87  88  99  95  88  100 98  86  98  98  91  100 99  82  87  83  68  69  64  56  55  50  52  51  47  54  53  51  52  52  52  49  51  50  33  35  30  24  27  20  22  25  18  23  26  19  46  49  42  40  43  36  37  39  34  32  37  31  39  41  36  52  53  47  21  18  11  49  42  32  187 175 161 202 187 168 208 190 168 212 192 168 208 188 164 218 198 174 209 189 165 213 195 173 209 191 169 212 197 176 206 191 172 145 134 116 64  55  38  38  31  13  32  25  7   37  32  13  
17  76  48  25  81  52  29  85  48  34  90  51  44  99  59  49  105 68  55  111 82  62  118 93  59  112 92  60  108 92  63  107 92  107 144 136 119 149 149 95  117 128 59  75  98  54  61  89  74  68  94  73  63  88  102 97  119 78  79  97  111 120 135 118 138 149 105 135 143 107 147 149 111 156 159 94  144 145 111 159 161 102 147 150 116 155 162 150 183 192 192 218 231 109 125 150 81  82  128 78  75  128 87  91  138 36  50  89  96  121 152 108 143 165 106 148 164 108 156 166 102 151 158 101 150 157 111 155 166 111 149 162 106 137 157 93  117 141 64  84  111 50  65  96  43  56  90  53  67  102 76  92  126 101 122 153 117 143 168 118 149 169 113 149 161 110 151 157 109 153 154 106 155 151 104 155 150 103 155 151 104 155 158 95  148 156 88  137 152 84  135 154 79  131 153 80  132 154 83  134 151 83  135 148 86  136 145 88  138 145 88  140 151 90  142 155 98  150 163 101 151 160 108 152 153 117 153 139 126 151 121 126 139 93  117 123 61  109 111 38  104 108 31  102 104 29  105 99  37  106 94  44  92  78  39  77  68  27  83  82  25  99  106 39  114 121 54  115 121 59  107 106 52  104 98  50  92  84  38  63  52  24  52  37  40  60  46  63  51  34  50  57  41  54  53  40  49  58  37  46  76  32  47  90  23  40  121 35  48  159 69  78  135 59  59  100 40  40  82  36  49  98  54  79  113 61  97  113 54  84  120 56  70  148 65  73  176 61  74  136 34  45  67  18  22  48  28  30  46  29  39  49  33  46  53  35  49  57  39  53  59  43  54  59  41  53  66  42  58  63  39  53  59  43  54  60  47  56  63  42  47  66  43  49  91  70  75  107 70  78  129 56  73  160 66  80  170 67  70  112 26  25  69  28  32  58  35  43  64  30  44  67  35  50  67  45  58  60  44  55  74  57  67  80  57  67  68  38  46  80  47  54  102 64  75  119 73  84  124 68  81  136 73  84  142 71  77  159 72  78  177 64  68  190 64  67  197 65  63  201 66  62  200 62  60  191 61  61  172 64  64  139 51  50  106 38  39  94  41  47  90  43  61  85  43  63  79  43  55  81  48  57  77  46  52  94  63  69  79  48  56  78  46  57  79  47  58  90  47  57  103 31  45  111 28  38  131 52  55  157 71  70  175 71  72  178 69  74  171 65  79  157 66  81  124 61  69  107 66  70  81  59  61  102 86  86  198 178 179 213 189 189 243 215 212 139 114 107 228 210 196 255 248 232 243 236 220 251 243 230 174 162 150 159 146 137 250 241 232 199 192 176 118 106 82  248 232 207 216 198 178 231 198 181 255 225 205 169 77  62  198 59  54  185 56  50  228 166 143 255 241 210 255 244 210 195 189 157 237 241 218 243 247 233 72  71  66  49  40  41  54  38  39  53  35  35  51  36  31  77  65  51  249 241 218 235 226 195 87  75  37  113 100 58  228 216 174 227 222 182 178 178 144 239 242 215 122 123 105 192 189 172 253 238 217 229 213 187 255 251 222 248 244 215 124 123 93  224 220 191 252 245 219 145 137 114 244 238 216 240 239 218 91  99  78  156 167 150 181 194 177 197 208 194 205 208 199 210 208 196 198 191 173 191 185 161 186 186 158 183 186 157 181 180 159 194 182 166 208 180 166 228 181 165 206 131 110 164 83  54  165 95  61  155 99  62  146 106 71  139 106 71  134 106 67  133 108 68  131 107 71  132 111 80  122 110 86  103 100 83  91  97  87  91  102 96  90  102 102 86  98  98  91  100 99  90  96  94  82  83  78  65  64  59  54  53  49  53  52  50  54  54  54  53  53  51  40  41  35  27  28  20  33  34  26  36  37  29  46  47  41  24  27  20  21  23  18  19  21  16  28  29  24  34  33  28  22  19  12  28  21  11  72  60  46  210 193 175 214 193 172 211 189 165 215 191 165 214 188 163 214 190 164 217 195 171 214 192 171 203 185 165 207 188 171 200 185 166 165 152 135 103 92  74  63  55  36  54  47  28  
33  93  59  37  95  57  36  91  51  36  89  47  37  88  47  32  84  45  24  79  47  23  79  50  39  95  68  45  97  74  66  114 92  54  97  78  80  118 107 111 145 144 111 141 151 91  114 130 74  82  101 61  63  84  60  63  82  55  61  77  76  85  100 65  81  94  121 145 155 117 150 157 110 151 157 106 154 158 102 151 155 106 154 158 106 149 155 113 152 157 151 186 192 197 218 237 115 117 158 56  49  101 69  67  114 50  55  97  31  44  79  65  86  115 109 141 162 105 147 161 108 152 163 108 150 162 113 146 163 92  119 138 73  93  118 67  82  111 63  74  106 70  78  115 67  72  114 63  67  112 46  53  95  32  44  82  45  61  94  77  101 125 107 136 154 115 149 159 112 153 157 108 154 154 103 152 149 104 154 151 107 157 158 104 153 158 98  147 154 98  146 158 93  142 157 94  143 158 96  144 156 98  145 153 101 146 151 105 149 152 110 151 155 112 153 155 109 149 149 111 148 141 114 145 130 119 142 116 129 141 101 137 140 87  130 125 61  111 104 32  102 100 26  95  92  23  97  88  29  97  85  35  86  72  33  78  66  24  90  87  32  116 117 57  115 116 56  112 113 56  87  83  36  72  63  24  69  56  24  57  41  26  52  34  46  58  38  63  62  43  63  56  35  52  59  39  48  74  37  45  108 36  47  153 63  75  163 67  81  122 36  47  91  29  34  76  35  43  75  52  68  92  69  97  103 65  104 110 54  89  129 57  71  157 68  74  172 68  77  108 21  29  72  27  34  51  30  39  52  36  49  45  31  46  46  30  41  57  40  50  60  44  54  60  42  54  68  44  60  64  40  56  62  42  54  64  47  57  61  45  48  62  43  45  93  71  73  115 70  75  142 55  71  167 65  79  164 65  70  98  22  24  67  28  31  63  38  44  66  32  46  71  39  54  71  47  61  65  45  57  84  63  72  91  65  74  74  43  51  93  53  64  116 70  80  126 73  83  129 66  77  145 72  81  151 69  75  169 70  75  186 63  68  197 62  66  200 64  64  193 59  56  194 64  62  186 70  70  150 56  54  112 41  39  99  48  45  88  49  50  83  47  59  86  49  66  86  43  60  89  47  59  85  48  56  104 69  76  83  50  59  78  48  58  72  51  60  74  46  58  92  44  60  105 47  59  105 49  50  120 49  45  154 55  50  178 62  62  181 61  71  175 69  81  131 58  65  117 71  73  93  69  65  107 92  85  249 229 222 255 240 235 255 233 228 134 105 97  252 233 218 250 238 216 199 193 167 245 241 216 180 169 149 166 158 139 242 239 220 175 171 146 172 164 128 252 237 204 165 144 123 246 219 202 255 220 203 143 67  54  188 53  49  197 66  56  253 193 165 255 239 202 255 239 206 231 222 193 239 241 219 229 233 219 51  51  49  48  43  47  57  40  48  48  27  34  55  37  37  99  85  76  242 234 213 222 215 186 79  67  29  113 100 58  255 242 203 218 208 172 172 167 135 250 250 222 116 118 96  197 194 175 255 245 223 183 171 147 245 240 210 250 247 214 111 108 75  236 231 199 246 237 208 125 113 87  248 238 211 180 173 147 149 145 118 187 185 160 183 179 154 188 182 158 184 172 150 190 176 150 192 178 143 178 166 126 176 167 126 185 177 140 190 179 151 205 187 163 204 173 153 223 175 153 236 166 140 168 89  58  170 91  58  158 92  57  150 106 69  139 105 68  138 104 66  144 110 72  138 108 70  134 110 76  125 108 80  113 105 84  100 101 87  92  99  91  89  100 96  89  101 99  87  96  95  97  103 101 96  98  93  77  78  73  58  59  54  53  54  49  55  55  53  55  56  51  57  58  52  45  46  40  52  53  47  47  48  42  48  49  43  23  24  19  24  26  21  22  24  19  31  32  27  42  43  37  23  20  13  28  24  15  31  21  9   119 106 90  201 186 167 208 190 168 217 191 166 212 185 158 221 195 170 211 184 163 214 189 169 213 190 172 206 188 168 206 189 169 203 190 171 185 174 154 175 167 148 157 150 131 
44  105 64  44  105 64  49  105 66  52  108 71  57  111 79  51  106 75  46  101 72  44  100 71  33  90  58  26  83  50  27  82  50  51  105 73  58  108 79  49  97  73  92  137 117 105 147 137 115 150 152 108 138 146 99  127 138 86  113 124 78  105 116 64  93  101 67  100 107 111 148 154 108 154 154 99  151 147 104 159 153 100 153 147 104 153 149 114 156 155 123 157 159 159 183 195 197 208 238 130 135 173 75  80  118 71  75  113 66  68  106 41  47  81  45  66  93  83  115 136 107 144 162 121 154 171 111 129 153 91  102 130 95  104 135 94  103 136 82  90  126 83  91  130 84  88  133 67  69  117 64  68  113 74  83  122 58  73  104 53  73  98  57  82  102 75  107 122 103 141 150 109 153 156 106 152 152 99  148 145 106 155 151 111 157 154 106 153 147 104 151 145 106 155 152 106 152 150 106 150 149 109 149 148 113 149 147 119 151 146 119 146 137 111 134 118 94  114 89  87  102 69  98  106 65  116 119 72  123 120 69  135 125 72  140 127 72  121 109 49  102 97  31  96  91  25  77  71  9   77  68  11  98  91  37  94  87  35  90  85  30  75  72  17  65  62  9   76  72  25  95  87  50  77  65  39  61  45  29  60  42  38  53  33  44  61  40  57  56  35  50  63  39  52  69  36  45  89  28  35  167 62  67  167 58  64  101 30  38  77  31  42  72  36  50  62  35  50  79  61  75  95  73  94  102 67  99  111 52  80  148 57  64  165 66  61  153 68  65  86  20  22  60  18  30  62  35  52  48  30  46  44  28  41  55  38  46  50  33  39  58  43  48  64  47  55  64  40  54  69  42  57  66  38  53  71  45  58  64  44  56  82  61  68  103 75  71  120 65  62  158 52  64  187 70  86  145 55  67  82  19  28  72  33  36  62  33  37  66  36  44  74  44  56  73  44  62  76  48  63  102 72  82  95  64  72  81  43  58  117 73  88  120 70  79  129 72  78  141 72  77  156 74  80  166 67  72  181 66  73  198 67  75  199 64  70  194 65  69  184 66  66  163 63  61  132 51  48  109 48  45  95  47  43  83  48  46  83  53  53  84  55  60  81  48  57  94  51  61  91  45  56  98  58  66  106 69  77  84  40  53  88  47  61  76  53  63  72  51  60  98  62  74  112 71  79  116 74  75  126 73  69  141 62  58  167 69  70  177 65  77  163 58  72  135 57  70  121 68  74  100 69  66  130 112 100 255 236 222 234 212 201 120 91  87  110 81  77  255 240 227 228 211 191 166 155 127 249 240 209 153 141 117 190 182 159 245 245 221 147 147 121 202 195 166 251 237 211 147 128 113 154 132 119 131 105 92  110 50  42  186 60  63  188 65  60  255 217 190 241 226 193 250 234 208 241 227 201 227 220 192 222 217 195 44  39  33  46  40  42  52  41  49  49  36  43  42  30  32  113 103 94  249 241 220 196 190 158 86  76  40  161 149 109 255 241 204 251 238 204 249 238 210 246 239 211 119 115 88  214 210 185 247 240 222 144 137 118 251 247 218 245 242 207 94  92  53  195 191 153 253 244 213 243 234 205 208 196 170 69  58  30  96  87  54  126 118 82  133 124 85  178 169 128 184 172 132 177 167 118 145 140 76  137 137 65  137 137 73  130 125 70  156 143 99  200 180 145 208 182 149 213 177 145 220 170 135 204 140 104 161 81  46  172 100 62  145 102 59  142 109 66  144 100 63  147 103 68  145 105 69  139 106 71  133 108 77  123 109 82  111 106 84  98  101 84  91  99  86  90  100 92  90  99  94  93  99  95  89  94  90  91  93  90  72  74  69  53  55  50  56  59  52  52  55  48  54  55  50  50  49  45  53  52  48  54  53  49  46  47  42  33  34  29  21  23  18  24  26  21  36  38  33  49  50  45  17  18  12  24  23  18  22  19  12  26  22  13  160 153 145 203 191 177 213 191 167 218 191 164 205 177 156 215 188 169 216 190 173 215 192 174 193 175 153 207 193 167 198 188 163 172 164 141 134 129 109 96  91  72  
51  106 67  68  122 86  49  100 69  56  106 77  60  110 85  57  107 82  56  106 81  54  107 79  51  104 74  55  110 78  42  98  63  29  83  49  51  102 69  66  115 85  58  104 75  76  119 99  103 146 137 116 158 157 109 149 151 108 146 149 109 146 152 105 144 149 97  138 142 101 147 147 88  138 135 90  143 137 104 160 151 102 155 147 95  144 140 87  132 129 77  117 117 91  126 132 139 166 183 159 181 204 134 151 177 100 115 144 111 122 152 114 128 155 91  111 135 78  107 125 81  121 133 100 138 151 110 133 151 111 126 149 124 138 164 130 146 172 124 141 167 125 142 170 119 134 167 131 144 178 137 152 185 138 155 183 128 150 174 134 161 180 122 153 171 109 145 157 105 145 153 120 164 167 125 170 167 119 162 153 113 156 139 110 149 128 110 149 122 118 154 126 110 150 123 110 150 126 119 154 134 125 156 138 121 148 129 113 135 114 102 118 91  92  103 69  100 107 63  97  101 50  94  93  36  97  92  34  97  88  31  88  77  23  86  74  24  91  79  27  98  89  32  118 112 50  132 126 64  121 115 55  113 109 48  124 119 61  106 101 46  72  66  18  58  51  9   83  74  41  102 90  66  72  58  45  54  36  32  64  45  49  59  37  49  55  35  47  57  40  50  70  43  52  76  26  35  115 36  42  176 60  63  151 42  45  86  30  39  66  40  53  64  41  59  57  39  55  90  72  86  93  70  88  93  60  89  120 58  83  162 57  61  178 67  60  135 58  52  74  23  22  58  20  33  55  28  47  53  32  49  48  32  43  52  36  39  60  44  45  55  40  45  62  45  53  66  42  56  70  42  57  74  42  57  67  36  51  77  54  70  93  66  75  110 69  65  137 66  62  179 63  72  176 59  75  114 38  50  72  25  33  79  45  46  74  45  47  65  36  40  76  46  54  74  42  57  88  56  71  103 70  77  102 67  73  108 70  83  112 70  80  118 72  75  126 72  70  145 80  78  155 75  76  165 71  72  178 74  75  169 59  60  174 66  64  165 68  62  154 69  62  123 56  48  161 108 100 146 108 99  82  53  45  101 78  72  213 192 189 227 206 205 98  69  71  94  51  58  92  47  54  107 66  74  113 71  81  99  52  68  84  41  58  83  57  68  86  63  73  105 72  81  113 74  79  117 73  74  129 69  68  151 65  66  171 70  74  175 69  79  136 40  52  131 57  70  113 62  69  110 79  74  158 139 125 255 244 228 197 179 165 120 97  91  174 151 145 254 235 221 217 200 180 203 192 162 247 238 205 81  69  43  226 215 193 248 244 219 106 102 77  237 227 202 255 246 224 114 96  84  130 110 101 146 128 118 107 58  53  173 64  69  188 80  78  255 222 197 222 213 180 251 239 213 215 203 179 243 232 204 199 188 166 42  33  26  59  50  51  55  44  50  53  42  48  41  30  34  137 126 120 255 248 231 230 223 195 176 167 134 201 191 156 249 236 204 196 182 153 248 234 207 252 241 213 116 107 76  235 230 200 244 239 217 99  95  70  240 237 204 236 232 194 73  70  27  94  91  48  168 163 125 192 184 148 75  66  33  101 93  56  92  83  42  85  77  30  119 109 58  140 130 79  145 135 84  120 111 54  126 124 50  118 119 41  125 124 57  122 117 61  134 120 75  160 138 101 176 150 117 202 169 136 225 185 150 211 157 121 165 86  55  163 87  53  150 98  58  150 108 66  149 101 63  153 105 69  148 106 68  142 106 70  136 107 73  128 109 77  117 107 80  104 102 79  97  99  85  94  100 88  92  99  92  92  98  94  93  98  94  92  97  93  85  87  82  66  68  63  51  54  47  53  56  49  51  50  46  52  51  49  52  51  49  53  52  50  51  51  49  49  49  47  47  49  44  46  48  43  35  37  32  38  40  35  23  24  19  21  22  17  29  28  24  30  29  25  50  49  45  181 174 164 203 185 163 217 193 167 221 195 172 210 185 163 202 180 157 205 185 161 212 196 171 186 172 146 94  84  59  44  38  14  42  37  17  45  42  23  
49  91  67  90  132 108 51  90  69  55  94  73  61  100 81  59  98  79  61  100 81  58  100 78  60  104 81  62  106 81  57  101 76  40  82  58  42  80  57  76  111 89  68  101 80  63  96  79  83  116 105 115 150 144 116 152 148 116 157 153 111 155 154 108 158 157 103 157 157 95  151 150 107 162 159 100 152 148 111 157 155 112 156 155 116 162 162 123 171 171 118 172 172 123 177 177 110 162 160 109 157 157 111 149 158 113 149 161 112 155 164 109 147 156 112 140 151 117 148 153 100 150 147 105 160 155 110 154 155 109 148 153 112 149 157 112 149 157 109 146 154 110 144 153 113 146 155 117 150 159 119 153 162 126 163 171 122 161 168 119 162 169 120 165 171 126 173 179 121 169 173 131 177 174 134 176 164 128 166 143 124 155 121 119 147 99  118 142 84  123 144 85  120 145 90  117 144 93  125 149 101 127 149 103 113 130 86  94  107 63  87  96  49  86  93  41  108 114 54  107 112 48  102 104 39  113 113 49  118 116 57  85  82  29  68  64  16  97  91  43  104 97  43  136 130 72  118 112 52  116 110 50  112 108 47  105 100 42  88  82  30  61  54  12  62  53  22  60  49  29  64  50  41  51  35  35  53  34  40  64  44  55  61  41  53  62  44  56  51  38  47  71  42  47  89  24  32  147 56  63  171 65  67  123 31  36  77  30  40  63  39  53  58  36  49  68  48  60  86  69  79  87  64  80  100 67  94  124 60  84  171 51  60  189 67  64  122 47  42  68  22  22  62  30  41  53  29  45  49  28  43  51  34  44  56  37  39  56  40  41  61  46  51  61  44  52  65  41  55  70  39  55  74  40  56  77  45  60  87  61  74  109 71  82  132 67  71  155 64  69  179 65  75  154 52  63  97  41  44  63  32  30  66  38  35  84  58  57  76  46  48  72  41  46  91  60  66  106 75  81  105 73  74  109 78  76  108 76  79  116 82  83  132 95  89  150 105 99  149 94  87  143 80  73  163 95  86  237 169 158 241 179 164 153 101 80  255 230 208 237 201 179 145 114 93  255 242 223 174 151 135 101 83  69  217 203 192 242 229 220 246 232 221 229 209 202 85  49  49  100 58  62  111 68  77  110 68  78  87  46  60  89  53  67  84  52  65  104 71  80  120 79  87  127 77  80  132 66  68  151 60  65  182 62  71  188 64  74  161 61  71  109 32  40  129 69  77  121 79  83  103 78  71  173 160 144 245 234 216 247 238 221 181 167 158 178 164 155 252 239 223 255 244 222 250 243 214 207 200 171 90  84  58  238 227 205 255 240 220 115 97  77  243 226 206 254 239 220 145 127 117 255 239 233 187 168 162 102 62  60  142 60  62  186 107 102 255 234 207 177 177 143 237 237 209 176 174 149 255 249 227 153 144 127 163 152 146 252 240 240 101 86  91  54  39  46  48  33  38  171 160 158 246 236 224 255 249 227 151 144 116 230 223 194 253 243 216 82  70  44  212 201 173 244 233 201 117 107 71  202 194 157 153 147 113 88  84  47  132 129 86  82  80  32  63  61  12  66  64  15  62  60  12  71  67  22  99  95  48  90  87  36  73  68  13  65  60  2   95  89  31  110 104 46  113 106 52  114 104 51  110 101 42  99  93  33  106 99  47  107 95  53  106 90  57  110 89  62  114 86  62  133 101 78  171 134 108 182 131 104 158 86  61  159 82  56  165 96  65  159 101 64  148 98  61  150 106 67  148 106 66  142 107 69  137 107 71  132 109 77  124 108 82  112 104 81  103 100 85  98  98  86  95  98  91  91  96  90  96  98  95  92  94  91  95  97  92  80  82  77  50  52  47  54  55  50  55  54  50  62  58  55  51  50  46  52  51  47  53  54  49  51  52  47  47  49  44  30  32  27  26  28  23  22  24  19  46  48  43  36  38  33  26  27  22  46  47  42  47  48  43  92  88  79  201 186 167 214 197 171 197 178 148 202 186 153 208 192 159 201 186 155 188 174 147 79  67  43  36  28  5   45  39  17  51  46  24  160 155 133 
45  86  70  105 144 126 66  105 87  53  90  72  64  98  81  65  99  82  63  101 80  61  99  78  57  96  77  62  104 84  60  102 82  64  103 82  40  78  57  52  87  67  80  113 92  64  97  78  67  101 85  96  132 120 111 151 142 109 154 147 102 151 147 95  147 143 103 158 155 108 159 160 103 153 152 98  144 144 108 152 153 113 157 158 114 162 162 119 173 173 110 170 168 100 165 159 102 170 157 108 170 159 123 167 168 120 163 169 104 162 164 112 166 168 125 163 166 117 156 155 110 166 157 103 165 154 106 159 153 105 154 151 103 153 152 106 155 152 109 155 152 110 155 150 111 156 151 108 155 149 101 147 144 102 150 150 106 154 156 107 156 160 104 153 157 99  149 148 113 160 154 116 158 146 117 152 128 119 146 111 122 142 93  123 137 76  122 129 61  118 125 55  109 121 55  104 118 56  111 122 64  113 122 67  96  103 51  82  86  35  90  90  38  104 105 48  96  96  36  100 100 36  93  93  29  88  90  27  86  87  29  64  64  10  58  60  11  96  95  47  107 101 49  109 102 48  108 101 46  102 96  38  98  93  35  98  92  40  84  77  33  96  87  54  105 94  76  73  60  52  58  42  45  59  42  52  65  45  57  62  41  56  54  34  46  60  43  53  54  39  46  71  35  39  112 31  38  172 71  77  154 59  63  101 29  33  74  33  47  63  40  56  62  41  50  74  55  61  84  65  71  95  71  85  106 74  98  120 55  77  176 55  64  181 59  58  96  29  23  63  28  26  59  32  41  49  29  41  52  32  43  52  35  41  54  36  36  56  38  38  63  46  52  63  46  56  70  46  60  74  43  59  72  38  52  97  64  75  93  66  75  121 81  89  134 63  67  161 70  75  174 74  84  119 38  44  66  29  23  61  44  34  78  59  52  89  66  60  66  41  37  103 75  72  158 133 129 167 139 136 194 165 159 123 93  85  113 84  76  245 216 208 255 229 218 255 232 220 232 190 176 142 96  81  169 123 107 255 231 211 225 195 169 136 115 86  253 240 208 232 223 192 166 157 128 250 238 214 129 116 97  203 190 173 255 243 227 138 126 110 255 244 226 246 228 214 90  59  54  92  52  53  118 71  81  115 69  82  89  48  62  92  54  67  86  50  60  114 74  82  128 77  82  137 71  75  149 60  64  169 58  65  200 66  77  191 64  75  130 40  49  106 44  49  119 68  75  113 74  77  99  74  67  209 196 180 248 240 221 205 198 179 112 102 90  199 189 177 245 233 217 206 195 175 245 235 208 232 225 197 115 107 86  253 240 221 255 233 215 119 93  76  255 238 221 245 227 213 152 135 127 251 233 229 133 113 112 107 76  74  126 66  66  184 125 119 255 235 213 162 151 121 251 244 216 157 151 129 252 243 228 136 123 114 217 202 197 243 227 227 61  45  48  51  34  42  57  40  48  187 172 175 217 206 200 169 161 148 97  90  72  131 124 105 91  84  65  77  69  48  107 97  70  82  71  39  94  85  44  102 94  48  92  85  41  98  94  49  105 102 51  70  67  14  56  55  0   71  70  14  107 105 54  125 125 71  122 121 65  124 124 64  98  98  34  71  70  5   87  86  22  102 97  39  107 100 48  96  85  40  103 88  47  102 87  48  109 93  60  109 94  65  112 94  72  116 95  78  111 83  71  112 80  67  115 79  63  135 90  71  143 78  60  157 79  59  174 89  68  167 92  63  154 98  61  148 105 63  147 105 63  143 105 66  139 107 69  135 109 76  130 109 82  121 105 82  112 100 84  103 97  85  99  99  89  95  96  90  94  96  91  92  94  91  95  97  92  88  90  85  65  66  61  55  54  50  55  51  48  56  52  49  37  36  32  44  43  39  53  54  49  52  53  48  48  50  45  24  26  21  19  21  16  25  27  22  42  44  39  48  50  45  47  49  44  44  46  41  54  55  50  46  43  34  117 108 91  165 153 127 198 188 152 198 189 146 193 182 137 202 193 152 115 106 73  42  35  9   62  56  34  74  67  48  168 164 139 190 186 159 
45  95  83  101 152 137 83  130 112 49  94  73  57  99  75  62  105 78  59  102 75  58  100 76  55  99  76  85  130 109 66  111 90  55  100 79  51  96  73  29  75  49  51  95  68  60  104 79  61  106 85  71  118 100 102 153 138 102 154 142 109 158 152 104 150 148 112 152 154 114 151 157 117 152 156 111 149 152 111 155 154 102 152 149 93  150 144 103 162 156 114 175 168 118 181 172 115 186 170 124 186 175 135 174 179 139 177 188 132 189 196 115 174 178 112 160 162 124 173 170 106 166 156 100 160 152 105 155 154 106 154 156 102 153 154 102 154 150 106 153 147 102 149 141 101 152 143 103 156 148 103 155 153 105 154 158 104 153 160 101 148 154 110 155 158 109 151 147 111 152 134 116 150 123 118 144 105 115 133 83  112 121 66  115 115 55  121 113 51  119 111 49  113 111 50  103 104 46  105 104 50  107 103 55  93  86  44  77  68  27  78  69  28  89  80  37  101 93  46  95  89  37  81  79  22  59  58  1   55  56  0   58  61  6   50  55  1   54  57  4   55  52  0   64  58  6   81  76  21  94  88  36  75  69  21  79  72  30  128 119 88  119 108 88  67  54  46  57  42  45  55  37  49  56  38  54  59  40  59  59  41  57  59  38  53  64  42  54  65  40  46  79  28  33  142 43  48  176 70  74  120 44  46  84  31  37  71  39  54  63  42  57  64  45  49  68  50  50  93  72  77  103 77  88  99  66  87  124 61  80  183 67  76  173 61  60  78  20  16  65  40  36  51  32  36  51  34  42  58  42  45  54  36  36  52  33  29  64  46  44  57  40  46  64  47  57  69  45  59  75  44  59  75  42  53  96  63  70  105 78  83  105 71  72  145 89  88  183 115 114 163 91  94  85  30  27  109 90  75  196 191 172 225 213 199 147 130 120 73  55  45  201 183 171 245 229 214 255 236 221 255 238 225 230 201 187 130 101 85  255 234 217 255 229 212 237 215 194 254 227 208 185 158 137 198 172 149 255 231 205 193 173 146 164 150 121 252 246 214 246 241 209 171 168 137 247 241 215 113 102 80  237 222 203 254 235 220 102 83  66  104 88  65  94  76  56  71  41  31  99  59  59  127 75  87  120 66  82  103 55  71  94  50  65  101 64  71  120 78  80  131 69  72  148 63  66  170 61  67  189 64  72  199 68  76  173 60  66  118 43  48  104 52  56  116 69  75  119 78  82  117 88  82  226 207 193 253 240 223 105 97  78  99  90  75  215 203 191 255 245 229 132 116 100 254 239 218 247 232 211 115 102 85  254 237 221 246 220 205 108 80  66  248 229 214 250 234 221 245 230 223 191 176 173 63  44  46  99  73  76  113 71  73  196 148 144 255 230 214 159 121 98  239 208 187 152 126 109 205 186 180 86  70  70  148 130 126 129 111 109 53  34  38  55  35  44  62  42  51  55  38  44  34  20  20  48  37  33  39  32  24  45  41  30  43  39  27  76  70  54  94  86  63  103 94  61  106 95  50  105 93  43  103 95  46  91  85  33  67  62  6   89  87  28  104 104 44  118 118 58  128 129 72  131 135 76  122 123 63  107 109 44  118 121 52  119 120 52  106 105 41  88  83  28  84  75  32  82  67  34  99  77  56  109 81  67  114 91  77  112 90  79  111 91  82  119 96  90  123 93  91  124 93  90  120 89  84  123 83  75  134 77  68  152 75  65  177 76  66  180 85  65  166 104 67  148 104 59  147 106 62  143 106 64  141 106 68  139 106 71  136 106 78  130 105 83  119 100 83  109 97  83  106 99  89  99  99  91  96  97  91  97  99  94  93  95  92  94  96  93  87  87  85  57  56  54  59  55  52  55  51  48  36  32  29  43  42  38  52  53  48  53  54  49  58  60  55  44  46  41  35  37  32  44  46  41  43  48  42  50  55  49  50  55  49  46  51  45  39  41  36  51  52  44  57  53  41  123 119 94  156 153 112 161 160 106 164 161 106 159 156 105 54  50  13  45  39  13  119 114 94  155 150 130 152 148 121 104 101 70  
58  114 105 96  152 139 92  145 127 52  101 79  49  93  66  58  101 73  56  99  71  56  99  72  57  99  77  89  132 112 76  123 103 41  90  69  52  101 79  37  87  62  29  82  52  49  102 72  53  107 83  57  110 90  95  149 133 99  151 139 107 156 150 111 153 152 115 150 154 113 144 149 119 147 151 121 149 152 123 153 155 118 152 151 109 148 143 107 148 140 110 151 143 108 154 144 98  156 141 103 159 150 111 148 156 107 143 157 98  150 161 98  157 163 102 158 159 101 156 153 100 157 150 99  151 147 105 148 154 107 150 156 103 154 157 105 157 155 110 157 151 109 155 145 104 154 143 105 155 146 108 154 151 110 154 155 109 148 153 109 144 146 126 158 153 117 148 132 115 142 111 113 136 92  108 125 71  98  108 47  93  95  32  101 95  33  110 98  40  107 94  39  87  80  25  78  72  20  85  77  31  101 89  51  106 91  60  103 86  60  104 87  61  106 89  61  96  80  47  76  62  23  83  75  28  96  90  38  104 103 46  115 116 56  107 111 50  103 104 46  79  76  21  69  63  11  97  91  41  96  89  45  82  74  37  78  69  40  80  69  51  61  48  40  55  41  41  58  42  52  62  44  58  61  42  61  59  40  59  58  40  56  61  40  57  65  39  52  72  32  41  97  31  35  165 59  61  165 61  62  96  36  38  73  38  45  65  38  53  56  38  50  59  43  43  72  57  52  101 81  82  92  67  73  94  62  75  120 66  79  157 61  63  154 63  60  69  26  19  52  35  28  49  37  37  55  43  43  37  22  19  53  36  29  64  45  38  66  49  42  58  43  46  62  45  55  73  51  64  75  47  59  79  47  52  120 88  89  238 214 212 248 221 214 179 142 133 255 225 214 192 143 138 78  41  32  164 153 133 244 244 220 255 247 230 154 140 127 88  74  61  214 203 185 255 252 230 183 168 145 255 232 214 241 214 197 136 110 87  255 237 213 235 217 193 163 148 125 255 243 217 166 152 126 181 165 139 250 234 208 146 130 104 202 188 161 250 241 212 248 241 212 227 223 194 255 252 225 92  86  62  251 239 217 254 233 216 150 129 110 204 188 163 186 165 144 90  60  50  100 58  59  128 74  87  126 67  85  106 47  65  103 51  64  117 76  80  127 77  76  148 70  70  172 69  73  193 72  79  194 71  76  173 60  62  135 43  44  110 48  51  99  53  56  128 81  87  137 92  95  137 99  96  250 222 211 255 245 230 190 177 160 152 140 126 232 218 205 251 233 219 141 122 107 255 234 217 221 199 185 141 123 111 255 237 223 223 195 183 111 83  71  148 126 115 233 214 207 194 176 172 58  42  42  71  52  58  93  67  76  101 68  75  138 92  94  141 77  68  136 64  50  127 61  45  85  35  24  64  32  33  56  36  38  55  37  35  66  48  46  60  41  45  50  33  41  55  35  46  55  38  48  56  39  45  47  32  35  47  37  38  42  37  34  46  41  37  37  33  22  72  65  46  100 91  60  110 98  56  106 94  44  96  86  35  84  77  23  107 102 44  131 129 68  119 117 56  123 125 62  118 119 61  99  103 44  88  92  33  87  88  28  100 102 37  98  98  36  106 103 48  90  81  38  71  58  26  88  69  52  118 87  84  122 87  91  123 91  94  122 93  95  118 92  95  116 90  93  121 90  96  125 94  100 129 98  103 124 90  89  136 88  86  150 81  76  172 67  63  184 78  64  172 102 68  153 102 57  148 105 60  145 107 62  144 105 64  143 105 69  141 104 75  136 104 79  127 102 82  116 99  83  106 96  84  101 97  86  97  98  90  100 102 97  92  94  89  95  97  94  100 99  97  63  62  60  64  60  57  62  58  55  52  48  45  56  52  49  54  53  49  48  49  44  53  54  49  50  52  47  52  54  49  50  52  47  48  53  47  41  46  40  48  53  47  51  56  50  49  54  48  37  40  33  18  20  9   46  48  26  113 116 73  116 119 64  125 126 66  106 107 50  40  38  0   133 132 102 152 150 127 100 98  75  39  38  7   42  42  6   
84  140 137 101 156 150 101 153 140 77  124 104 54  96  72  61  100 73  62  101 72  62  100 75  60  98  77  85  124 106 100 142 128 61  108 92  48  97  76  48  101 75  31  86  55  41  97  68  49  107 83  55  110 91  84  136 123 106 156 147 105 151 148 108 152 151 114 154 156 115 149 151 120 144 148 128 142 145 134 135 139 141 137 138 146 140 140 143 140 135 139 140 134 130 143 134 121 152 144 108 147 144 115 152 160 116 153 169 99  145 160 101 153 166 104 162 164 94  150 149 103 151 151 109 150 152 115 149 159 112 150 161 107 156 161 107 161 161 116 165 159 121 167 156 128 168 157 140 176 166 147 176 171 150 175 171 169 190 185 191 207 197 187 200 180 123 134 100 93  102 55  91  99  39  90  97  29  89  92  21  92  91  24  103 97  35  101 90  36  82  72  21  72  66  16  70  63  19  81  71  36  100 86  59  112 93  78  119 97  86  120 95  88  118 94  84  110 87  71  84  64  39  104 88  52  123 111 63  116 110 52  113 110 43  117 117 45  137 137 67  125 121 60  104 98  46  66  59  15  62  53  20  67  56  34  58  46  34  61  47  44  55  40  43  61  46  53  57  41  51  56  39  49  60  42  54  61  43  55  57  39  53  58  40  54  70  38  51  84  27  36  125 45  48  172 68  67  139 48  45  82  36  38  64  41  49  60  38  51  60  43  53  56  45  41  60  47  39  83  63  62  102 76  79  101 72  76  112 70  71  149 84  78  126 66  56  92  65  54  108 100 89  135 128 120 134 125 118 130 116 105 215 197 185 240 222 208 248 231 223 151 137 137 68  53  60  62  41  50  69  42  49  84  54  54  143 116 109 253 235 225 197 184 168 180 165 144 255 247 227 149 117 106 73  45  33  224 214 189 250 246 219 247 239 220 158 146 130 102 90  74  247 236 216 248 239 210 125 114 86  255 238 219 228 206 185 142 122 95  252 237 206 187 176 148 192 185 157 246 241 212 124 117 89  218 206 180 255 250 225 128 106 83  230 208 185 255 240 219 252 236 213 246 239 213 233 229 204 104 98  74  248 240 217 228 211 191 214 196 176 253 239 213 171 150 129 93  56  48  104 55  58  137 81  94  129 66  83  113 46  63  124 61  72  128 80  78  137 76  71  172 74  75  191 72  76  191 70  75  170 61  64  131 50  47  107 46  43  94  46  46  108 66  68  136 87  91  136 87  91  152 106 106 255 236 229 255 234 222 255 240 225 117 101 86  247 231 216 254 232 219 155 131 119 243 217 204 173 146 135 143 120 112 174 152 141 122 95  84  114 86  75  121 94  87  114 89  85  58  37  36  65  45  47  74  51  61  94  66  80  110 74  86  121 64  73  161 65  67  175 61  60  178 69  62  124 39  34  77  31  34  71  49  52  64  46  46  63  49  49  49  34  39  64  48  58  51  34  44  46  29  39  61  41  52  48  31  39  47  32  39  52  41  47  35  29  33  48  43  40  47  41  27  63  56  30  75  63  25  85  72  28  83  72  26  70  63  11  98  93  37  114 112 51  106 105 41  103 105 42  98  99  41  84  87  32  74  74  22  78  78  28  82  78  30  105 98  54  106 96  60  94  78  53  121 102 88  116 88  87  122 86  98  121 82  100 119 83  97  122 89  100 123 91  102 120 88  99  119 87  100 118 86  99  116 86  98  120 89  97  122 86  90  129 69  69  155 52  53  179 71  61  173 92  63  160 98  57  152 104 58  149 106 61  148 105 63  147 103 66  145 102 70  141 104 77  134 103 82  124 101 83  109 96  80  101 95  81  100 100 90  99  100 92  92  94  89  96  98  95  98  97  95  78  77  75  57  53  50  59  54  50  58  55  50  60  57  52  56  55  51  51  52  47  51  52  47  51  52  47  49  51  46  39  41  36  24  29  23  22  27  21  50  57  50  40  47  40  36  43  36  22  27  21  19  21  16  24  28  11  53  59  21  92  99  47  106 112 50  75  79  20  80  81  37  130 131 97  63  63  35  31  31  3   54  55  21  102 104 65  
101 154 158 106 158 156 101 151 142 95  142 126 57  101 78  59  99  72  60  100 73  59  99  73  63  102 83  98  139 125 123 166 156 93  139 128 53  101 85  47  99  76  30  83  55  38  93  64  49  103 80  50  103 85  66  114 100 117 160 151 111 150 147 115 146 148 121 144 150 125 138 146 127 126 134 138 122 132 139 108 116 143 102 110 149 102 108 147 101 103 152 108 109 154 120 119 148 132 132 137 138 142 124 143 150 115 148 157 113 153 163 103 152 159 98  152 152 104 156 152 118 160 158 135 169 170 150 177 184 156 185 193 160 198 201 168 208 207 181 214 207 192 220 208 201 225 211 203 221 207 208 222 207 209 218 201 202 207 187 191 191 165 175 172 137 107 104 59  93  90  35  103 102 38  120 119 52  129 129 59  132 129 62  128 124 61  104 98  38  68  61  7   61  54  10  69  61  25  87  75  49  105 89  73  113 93  86  118 93  96  120 93  98  119 90  95  126 98  97  96  72  60  104 84  59  109 93  57  108 96  46  113 105 43  107 102 34  111 108 39  125 121 60  112 106 56  88  80  43  75  65  40  57  45  33  57  43  42  57  42  47  58  42  52  56  40  50  59  44  51  58  41  47  59  42  48  59  42  48  58  41  49  60  43  53  67  34  43  95  33  38  146 65  64  162 71  66  107 32  26  68  34  35  56  41  46  61  44  52  74  59  62  95  86  79  62  52  42  96  78  76  183 162 159 166 141 136 171 141 131 255 215 203 181 145 131 187 174 158 253 250 235 244 240 228 171 163 150 168 155 138 255 243 225 236 219 201 255 242 229 241 230 226 83  71  73  73  52  57  76  50  51  78  49  43  166 143 129 250 237 220 172 166 144 208 204 177 248 238 213 126 100 87  98  72  59  249 234 211 233 226 198 248 240 219 161 149 133 115 102 85  249 237 215 244 235 204 185 174 144 255 243 223 132 115 95  169 155 126 254 245 212 159 154 124 219 215 186 248 242 216 106 100 74  233 223 198 253 238 217 108 90  70  243 225 205 242 223 206 244 229 210 250 242 221 223 219 194 123 119 94  248 242 218 195 184 162 156 144 122 254 242 220 148 127 110 100 56  53  123 68  74  130 72  84  128 66  79  133 61  73  136 65  71  141 80  75  152 75  69  189 74  77  192 66  70  165 52  54  135 44  43  109 44  40  112 63  59  108 62  64  133 84  88  145 90  95  158 99  105 177 118 120 226 175 172 203 163 155 164 132 121 106 80  67  137 110 99  108 78  68  109 76  67  93  58  52  104 69  63  125 94  89  118 89  83  125 95  87  129 99  91  134 100 98  94  62  63  73  47  48  78  53  57  74  46  58  90  57  74  112 73  91  126 60  74  175 64  71  198 64  65  195 57  55  164 50  49  95  33  36  69  38  43  64  44  45  62  47  50  59  46  53  48  35  45  54  38  49  52  34  46  52  30  42  59  37  49  52  32  44  47  31  42  48  38  49  45  39  43  38  33  27  48  41  23  63  52  24  83  70  35  80  68  28  80  72  26  79  74  18  92  90  29  97  96  32  92  92  30  84  85  28  63  63  13  58  55  12  59  53  17  63  54  21  60  46  20  97  78  61  118 96  85  113 84  86  125 92  103 124 85  106 130 88  112 125 86  105 122 85  102 123 87  101 125 89  103 125 93  108 121 90  105 122 91  107 119 91  105 96  69  76  91  42  45  127 37  39  173 68  62  176 86  62  170 96  61  157 103 59  153 106 62  152 105 63  150 102 64  147 101 67  147 103 74  140 104 78  130 104 81  117 99  79  104 95  78  106 102 90  97  99  88  95  96  90  100 101 96  93  93  91  94  93  91  63  59  56  60  55  51  58  55  50  55  52  47  56  52  49  57  56  52  53  52  48  52  53  48  48  49  44  28  30  25  23  28  22  22  27  21  15  22  15  49  56  49  31  38  31  18  25  18  21  26  22  17  23  11  20  25  0   65  73  26  83  88  32  84  89  33  97  100 53  41  46  6   33  37  4   64  68  35  111 115 78  140 145 105 
108 152 161 101 146 151 110 155 152 104 150 137 69  117 95  49  97  71  54  102 76  55  105 80  50  101 82  115 166 151 134 184 173 133 183 172 61  109 95  54  101 83  46  91  70  31  77  51  51  96  73  59  102 82  58  99  83  111 142 134 129 149 148 131 136 142 117 103 118 106 75  93  106 61  81  114 57  76  122 55  72  130 56  71  139 57  71  147 57  69  157 61  75  162 66  80  160 74  87  169 109 119 147 132 137 129 145 145 112 148 146 119 166 160 131 179 167 148 192 179 159 195 183 180 210 200 192 214 211 205 224 222 210 229 227 214 225 221 218 218 210 212 208 197 198 199 183 194 196 174 187 186 158 178 174 139 184 177 135 154 143 97  142 130 82  119 107 55  111 101 50  115 108 54  107 102 47  112 110 53  111 109 48  108 107 42  98  98  28  89  87  26  80  73  31  105 96  67  100 87  68  113 96  86  117 95  97  115 89  98  123 95  110 115 87  102 118 91  100 120 94  95  114 92  81  96  78  56  106 92  57  105 94  48  107 97  44  100 93  38  110 104 52  97  93  48  94  88  56  63  55  36  53  39  36  62  47  52  55  39  50  59  43  54  60  44  54  59  44  49  59  45  45  57  43  40  51  37  34  58  44  41  61  47  46  101 71  69  145 85  84  151 78  72  210 140 130 212 160 149 182 156 155 55  43  45  109 95  95  244 230 227 202 193 184 59  49  40  144 131 125 254 237 230 169 150 133 231 213 191 255 241 224 84  68  52  213 208 188 242 241 221 188 185 168 104 97  79  205 193 169 255 246 220 130 115 92  253 242 224 226 217 208 53  42  40  62  42  41  79  54  49  88  60  48  186 165 146 248 240 217 195 191 164 240 233 204 255 241 216 105 73  62  160 128 115 255 240 216 193 181 155 252 244 223 159 147 131 137 118 104 255 242 225 248 234 207 248 239 210 251 240 220 92  84  63  199 194 164 248 245 212 131 127 98  233 229 202 249 238 216 103 91  69  246 233 214 251 240 220 98  92  70  243 241 218 201 199 178 210 209 188 249 247 226 194 189 167 140 135 113 245 240 218 186 184 161 189 184 162 231 223 204 92  68  56  114 62  66  124 58  68  139 79  89  135 74  82  135 64  70  154 75  78  155 74  70  175 78  72  201 77  79  168 44  46  140 42  41  125 49  49  115 55  55  108 56  60  135 80  86  155 96  102 163 93  101 160 87  94  162 89  96  145 76  79  127 69  67  133 86  80  133 93  85  138 100 91  146 103 97  136 91  88  148 100 100 141 95  95  134 92  93  140 100 100 137 99  96  130 92  89  100 60  61  83  44  47  81  49  52  81  52  57  74  44  56  87  53  70  115 70  90  131 63  78  161 52  58  198 62  62  214 60  58  192 57  54  122 42  43  80  38  39  70  44  47  63  48  53  55  42  51  51  39  51  55  41  54  55  37  49  55  31  44  62  34  48  59  32  47  52  29  45  45  31  46  45  35  44  40  34  36  39  32  24  49  40  23  65  53  27  99  88  58  104 97  55  108 102 50  121 119 58  135 134 69  130 129 65  98  97  41  57  53  8   57  48  17  62  50  28  68  50  36  91  68  60  121 93  92  121 90  95  117 81  93  127 88  107 125 83  107 124 84  110 123 86  104 124 88  102 129 88  102 124 86  99  120 88  101 126 95  111 117 86  104 85  58  73  73  52  59  82  48  49  105 33  34  152 61  56  173 76  60  178 88  62  161 97  59  155 102 58  156 103 61  154 102 63  151 101 66  147 102 69  143 104 75  135 105 79  126 104 81  111 98  79  101 95  79  101 99  86  99  101 90  95  96  90  94  94  92  97  97  95  75  71  68  56  51  47  60  55  51  54  51  46  58  55  50  54  53  48  53  52  47  53  54  48  41  42  37  23  25  20  24  29  23  23  28  22  19  26  19  43  50  43  31  38  31  22  28  24  21  25  24  14  19  12  24  27  6   27  33  0   83  86  43  87  90  43  55  61  13  49  55  11  54  61  20  119 125 87  117 123 85  58  64  26  
115 149 158 115 148 153 121 153 150 121 154 143 101 134 115 71  105 81  60  94  70  63  98  76  66  103 86  107 145 130 107 145 134 115 153 142 93  129 115 62  99  82  64  99  77  47  82  58  51  90  63  57  92  68  70  97  80  128 141 132 129 123 125 106 80  93  99  54  74  117 55  80  123 51  75  127 48  70  130 46  69  135 46  66  141 44  63  145 42  61  156 43  63  163 46  65  170 53  71  164 68  82  150 99  104 173 159 156 157 174 164 170 201 186 182 209 194 196 217 202 217 229 217 218 221 212 215 212 205 210 205 199 199 196 189 205 196 189 204 184 177 207 183 171 204 189 168 188 179 150 151 142 103 95  84  38  95  84  30  102 90  32  113 101 41  113 102 46  110 100 47  101 95  45  79  73  25  72  69  18  76  73  18  97  95  34  105 105 35  101 96  38  104 93  61  112 96  80  111 93  83  118 97  94  121 98  104 120 94  107 119 92  109 119 92  109 123 97  110 111 86  92  97  76  73  101 83  71  94  79  56  104 93  63  83  73  37  90  83  41  96  91  49  86  81  43  48  41  13  55  46  31  57  43  42  54  39  46  60  44  55  52  36  47  52  37  44  101 86  89  158 144 141 150 137 129 149 136 127 227 215 203 141 129 117 255 231 219 223 177 164 148 95  81  255 225 209 255 232 220 226 207 203 52  40  40  127 116 110 255 247 237 191 178 169 55  45  36  168 157 151 251 241 229 182 170 144 253 242 214 215 202 183 58  49  32  233 231 210 236 236 212 70  68  47  54  48  24  230 221 192 246 235 205 144 133 105 247 236 216 202 194 183 108 95  89  235 212 206 251 223 212 158 129 111 211 189 166 247 240 214 244 243 215 250 243 214 253 237 212 74  45  31  208 179 165 255 239 215 162 150 124 253 248 226 155 146 129 159 140 126 255 236 219 224 212 186 209 202 174 247 241 219 130 124 102 225 218 190 249 242 214 139 131 108 249 241 218 241 226 207 106 89  71  255 239 223 235 222 205 97  90  71  245 243 222 166 163 144 197 192 173 247 239 220 172 159 142 94  78  62  224 209 190 245 234 214 237 224 207 93  75  63  96  61  57  113 52  59  143 71  83  145 82  91  139 74  80  155 80  84  157 73  71  162 69  64  182 77  71  188 70  68  159 50  47  125 44  41  124 59  57  114 55  59  140 83  90  156 96  104 158 93  99  159 86  93  167 90  96  169 92  98  152 80  84  164 100 101 150 95  92  151 102 95  150 103 95  138 89  84  151 101 100 144 92  94  137 87  90  155 109 109 125 81  80  106 66  64  88  50  49  83  43  44  96  57  58  81  51  51  81  52  56  86  54  67  79  42  59  97  52  72  122 58  72  157 63  64  185 60  58  216 58  57  209 59  58  157 53  52  107 39  40  81  40  46  69  46  54  61  44  54  54  40  53  53  39  52  54  36  48  58  32  45  63  33  45  64  33  48  57  30  45  49  31  47  45  33  45  39  32  39  35  29  29  42  31  25  50  38  24  67  56  34  103 95  59  108 105 54  106 104 45  118 117 52  118 117 53  111 105 53  105 97  58  100 88  64  67  49  37  86  62  60  125 96  101 121 88  97  117 81  95  128 87  105 123 81  103 121 81  105 126 88  111 121 87  104 119 83  97  130 88  100 134 94  105 119 87  100 104 76  90  83  52  70  72  45  62  66  49  59  74  48  51  89  38  37  121 43  39  166 68  59  181 84  65  169 94  62  163 101 60  161 102 62  159 101 63  155 101 63  151 103 67  146 103 71  138 105 74  130 104 77  118 100 76  108 97  77  104 98  82  101 99  87  96  97  89  96  97  92  97  98  93  84  81  76  61  56  52  61  56  52  58  53  49  59  54  50  56  53  48  56  53  48  53  52  47  52  51  47  30  31  26  18  20  15  24  29  23  32  37  31  50  57  50  39  46  39  17  23  19  19  23  22  23  25  20  16  18  5   23  25  4   47  48  17  91  93  54  51  57  13  52  60  13  78  85  41  91  99  58  53  61  22  30  40  3   
122 143 144 125 145 143 126 141 134 133 143 132 133 137 122 106 105 87  84  81  64  94  88  74  117 113 102 143 143 133 139 142 133 135 145 134 130 144 129 85  104 84  69  91  68  61  87  58  38  75  41  67  98  67  86  93  75  110 95  88  110 69  77  116 58  73  124 54  78  127 51  77  130 52  76  130 51  73  132 50  72  133 50  70  135 48  67  133 44  64  136 45  63  141 44  61  160 52  67  153 47  59  158 68  77  195 135 137 229 215 204 220 222 208 218 210 199 222 202 195 216 185 182 229 189 187 222 176 176 205 166 161 161 139 128 195 177 165 203 176 167 218 190 178 170 150 125 123 109 74  125 112 68  119 107 55  120 112 50  117 112 46  111 107 43  93  92  28  85  84  28  74  74  22  56  55  7   60  58  10  64  60  12  87  81  29  102 96  38  101 88  43  110 91  76  116 92  92  123 97  100 113 86  91  111 84  93  120 94  105 118 92  103 114 91  101 106 85  92  104 85  87  80  65  62  75  62  54  81  72  57  77  70  51  83  77  55  84  78  52  85  80  50  142 137 108 139 131 110 114 105 90  213 200 194 157 143 143 56  41  46  67  52  59  69  52  58  150 134 135 250 236 233 176 163 154 217 205 191 242 231 213 159 148 126 255 244 218 154 130 104 165 139 114 255 242 220 252 230 216 219 202 195 51  38  32  159 149 137 243 234 219 153 136 126 59  45  36  201 194 184 244 241 222 219 214 182 255 250 219 143 126 110 70  54  39  244 238 214 249 248 220 202 198 173 65  59  33  240 231 200 255 252 222 229 220 191 248 240 217 91  81  69  150 133 125 255 239 229 255 235 221 144 109 89  242 216 191 249 242 216 208 207 179 243 239 210 231 221 194 78  59  42  255 238 221 241 226 203 199 192 166 240 240 216 157 155 134 178 162 146 254 239 220 161 155 129 206 205 177 249 244 222 115 104 84  248 227 206 255 234 213 214 195 178 253 236 218 148 129 114 136 114 100 255 237 223 218 199 185 132 114 100 255 239 225 151 132 118 200 176 164 255 233 223 150 116 106 102 65  56  125 87  78  176 138 129 103 64  57  97  53  52  124 69  74  131 61  71  139 63  75  147 76  84  156 84  88  147 69  69  168 80  78  181 84  78  186 85  77  170 73  64  135 51  41  122 55  49  112 52  51  157 92  100 154 88  98  160 97  105 153 91  94  167 99  98  168 98  98  159 89  91  165 96  99  148 88  88  155 102 98  139 92  84  147 103 92  152 105 99  147 99  95  141 95  95  142 96  96  113 69  66  118 79  74  127 92  90  135 104 101 141 110 107 150 121 117 213 192 187 157 136 133 79  49  57  85  49  63  86  42  59  107 51  62  139 69  67  165 64  56  208 60  58  217 59  58  197 61  61  150 46  47  99  34  40  78  38  47  68  42  53  61  43  55  53  39  52  52  36  49  58  32  45  59  29  41  63  29  43  58  27  42  49  28  43  44  30  43  41  31  42  40  30  38  40  29  33  41  30  26  38  29  14  64  57  28  90  86  41  102 100 43  100 96  33  97  93  32  97  89  40  85  72  38  67  50  34  107 83  81  119 92  99  117 85  98  128 91  108 131 92  110 125 84  102 128 86  106 122 84  105 125 91  108 125 93  106 122 89  100 129 89  100 124 86  97  99  69  81  76  48  62  75  44  62  73  46  63  67  50  60  71  52  56  85  51  49  99  40  36  156 62  60  177 74  65  175 91  63  170 98  60  167 99  62  163 99  61  158 100 62  153 103 66  148 104 67  140 104 70  135 106 76  127 103 77  116 100 77  109 97  81  104 98  86  101 98  89  98  99  93  98  99  94  95  90  86  68  61  55  64  57  51  61  56  50  60  55  51  57  54  49  58  55  50  53  52  47  54  53  49  41  42  37  28  29  24  36  38  33  38  43  37  47  52  46  45  51  47  26  32  28  16  21  17  25  27  22  24  25  20  26  26  16  17  15  0   47  47  21  76  81  41  49  57  10  56  64  17  58  67  24  34  44  7   57  69  33  
141 129 131 141 127 127 137 117 116 140 115 111 146 117 111 130 97  90  117 80  74  124 87  81  133 98  92  141 110 105 141 114 107 140 117 109 142 124 114 142 126 113 98  85  69  92  85  66  65  67  43  80  78  55  91  69  56  113 72  70  119 57  68  126 51  71  131 49  72  130 46  70  131 47  71  131 47  71  132 48  71  134 50  73  134 50  73  134 50  73  132 50  72  135 48  67  135 39  51  153 47  57  176 60  73  178 83  89  158 115 108 97  78  64  80  53  46  75  37  36  98  46  48  130 65  69  172 100 104 151 87  87  126 89  80  129 105 93  181 152 146 201 173 162 143 122 95  97  82  43  103 89  44  107 96  42  101 95  33  100 99  32  104 105 35  83  89  19  86  93  26  70  76  14  68  71  14  100 100 48  116 109 63  127 116 71  125 112 68  115 96  66  125 97  96  114 82  95  125 93  104 133 103 111 121 94  99  124 99  102 137 115 117 152 132 131 133 115 111 82  69  61  100 90  80  208 200 187 213 207 191 139 133 117 243 240 221 167 165 144 147 141 117 253 247 223 158 150 131 173 163 151 247 234 226 142 128 127 63  49  49  49  34  37  58  42  43  151 135 135 252 239 231 182 170 158 241 230 212 224 214 189 205 196 167 251 242 211 84  78  46  216 209 180 229 219 194 241 228 211 222 205 195 54  40  31  195 187 168 251 240 222 123 103 92  66  48  38  225 222 207 242 244 222 248 248 214 241 235 203 98  76  62  108 86  73  251 241 216 246 241 212 209 205 178 82  77  48  255 250 221 245 236 207 240 233 205 251 243 222 113 99  88  119 94  87  132 92  82  121 75  60  120 75  54  251 216 194 244 229 206 119 117 94  249 249 223 196 195 167 114 103 81  247 232 213 254 239 218 254 242 220 250 245 223 155 150 128 203 186 170 246 229 211 157 149 126 232 224 201 255 238 218 105 79  62  255 220 204 255 239 227 255 232 219 154 126 114 84  56  44  156 128 116 219 191 180 136 106 96  130 96  87  144 107 98  97  56  50  115 72  65  91  43  39  98  49  44  111 60  56  117 64  60  115 57  55  119 61  60  127 67  69  119 54  60  136 66  74  144 73  79  152 80  83  160 86  85  155 76  72  166 83  77  169 80  72  162 75  65  141 63  51  127 59  48  125 66  58  150 90  89  160 93  100 159 94  100 153 97  98  155 104 100 161 109 98  145 91  81  176 123 117 212 161 157 146 98  96  176 133 127 170 132 119 202 166 152 202 166 154 191 157 148 217 182 178 228 195 190 243 210 201 213 183 173 186 157 153 236 211 206 216 192 182 146 126 115 226 209 199 104 85  79  81  52  57  89  51  62  91  47  62  95  45  54  118 65  61  152 72  63  195 63  59  214 56  55  218 60  61  191 55  57  127 36  41  92  32  40  77  37  46  72  46  59  61  43  57  55  39  52  57  33  46  58  28  40  59  26  37  58  26  37  50  28  40  46  30  41  44  32  44  44  34  45  44  31  41  41  29  33  44  33  27  40  32  13  61  55  19  91  85  37  91  86  31  93  86  34  103 91  51  91  75  50  104 81  73  119 92  97  123 93  105 116 84  99  118 84  101 124 87  105 124 85  103 121 84  101 121 88  105 118 87  102 121 89  102 123 90  101 114 78  88  94  61  70  76  49  58  69  43  56  78  47  63  77  49  64  68  48  59  66  49  55  73  52  49  83  39  36  133 48  51  165 66  61  178 86  65  176 91  60  171 95  61  165 95  59  160 98  59  156 103 63  150 105 66  144 104 68  140 105 73  135 105 77  126 102 78  115 96  79  108 96  82  105 98  88  101 101 93  99  98  93  100 95  89  72  65  59  62  55  49  65  58  52  60  55  51  60  55  51  61  56  52  55  52  47  56  52  49  51  50  46  51  50  46  54  55  50  49  51  46  49  54  48  50  55  51  46  51  45  28  33  26  20  22  17  21  21  21  18  16  17  29  26  21  38  36  21  100 104 71  76  83  41  58  66  19  35  44  0   24  34  0   56  67  33  
140 72  85  135 67  80  132 62  73  127 60  69  126 59  68  122 57  63  115 54  59  112 53  55  114 58  59  116 60  59  118 62  61  126 68  67  129 67  68  157 93  94  137 69  70  144 76  77  143 79  79  130 69  68  116 54  57  122 57  65  121 50  64  121 47  64  129 47  69  137 52  75  134 46  70  133 45  69  132 44  68  130 45  68  131 47  70  133 49  73  133 49  75  132 48  71  127 47  60  140 47  57  171 44  61  177 59  73  88  20  19  49  10  3   60  31  27  70  36  37  82  31  38  88  21  30  105 19  28  151 72  77  135 88  82  123 94  88  126 97  99  122 97  92  106 86  61  89  73  37  72  59  17  82  72  23  105 100 42  100 101 33  102 106 30  101 110 29  103 112 31  107 116 37  120 126 54  141 141 79  123 115 66  111 97  60  119 98  71  127 99  87  122 89  96  128 91  108 122 89  100 114 83  89  116 90  89  196 176 167 255 242 228 252 239 222 240 229 207 118 110 87  127 121 95  249 245 218 210 206 179 156 155 127 244 243 215 139 138 110 187 181 157 247 241 219 133 124 107 204 194 182 243 230 222 112 98  95  56  42  41  62  48  47  68  53  50  155 140 133 254 242 230 203 191 175 252 241 219 225 215 188 234 228 196 236 231 199 81  82  50  235 236 205 185 179 153 241 230 208 220 207 191 52  39  23  220 212 191 251 239 217 106 84  70  74  56  42  235 234 216 242 247 224 244 245 214 240 231 202 106 78  64  137 109 95  253 239 213 195 188 159 70  65  36  112 106 80  249 242 214 195 188 160 179 171 148 249 238 220 136 116 107 79  46  39  106 53  45  123 63  52  154 97  78  255 231 212 241 220 203 145 140 121 243 245 223 168 172 147 166 162 137 253 240 221 170 147 133 182 159 145 254 239 220 168 153 132 231 208 192 255 230 213 131 108 92  230 201 185 209 167 151 137 88  74  191 133 122 150 93  84  116 67  62  92  51  45  93  56  47  102 65  56  97  59  50  102 57  51  118 65  61  120 61  57  116 52  52  131 67  65  117 56  55  125 65  64  126 65  64  124 60  60  126 58  59  136 66  68  130 61  64  132 66  68  120 59  58  132 71  68  146 83  78  152 85  77  157 84  77  176 103 94  187 119 108 210 146 134 168 108 97  203 145 133 210 151 143 161 100 95  160 96  94  205 150 147 208 168 158 159 127 112 232 204 182 212 186 163 218 192 175 209 183 170 209 185 175 219 195 183 186 165 146 212 194 174 173 156 138 230 214 198 206 189 179 160 144 131 148 132 116 204 187 171 153 133 124 231 211 202 253 236 220 116 101 82  220 207 190 88  70  60  91  61  63  91  51  60  98  52  65  91  46  53  102 58  55  142 77  71  177 63  63  208 58  60  227 55  55  219 56  57  167 48  50  118 36  40  92  32  40  81  43  54  68  46  59  58  42  55  58  36  49  58  32  43  60  29  37  60  30  38  55  32  40  48  31  41  44  31  41  44  32  44  46  30  43  44  28  38  43  31  33  45  35  26  46  35  13  63  52  20  81  69  31  89  75  40  105 87  63  121 99  86  126 102 102 110 83  92  118 87  102 126 95  111 116 84  99  117 85  100 127 94  111 121 90  106 112 85  100 103 77  90  107 75  88  107 75  86  89  59  69  71  44  53  72  46  57  81  55  68  74  43  59  75  47  62  73  49  62  69  50  56  62  46  46  75  44  42  108 38  46  155 65  65  178 81  65  183 88  60  179 92  62  169 93  59  160 96  58  156 101 60  152 105 63  147 103 64  144 104 69  142 105 76  134 102 77  123 96  77  113 94  80  108 98  88  104 100 91  98  98  90  101 96  90  78  71  65  63  56  50  66  59  53  63  56  50  62  55  49  63  55  52  55  50  46  46  41  37  39  36  31  51  50  46  52  53  48  54  55  50  52  54  49  40  42  39  38  43  37  38  44  32  33  39  29  36  36  38  24  23  28  42  40  43  50  50  42  62  64  40  112 118 82  93  100 58  36  45  2   28  38  3   46  55  24  
108 27  44  104 23  40  104 25  44  102 25  43  94  19  39  95  24  42  93  27  41  80  18  29  72  12  20  74  15  21  72  11  16  80  15  21  75  4   12  76  0   10  94  14  25  102 18  31  117 31  44  129 45  58  131 53  66  125 53  67  120 54  68  128 61  78  126 57  75  120 47  66  130 53  73  134 52  74  134 52  74  133 49  72  131 47  70  133 47  72  133 47  74  131 47  70  132 56  69  139 49  61  168 39  57  188 60  75  124 35  39  70  12  10  62  26  26  62  30  33  71  24  32  82  16  26  104 14  24  153 66  72  149 89  88  122 81  79  125 92  99  116 90  93  119 97  84  97  81  56  69  54  25  79  67  29  100 92  45  98  93  35  99  100 30  98  102 25  100 105 23  101 106 26  101 102 32  115 110 52  112 100 58  116 99  71  121 98  84  119 89  89  122 86  100 125 88  106 120 87  98  121 92  96  120 96  92  219 201 189 255 243 226 198 187 165 250 244 218 204 199 170 130 126 97  247 243 214 181 177 148 190 186 157 253 249 220 101 95  69  213 207 181 254 248 226 105 96  79  220 210 198 255 246 240 77  63  60  50  36  33  64  51  45  62  48  39  159 145 132 254 243 225 218 207 185 255 250 225 221 211 184 246 239 210 188 184 155 107 110 81  245 245 217 149 142 114 246 234 210 219 208 186 63  52  32  244 233 211 252 237 216 83  60  44  98  81  63  238 237 216 223 229 203 229 229 203 250 240 215 115 88  71  160 131 115 255 243 217 183 174 145 95  88  60  144 138 112 248 242 216 177 171 147 212 205 186 252 238 225 116 91  84  86  45  41  108 45  38  156 83  74  182 113 98  255 229 214 219 189 179 166 152 141 243 236 220 147 142 122 204 193 173 221 200 183 118 79  72  170 129 123 147 118 104 110 81  65  126 87  72  114 67  57  114 61  55  119 59  51  136 66  56  153 79  68  144 74  66  123 58  52  121 62  58  114 61  57  121 72  67  119 72  66  114 67  61  117 67  60  129 71  67  128 67  62  131 67  65  127 66  61  131 72  68  111 56  51  122 67  62  132 77  74  121 63  61  162 104 102 177 119 115 143 90  82  209 161 149 228 180 166 183 135 121 245 193 179 217 159 147 255 214 202 255 225 211 255 221 207 218 164 154 199 140 132 193 130 121 159 96  87  161 101 91  239 190 176 232 196 180 207 185 162 215 200 171 219 208 178 200 190 165 161 150 132 200 184 171 191 175 160 129 112 92  239 224 201 177 165 143 239 231 212 193 183 171 157 148 133 135 124 102 215 200 179 126 106 97  227 205 194 229 211 191 120 102 80  234 217 199 83  59  49  96  60  62  97  51  62  98  50  62  97  50  60  98  58  59  131 73  72  161 65  67  200 66  67  227 55  53  225 53  49  199 61  59  151 45  47  108 33  40  84  37  47  66  39  54  56  39  55  55  37  49  58  35  45  60  30  38  61  32  37  56  33  39  50  33  39  45  32  41  45  31  44  48  30  44  48  30  44  41  25  36  47  32  37  46  31  24  52  36  21  64  47  27  85  67  47  108 85  77  113 89  87  113 86  95  127 99  113 123 95  110 111 83  98  110 82  97  105 77  92  95  68  85  95  68  85  96  73  89  92  68  82  100 68  83  96  64  79  77  51  62  68  47  56  74  51  61  74  50  63  76  48  63  74  46  61  75  47  61  74  51  61  66  51  54  79  54  57  91  38  48  132 53  58  175 73  61  188 82  60  186 92  64  174 94  61  163 95  56  158 101 58  153 104 61  148 103 62  147 101 65  147 104 72  142 102 77  130 98  77  119 96  82  113 96  86  105 98  88  100 97  88  101 96  90  88  81  75  66  59  53  66  59  53  62  55  49  62  55  49  61  53  50  56  48  45  32  27  23  27  22  18  48  44  41  47  46  42  51  50  46  43  44  39  23  23  21  25  28  21  25  33  18  34  42  29  50  51  53  47  46  52  46  43  50  25  24  22  22  23  5   84  87  58  98  104 66  36  44  3   36  43  10  38  47  16  
83  35  51  82  34  50  87  35  57  87  35  58  84  31  57  84  31  59  81  31  56  73  25  47  75  31  48  69  27  41  61  19  31  66  23  33  72  26  37  58  12  23  72  24  38  74  20  36  114 45  63  115 44  60  109 45  61  95  37  52  82  29  45  71  23  37  64  16  30  63  13  25  89  35  48  105 45  57  121 53  68  131 54  72  133 52  71  134 49  70  136 46  71  135 47  69  129 44  63  141 47  63  160 40  52  171 47  57  165 58  64  91  9   13  70  21  25  69  34  40  72  31  39  92  32  40  100 13  21  150 58  61  145 69  71  147 86  91  134 87  103 122 88  104 115 90  96  112 92  91  110 92  82  99  82  64  90  73  43  104 91  47  116 107 52  102 96  34  103 98  34  102 96  34  94  87  33  105 93  51  108 92  66  116 97  83  121 95  94  120 90  98  122 89  106 126 93  110 120 90  102 102 77  81  95  76  72  233 219 210 240 228 214 123 116 98  248 241 222 191 186 166 158 151 132 253 246 227 190 182 163 224 213 193 255 244 224 93  82  60  235 228 200 255 251 225 86  79  61  251 241 231 238 224 223 65  51  51  62  48  48  59  46  40  56  42  29  172 160 138 248 238 211 249 240 209 240 231 202 245 235 208 255 247 226 138 130 111 177 171 149 254 246 223 177 163 137 254 240 213 227 220 192 75  68  42  242 230 208 254 236 216 124 102 81  131 114 94  241 241 217 187 191 166 223 221 200 254 241 222 117 94  76  192 167 145 254 239 210 252 241 211 196 189 163 175 169 145 246 240 216 129 123 101 234 227 209 252 235 225 84  55  51  96  48  46  114 41  35  163 80  72  186 106 95  183 116 107 132 92  90  102 74  73  100 71  67  87  57  49  85  53  40  84  41  32  124 62  65  151 86  90  132 82  75  135 85  74  150 86  77  152 74  72  181 89  94  183 79  86  189 81  79  183 86  79  132 60  48  124 64  53  123 59  57  130 66  66  122 61  60  121 62  58  128 73  68  129 79  70  169 125 114 172 130 116 173 133 121 181 142 127 137 99  86  162 126 112 245 211 199 127 98  84  198 172 159 255 232 216 251 229 208 128 102 79  216 185 164 254 224 200 165 139 114 255 231 206 170 133 114 171 134 116 242 213 197 199 161 150 125 62  57  189 115 112 174 105 98  157 93  81  158 99  81  248 200 180 236 198 179 151 125 102 236 220 187 206 195 163 202 192 165 143 130 111 160 142 130 226 204 191 182 156 139 194 169 149 182 164 144 211 194 178 200 182 170 156 138 124 138 117 96  223 198 178 206 176 168 194 161 152 163 135 114 95  67  45  152 123 105 89  55  46  98  52  55  104 52  64  104 50  63  103 51  63  102 56  66  119 64  70  148 67  73  183 69  68  214 60  52  222 56  44  215 62  56  184 56  55  133 42  47  90  33  42  65  34  49  55  38  54  54  38  51  56  36  47  58  33  39  58  32  35  55  35  37  52  36  39  50  35  42  49  33  44  52  31  46  53  32  49  53  34  54  49  32  50  46  29  37  53  34  36  67  47  46  97  76  75  122 97  103 112 84  96  110 81  99  99  70  88  91  64  81  91  67  83  96  72  88  96  73  89  93  72  89  91  70  89  89  68  85  90  66  82  101 68  87  95  64  80  73  53  65  68  52  63  72  52  64  66  42  56  75  48  63  73  45  60  73  41  56  75  45  57  69  52  60  71  50  57  78  38  49  102 35  42  164 60  51  187 72  53  188 88  62  178 93  62  165 96  57  158 101 58  155 104 59  152 103 62  150 100 63  151 102 70  148 102 78  138 100 79  126 97  83  114 96  84  106 98  87  102 98  87  103 96  88  98  91  83  71  64  58  66  59  53  63  54  49  64  55  50  60  52  49  59  51  48  44  36  33  41  36  32  56  52  49  53  52  48  52  51  47  33  34  29  22  22  20  26  29  22  16  25  8   13  24  8   39  43  42  49  50  55  51  50  58  16  14  17  25  25  13  30  32  8   98  104 70  55  63  26  44  51  18  35  42  11  
72  39  56  72  39  56  71  36  58  75  37  62  78  38  65  77  34  62  71  31  58  72  32  58  65  27  48  65  31  48  67  33  47  61  27  41  62  28  42  64  28  42  65  28  45  83  40  57  92  40  53  86  32  46  80  29  46  66  23  40  60  24  38  56  20  32  47  5   15  42  0   1   44  0   0   69  12  18  99  38  45  118 50  61  128 51  67  132 49  69  135 47  71  136 48  72  132 47  66  142 50  65  148 40  53  172 54  66  176 56  66  118 17  25  87  22  26  69  24  27  73  32  36  75  22  28  101 22  28  137 46  53  162 75  83  151 77  90  136 85  104 125 87  110 120 92  107 113 87  98  118 93  97  118 94  90  116 94  80  115 95  70  103 87  53  112 97  56  102 89  44  92  79  35  78  64  27  97  80  52  110 91  77  118 94  92  116 91  97  118 90  104 105 74  90  84  56  71  76  57  63  71  55  56  78  60  56  245 228 220 252 235 225 141 127 114 247 238 223 164 157 141 194 187 171 248 239 222 254 242 226 253 242 224 243 230 213 93  82  60  249 244 215 241 237 208 91  84  65  244 237 221 231 218 210 48  34  31  64  48  48  62  47  44  66  52  41  165 152 133 254 245 214 251 242 209 207 198 169 255 247 225 246 237 220 86  77  62  238 226 210 251 238 221 255 248 228 247 232 209 230 224 200 107 101 79  255 242 223 253 234 217 218 197 178 154 136 116 249 241 220 166 159 140 227 211 195 255 236 219 139 110 92  222 194 173 255 235 212 249 231 209 155 138 120 159 143 127 179 166 149 92  79  63  124 108 95  107 82  75  83  43  41  109 51  50  129 48  45  176 87  83  142 62  55  107 42  36  99  51  51  96  57  58  98  56  57  98  55  49  100 60  50  119 70  63  143 77  81  154 83  87  146 87  81  148 90  79  157 86  80  169 85  83  173 72  80  187 80  86  171 67  64  154 66  56  126 64  49  167 118 103 161 106 101 129 71  69  232 179 173 168 118 109 183 135 125 148 106 92  255 229 211 198 173 153 254 233 214 209 188 169 250 224 207 185 158 141 255 238 222 165 146 129 251 238 219 169 161 138 153 143 116 154 140 113 187 165 141 255 240 214 236 216 189 255 238 213 145 117 96  135 106 88  229 206 188 215 179 165 154 89  85  174 94  93  169 90  85  170 98  86  163 102 83  251 199 177 133 87  71  153 116 97  217 190 163 227 206 177 209 191 167 205 182 166 180 147 138 195 157 148 133 95  82  198 161 145 144 108 94  118 84  74  111 81  71  112 80  69  85  49  33  99  60  45  89  44  38  91  46  40  98  54  41  107 64  48  105 63  51  105 60  55  113 61  65  111 55  64  113 57  66  104 51  61  102 54  66  111 58  68  141 71  79  161 67  67  197 63  54  217 63  51  217 59  50  208 63  58  165 50  53  111 31  40  75  33  43  62  42  53  55  42  52  55  39  49  63  38  44  61  35  38  59  34  37  57  38  40  54  37  43  50  33  43  52  29  45  52  29  47  48  26  47  57  35  56  46  25  40  53  33  44  83  62  71  98  72  85  97  69  84  96  65  83  99  66  87  98  67  85  99  71  86  97  73  87  93  71  84  91  70  85  91  70  87  91  70  89  91  73  89  90  67  85  100 69  87  93  64  82  69  51  65  63  50  60  72  55  65  70  50  61  68  46  58  77  51  64  80  48  61  78  48  60  73  52  61  60  39  48  77  47  57  93  38  44  145 50  46  177 63  52  187 82  61  181 90  61  167 95  55  159 100 56  160 101 59  158 100 62  153 99  63  151 101 68  149 102 72  144 102 77  131 99  78  119 96  80  108 96  84  105 98  88  102 95  87  104 97  89  73  66  58  66  57  50  64  55  48  65  56  51  62  53  48  63  55  52  62  54  51  57  52  48  56  52  49  52  51  47  52  51  47  28  27  23  23  24  19  23  26  19  23  31  16  22  30  15  52  57  53  43  44  48  43  42  48  27  25  26  18  18  8   22  24  3   60  63  34  63  69  35  60  66  32  45  51  17  
73  42  60  69  38  56  68  33  53  71  33  54  72  32  56  69  30  51  68  26  48  64  25  44  65  26  44  72  34  49  73  35  50  66  28  41  62  21  35  67  25  39  76  32  47  81  37  50  73  32  38  70  33  40  47  17  27  32  8   21  25  5   16  28  0   8   46  0   1   80  16  17  120 49  47  107 37  35  65  5   4   95  36  40  119 51  66  127 52  75  124 41  69  135 53  76  124 50  63  133 53  64  142 45  64  159 46  66  183 54  74  155 35  47  94  13  12  84  25  21  75  27  27  80  29  34  91  24  33  112 30  44  157 64  82  146 65  84  134 85  107 122 89  110 122 89  106 123 91  104 121 91  101 117 90  95  118 92  93  119 96  90  117 97  86  115 96  79  101 83  61  73  55  31  59  41  21  75  53  39  93  69  65  92  67  70  83  57  68  78  51  66  73  45  60  68  46  58  62  58  57  57  57  49  104 90  81  254 230 220 255 233 222 246 220 207 211 195 179 57  48  31  220 211 194 247 238 221 235 227 208 251 243 222 227 219 196 110 104 80  247 242 220 229 227 202 102 98  73  252 246 220 197 187 160 66  53  34  67  49  45  63  44  46  69  51  51  172 158 147 252 242 215 242 236 204 176 164 140 255 242 225 232 220 208 96  86  76  247 235 223 225 213 201 131 119 105 255 244 230 220 211 196 145 135 123 255 243 231 250 233 223 193 173 162 176 154 141 227 203 191 139 111 99  166 132 122 166 126 116 113 67  54  118 74  63  95  57  48  75  40  34  75  40  34  85  52  47  76  47  41  76  49  40  85  56  48  95  58  50  100 49  45  117 49  48  152 62  64  175 85  85  119 50  43  111 56  49  106 52  50  105 55  54  107 59  55  103 58  52  97  59  46  115 75  63  134 81  75  161 104 97  167 117 106 169 117 104 154 96  85  197 130 122 167 92  89  171 98  92  234 174 163 172 125 107 199 162 143 255 234 217 252 218 206 184 152 141 213 190 174 219 196 178 242 211 193 179 150 132 252 234 212 131 120 98  234 229 207 131 124 105 247 228 214 155 129 116 255 231 216 213 190 172 255 237 217 154 139 116 225 213 191 255 244 223 167 146 127 255 239 220 193 162 144 255 226 209 175 142 125 143 110 93  220 189 169 240 198 182 144 80  71  179 100 95  179 91  87  182 99  91  173 106 90  213 154 138 127 69  57  143 89  77  137 88  73  128 85  68  110 73  57  101 59  47  117 59  55  109 48  45  119 61  57  118 61  54  118 59  55  118 60  56  117 64  58  119 66  60  121 64  57  122 61  56  124 60  58  124 60  60  123 59  59  122 60  61  118 62  61  117 63  63  116 62  62  114 60  60  113 58  63  108 55  61  105 58  68  104 54  65  133 72  79  150 70  73  174 65  62  202 67  61  214 57  48  224 62  57  204 59  62  148 37  43  98  36  39  63  34  36  54  42  44  54  42  46  65  35  43  67  34  41  65  34  39  58  33  37  57  38  44  54  37  47  56  33  49  52  28  44  57  33  47  50  26  40  50  30  42  67  47  59  86  63  79  97  70  87  100 67  88  102 64  85  106 67  86  106 69  86  102 70  83  98  70  82  99  73  84  100 76  89  100 73  88  94  70  86  93  70  88  92  69  87  96  69  86  89  65  81  68  48  60  71  55  65  67  52  59  66  51  56  69  53  56  69  48  53  76  49  58  71  44  53  71  48  56  63  42  49  67  46  53  80  41  46  104 28  32  169 70  65  184 74  59  189 90  61  167 94  51  166 104 57  166 94  56  166 95  63  159 98  67  153 100 66  147 103 64  144 106 69  139 102 73  128 97  76  113 97  84  106 97  90  102 95  89  107 100 92  80  73  65  71  62  53  63  53  44  64  54  45  66  55  49  64  55  50  62  54  51  59  54  50  58  54  51  54  53  51  48  47  43  37  38  33  27  28  23  22  23  17  27  30  21  44  47  40  45  47  42  50  50  48  50  50  48  45  46  41  26  26  16  23  24  8   20  22  0   85  86  55  95  96  62  93  93  55  
52  21  37  52  21  37  53  19  36  55  18  36  53  14  32  54  13  31  57  16  34  62  21  37  65  24  40  65  24  38  60  19  33  53  11  23  53  9   22  63  17  28  73  25  37  74  31  40  63  29  30  30  6   6   20  3   9   16  0   10  17  0   10  30  0   6   115 54  59  178 96  98  194 100 100 189 98  95  149 71  69  80  8   11  116 42  55  123 46  66  136 53  79  130 51  73  126 52  65  133 55  68  129 40  62  149 42  68  176 50  72  171 50  65  104 16  15  95  30  24  81  31  30  71  25  27  85  28  35  98  26  38  150 61  79  132 53  74  123 78  98  115 86  104 120 87  106 122 89  106 123 90  107 122 91  107 121 93  107 122 95  104 120 95  99  118 94  94  114 91  85  93  70  62  72  49  41  66  43  37  71  47  47  76  51  57  74  48  59  71  45  58  81  50  65  80  57  67  52  47  44  61  58  49  131 117 106 255 235 223 255 227 216 213 184 170 73  50  34  109 90  73  231 215 199 253 240 221 126 118 97  255 248 225 218 207 185 131 120 98  252 245 227 199 194 174 141 135 111 252 245 217 248 234 205 178 162 139 71  50  47  67  42  48  70  47  53  177 156 151 255 242 221 222 201 174 184 159 139 255 234 220 193 175 165 161 144 137 250 231 224 178 158 151 102 83  76  180 161 154 161 142 136 100 81  75  111 90  85  93  70  64  77  52  47  89  59  51  73  36  30  95  55  47  136 89  83  121 68  60  136 81  74  99  46  40  91  46  43  91  49  50  94  52  53  99  57  58  92  54  53  97  59  56  95  58  52  95  52  45  109 51  47  119 48  46  158 72  73  144 63  62  123 66  59  126 79  69  110 57  53  114 61  57  107 60  52  186 146 136 232 200 187 217 185 170 147 109 96  247 208 193 255 236 220 255 222 204 183 141 125 255 217 202 222 173 159 208 162 147 255 231 210 184 164 140 245 225 201 222 201 180 148 127 110 236 217 202 159 147 125 252 240 216 255 239 216 252 228 204 250 230 206 112 100 76  249 243 221 241 233 214 221 202 187 96  70  55  255 224 209 209 178 158 252 224 202 231 205 182 217 192 172 247 222 202 142 113 97  255 242 226 161 117 104 255 229 216 191 145 130 157 111 96  224 178 162 226 170 155 147 74  65  187 99  95  196 101 97  179 86  81  152 74  64  137 67  57  128 58  50  143 72  66  140 71  64  138 75  66  128 74  64  127 68  60  145 71  68  139 63  63  137 67  65  135 65  63  138 62  62  139 63  63  136 66  64  137 68  63  141 66  63  141 63  61  138 64  61  137 63  62  136 61  66  134 61  68  129 63  67  125 63  64  121 61  60  118 60  58  116 56  58  112 55  61  109 58  67  108 57  66  129 69  77  145 73  77  162 66  67  188 66  63  215 62  56  221 56  52  214 54  56  193 60  63  117 36  33  83  39  36  62  42  41  58  42  45  65  35  45  68  32  44  69  36  43  62  33  38  57  32  38  99  73  82  105 79  92  97  69  83  84  52  65  75  45  55  70  44  57  77  53  67  90  66  82  99  70  90  104 69  89  106 67  86  105 64  82  106 68  83  104 72  83  104 74  84  102 75  84  101 73  85  101 69  84  98  67  83  96  69  86  93  68  87  97  68  86  92  64  79  75  47  61  78  55  65  73  54  60  72  56  59  76  57  61  71  50  55  69  44  50  70  43  52  70  43  52  69  43  52  63  42  49  73  38  45  91  26  32  146 56  56  182 71  60  188 82  58  175 96  55  166 98  51  171 93  57  170 95  64  161 98  67  153 100 66  147 104 61  145 106 63  143 103 68  133 99  74  118 96  83  110 97  89  106 99  91  103 96  88  95  86  77  70  60  51  69  56  47  67  54  46  68  57  51  63  54  49  62  52  50  58  53  50  58  54  53  56  55  53  53  52  48  46  47  42  40  41  35  38  39  33  40  41  36  49  50  45  49  50  45  52  53  48  43  44  39  34  35  29  20  22  11  21  22  8   21  22  4   43  43  17  110 109 78  121 121 85  
51  19  32  51  17  31  53  17  31  54  16  31  57  16  32  60  18  32  66  24  38  72  30  42  75  33  45  68  26  36  59  17  27  53  11  21  58  15  25  70  24  34  77  30  40  75  34  40  52  24  21  14  0   0   19  7   7   20  5   8   27  0   9   75  28  38  166 89  99  202 100 111 210 93  101 215 92  97  207 92  97  176 71  76  105 9   20  118 30  44  132 48  64  131 48  64  131 48  64  136 51  70  135 47  71  138 43  67  157 45  67  171 66  80  117 37  36  83  24  18  81  33  31  69  25  26  78  28  31  85  24  31  130 54  64  125 57  68  105 67  78  92  68  82  99  71  93  103 73  99  107 77  103 112 80  104 117 83  107 121 88  109 122 91  106 121 91  101 125 99  102 116 92  90  96  72  68  74  53  50  70  45  48  76  51  57  80  54  65  80  50  62  85  52  63  81  48  57  89  60  64  78  57  52  154 137 127 255 243 228 172 153 136 86  60  43  108 75  58  131 98  81  255 231 211 239 221 199 154 144 119 254 243 221 189 171 151 170 151 134 255 241 228 162 150 136 164 152 136 251 236 217 255 239 218 163 137 124 67  36  41  71  39  50  76  46  54  175 141 140 231 185 169 150 99  78  150 98  85  145 101 92  94  63  58  87  59  56  83  49  47  77  39  36  80  42  41  88  50  49  81  42  43  93  54  55  92  53  54  90  52  51  94  54  54  98  54  51  99  54  51  123 74  69  127 76  72  130 75  68  150 93  86  119 64  59  101 53  51  103 59  58  109 69  67  94  54  52  100 59  57  164 123 121 118 81  75  99  56  49  112 54  50  121 56  52  170 101 96  130 67  60  202 158 147 254 214 202 147 98  93  108 59  54  189 149 141 255 231 218 201 180 163 150 132 112 158 132 115 196 174 153 163 147 124 248 233 210 174 160 134 255 237 213 255 231 207 253 233 208 245 235 208 209 204 175 241 234 206 238 226 202 164 145 128 170 149 132 126 108 86  254 234 210 255 232 207 254 222 199 255 229 206 109 78  57  249 224 202 221 199 178 255 230 210 173 145 124 243 205 184 211 169 145 178 132 108 251 207 182 249 207 185 150 107 88  120 74  58  169 118 101 132 74  60  172 110 97  114 50  38  169 101 90  156 83  74  152 74  64  165 74  69  176 76  74  172 68  67  169 69  67  150 61  55  160 75  68  154 66  62  160 72  70  151 66  63  151 72  67  143 74  67  139 70  63  151 72  68  146 65  64  146 71  68  144 69  66  149 65  65  151 65  66  149 68  67  150 69  66  154 66  65  153 65  64  147 68  64  145 67  65  145 66  71  145 66  72  139 67  71  136 66  68  133 63  63  130 62  61  129 58  62  124 57  64  119 59  69  116 58  70  124 63  71  145 73  77  158 66  67  178 62  62  209 65  64  213 54  51  224 60  59  210 66  65  158 56  51  103 38  32  77  39  38  67  42  46  71  41  53  68  36  51  70  38  49  65  32  39  91  56  62  152 115 123 159 121 134 159 118 132 159 119 130 153 115 126 145 112 123 141 109 122 137 105 120 127 95  110 116 79  97  107 68  86  112 75  92  110 76  90  109 79  91  106 79  88  103 76  85  104 72  83  108 70  83  110 72  87  105 71  87  102 69  86  105 68  86  100 59  77  87  46  64  90  52  67  85  52  63  84  54  64  81  54  63  78  52  61  71  44  53  79  49  61  74  42  55  79  45  59  73  39  53  81  37  50  85  25  33  120 38  40  178 67  60  187 75  55  187 94  60  170 91  50  170 94  60  167 96  64  161 98  67  154 100 64  147 102 60  147 105 63  146 103 68  138 101 74  125 97  83  115 96  89  110 100 91  103 96  88  107 98  89  77  67  58  70  57  49  71  58  50  67  56  50  63  54  49  63  53  51  58  53  50  57  53  52  57  56  54  56  55  51  54  53  49  52  51  46  51  52  46  50  51  46  50  52  49  50  52  49  50  52  49  32  34  31  22  24  19  16  19  12  21  23  12  21  23  9   16  18  0   44  47  20  103 103 75  
56  20  30  54  18  28  56  16  27  59  19  30  67  23  36  72  28  41  74  31  41  75  32  42  75  32  41  67  26  34  60  17  26  59  16  23  67  21  31  76  29  37  79  29  38  71  30  34  46  23  17  17  4   0   12  7   3   17  5   5   24  0   1   129 73  86  185 98  115 194 83  100 212 81  97  225 87  100 215 81  92  212 91  98  175 72  76  108 17  24  133 46  55  132 46  59  137 48  68  129 41  65  138 54  80  134 46  71  142 43  64  154 56  71  141 61  64  95  27  28  81  22  26  82  30  34  83  28  33  84  23  28  104 33  39  129 64  70  103 64  69  93  67  78  88  63  84  88  64  90  91  65  92  95  66  94  101 68  95  107 73  97  112 79  98  114 82  97  113 82  90  114 85  89  108 79  81  96  67  69  88  57  62  86  55  61  88  55  64  90  52  63  93  50  60  94  49  56  100 53  59  104 65  66  199 174 167 246 228 216 150 127 113 120 88  73  127 81  68  165 119 104 255 236 217 228 203 183 168 150 130 255 237 220 168 142 129 196 169 160 242 219 211 132 112 105 170 151 144 183 163 152 149 121 110 100 67  62  85  47  58  77  41  55  72  39  46  86  42  41  103 33  23  146 64  52  162 85  79  104 40  38  78  34  33  87  52  50  88  44  45  94  46  46  100 51  54  90  41  44  95  46  50  109 60  64  103 54  58  103 54  57  109 61  61  107 57  56  113 63  62  173 124 119 160 111 106 216 166 159 231 181 172 207 159 149 213 170 164 125 88  82  255 225 218 110 77  70  174 134 132 247 208 203 240 207 198 114 77  68  112 62  55  162 105 96  250 198 187 186 142 129 206 173 158 255 225 210 131 88  81  105 60  54  236 202 192 223 197 184 165 146 129 216 199 181 168 150 130 200 184 161 243 233 208 236 231 202 185 180 151 222 213 184 237 221 195 255 240 214 219 210 181 209 200 171 215 201 174 255 239 215 234 212 191 252 223 205 124 92  71  238 200 179 246 204 180 212 164 141 255 217 196 129 72  53  219 167 146 150 102 82  172 127 106 152 104 82  165 107 85  133 67  43  147 77  52  140 68  44  121 53  34  140 73  56  173 104 88  167 95  80  168 92  78  159 79  68  172 88  78  172 83  75  175 82  75  168 69  64  171 67  64  177 71  71  177 71  71  172 68  67  175 77  74  164 69  65  169 71  68  170 70  70  162 64  63  162 71  68  156 75  71  152 73  68  161 73  71  157 69  67  152 71  67  151 70  66  157 67  66  160 66  66  159 69  68  160 70  69  163 69  67  160 69  66  154 71  65  151 72  67  154 70  70  151 69  71  147 69  69  143 67  67  139 64  61  137 62  59  137 61  63  132 59  66  123 60  69  121 61  71  120 59  66  145 76  79  155 71  71  170 66  65  193 65  64  209 63  63  223 61  59  210 57  51  196 74  63  137 47  38  93  33  32  80  39  45  74  40  56  68  37  53  69  37  48  80  45  52  144 101 108 167 120 128 158 112 122 162 116 127 165 117 129 163 117 128 157 117 128 153 115 126 154 118 130 157 121 133 157 119 134 154 118 132 144 110 126 136 104 119 124 96  110 116 88  100 114 81  92  114 74  85  122 72  84  125 75  87  118 74  87  115 73  87  116 69  85  105 57  73  95  47  63  96  49  65  91  49  63  89  51  64  83  51  62  85  55  65  85  55  67  87  57  69  82  48  62  81  45  59  81  40  56  88  42  55  84  33  40  102 30  31  167 59  56  187 69  55  194 89  60  179 89  55  172 93  62  166 97  66  161 98  65  155 99  64  150 101 60  149 104 62  149 105 68  143 104 75  132 99  82  121 97  87  112 98  89  108 99  90  108 98  89  94  84  75  70  57  49  69  58  52  64  53  49  64  54  52  63  55  53  61  53  51  57  51  51  57  53  52  57  53  50  53  52  48  53  52  47  52  53  48  51  53  50  48  50  47  48  50  47  46  48  45  23  25  22  16  21  17  19  21  16  21  24  17  23  26  15  19  23  8   16  19  0   29  32  11  
57  17  25  57  17  25  61  18  27  65  22  31  73  26  36  76  29  39  75  30  37  73  28  35  73  28  35  65  22  29  63  18  25  65  20  25  71  26  33  75  28  34  77  28  34  70  28  30  48  23  19  15  2   0   7   6   1   18  10  8   28  0   5   150 91  109 175 87  112 197 84  112 214 84  108 222 85  103 224 89  103 215 94  99  190 92  91  173 85  84  114 25  31  125 35  47  138 46  67  131 43  68  129 49  76  132 49  75  139 44  68  138 39  59  153 59  73  135 45  57  104 22  36  103 27  39  93  21  32  89  16  23  99  20  26  128 57  61  111 61  64  101 66  73  92  69  85  88  69  89  87  68  88  88  66  87  89  64  86  93  65  87  99  68  86  104 70  86  104 68  78  107 70  77  114 75  80  118 77  81  112 69  76  103 58  65  100 53  63  105 55  64  116 61  67  119 60  66  121 60  67  109 54  59  235 197 196 255 239 234 137 98  91  141 92  85  146 87  81  168 111 102 196 154 140 147 114 99  133 103 93  128 99  93  94  63  61  111 79  80  76  46  44  66  38  35  61  35  34  69  41  38  82  47  45  87  46  52  82  38  55  86  43  60  85  48  55  100 46  44  156 59  53  186 75  68  155 55  53  119 39  40  100 48  50  90  48  49  98  49  52  102 50  52  107 52  55  110 55  58  117 62  67  108 53  58  106 51  56  117 65  69  108 56  58  111 61  60  108 60  58  236 193 186 187 147 139 254 216 205 210 174 160 174 141 126 236 208 196 94  70  58  252 234 220 109 90  76  211 181 173 200 167 158 245 218 207 121 93  79  106 64  52  233 189 176 220 187 170 248 223 203 132 109 91  249 223 206 91  53  44  107 69  60  230 198 187 241 215 202 133 114 97  250 231 214 172 146 129 242 220 199 125 109 84  231 217 190 209 193 167 223 203 176 175 149 124 255 231 207 148 120 96  255 225 202 137 96  76  212 171 151 231 195 173 156 113 94  123 64  46  184 117 100 147 79  58  153 78  57  137 51  34  162 73  57  169 80  64  164 78  61  166 88  68  177 96  75  178 85  67  186 85  65  195 90  69  200 95  74  201 99  84  188 87  75  194 93  81  189 88  76  173 72  60  188 87  77  182 78  69  179 72  66  178 66  62  186 72  71  182 70  68  183 73  72  175 70  67  168 64  61  178 76  72  175 73  69  175 71  68  174 70  69  171 67  66  171 71  69  166 75  72  162 73  69  167 73  71  166 72  70  163 75  71  163 74  70  169 71  68  170 70  68  168 73  67  168 75  68  168 75  68  166 76  68  160 76  65  159 77  66  162 74  70  160 72  70  155 72  68  148 69  64  144 65  60  141 63  59  141 63  63  138 63  67  131 66  72  128 69  75  123 68  73  143 85  84  149 79  77  160 75  72  170 66  65  202 74  73  210 57  51  220 62  51  210 68  54  183 65  53  123 35  34  95  34  41  82  39  56  72  39  56  69  37  50  107 70  78  170 119 126 170 115 121 164 115 121 167 120 128 162 112 123 163 115 127 163 120 129 161 120 128 157 117 125 152 115 123 148 110 121 143 107 119 135 103 118 126 95  110 116 88  102 115 83  96  122 80  92  131 77  90  142 74  85  145 75  86  135 78  87  128 77  86  125 73  85  110 58  70  104 52  65  102 52  64  95  49  60  94  52  64  90  54  64  86  55  63  88  58  68  84  54  64  83  51  62  77  41  53  80  39  53  80  38  50  84  41  48  93  31  32  150 48  46  186 65  56  195 78  58  191 87  60  171 92  62  164 98  66  162 97  65  158 98  62  153 100 58  151 102 59  150 105 64  147 104 72  140 99  79  129 97  84  114 96  86  110 100 91  107 94  86  108 95  87  78  67  61  64  53  47  65  54  50  65  55  53  63  55  53  61  53  51  57  52  49  57  53  50  56  52  49  54  50  47  52  51  46  51  52  47  49  51  48  45  49  48  45  49  48  40  44  43  16  20  19  17  23  19  21  26  22  17  22  16  15  20  13  17  23  13  28  31  20  12  15  4   
61  18  25  67  25  29  75  28  36  77  30  36  78  28  37  78  29  35  78  29  35  76  29  35  77  30  36  71  26  31  70  23  29  73  26  32  76  29  35  78  29  35  80  29  34  77  32  37  58  26  29  22  4   4   16  13  8   16  8   6   40  8   19  152 93  115 167 77  112 189 77  115 207 82  116 207 79  104 204 86  100 200 97  100 184 103 99  179 104 99  176 94  98  118 30  44  124 32  55  139 53  78  125 49  75  125 50  73  137 47  72  142 44  67  145 46  66  145 46  66  140 45  65  140 51  69  146 62  77  130 44  55  121 31  40  111 26  33  113 42  48  114 57  66  105 61  74  99  62  79  98  64  80  98  66  81  98  66  81  98  66  81  102 68  82  108 70  81  117 76  84  120 75  80  129 78  83  138 83  88  136 79  85  128 67  74  124 61  69  129 64  68  125 54  52  150 75  72  147 67  70  150 75  79  177 116 115 143 83  82  124 56  53  166 92  89  170 91  86  173 96  88  135 73  60  126 72  60  149 96  90  139 89  88  124 78  81  110 65  70  98  56  57  99  61  60  68  34  35  78  44  45  88  47  51  83  37  47  100 53  71  93  46  62  92  50  54  112 47  45  185 70  67  198 69  64  164 54  53  131 45  46  116 57  59  93  47  49  105 55  56  108 54  54  109 53  56  104 48  51  115 56  60  120 61  65  111 52  56  110 54  57  116 61  64  107 57  56  116 71  66  219 181 172 187 153 141 247 218 202 204 178 161 169 148 129 245 226 209 80  65  46  240 229 211 126 113 96  184 158 145 200 172 160 242 220 206 132 106 91  110 73  57  205 166 149 210 182 161 155 133 110 114 89  69  255 233 217 137 97  87  119 76  67  166 130 118 255 231 218 251 219 204 255 230 213 132 93  78  211 170 152 246 208 189 223 187 165 195 157 134 192 150 128 136 88  66  156 104 83  137 82  62  156 95  77  139 70  55  147 78  63  129 66  48  146 78  59  184 96  82  183 85  72  189 92  75  205 104 86  202 90  76  201 85  72  199 81  69  203 91  77  193 92  74  181 82  61  209 104 83  194 83  63  203 88  67  213 98  77  206 93  77  200 86  75  203 86  76  206 89  79  198 84  74  189 77  66  188 76  65  190 75  68  191 73  69  191 73  69  186 74  70  182 75  69  178 76  71  183 84  78  175 70  66  179 74  70  182 74  71  182 74  71  181 73  70  179 74  70  173 74  69  170 73  67  171 72  67  171 72  67  170 75  69  172 75  69  176 73  68  177 72  68  175 74  66  173 76  67  171 77  67  172 78  66  169 77  64  170 78  65  174 77  70  173 76  70  167 77  69  163 76  69  159 74  67  157 74  68  159 73  72  157 75  79  152 80  84  145 80  86  139 83  84  147 89  88  146 81  79  153 78  75  159 73  74  178 70  68  207 66  59  223 67  55  221 65  50  211 69  57  170 56  55  119 34  41  92  34  48  82  41  57  89  53  65  151 111 120 166 113 121 172 115 122 170 121 125 159 114 119 165 115 126 155 107 119 138 95  104 120 79  85  106 67  72  97  61  65  98  61  69  100 64  76  99  67  82  97  66  82  97  66  81  108 70  83  131 77  90  152 82  93  165 78  87  164 74  83  154 79  86  146 79  86  140 78  83  122 63  69  118 63  69  112 59  67  106 55  64  104 57  67  98  55  64  87  47  56  81  48  55  74  43  49  80  49  55  75  42  49  79  42  50  77  37  46  82  46  50  92  36  39  134 40  40  177 60  53  192 68  56  196 84  64  173 92  63  163 97  65  163 97  65  162 98  62  157 100 57  154 101 57  151 104 62  148 104 69  145 100 77  135 98  80  118 96  83  111 97  86  109 95  86  109 96  88  95  84  78  64  53  49  68  58  56  65  55  53  63  55  53  61  53  51  58  53  50  59  54  51  59  54  51  56  52  49  55  52  47  54  53  49  49  51  50  47  51  50  46  50  49  40  44  43  17  21  20  18  24  22  19  25  21  13  19  15  20  27  20  19  26  19  14  19  13  22  27  21  
70  23  29  74  28  31  80  29  36  79  28  33  79  26  34  79  26  32  80  27  33  79  28  33  77  28  32  71  25  28  72  23  27  76  27  31  78  29  33  77  26  31  78  27  32  79  30  36  72  30  40  33  6   13  15  5   6   8   0   0   37  5   20  142 83  113 176 84  131 192 81  132 183 66  111 197 88  120 181 93  107 142 72  74  115 62  54  105 52  46  156 85  93  174 91  107 120 35  56  120 38  61  120 48  68  120 48  68  131 49  71  141 52  74  136 41  63  138 40  63  148 53  75  135 42  63  136 43  61  146 49  66  171 64  80  169 61  77  172 67  82  156 58  73  140 52  66  132 54  67  129 57  69  124 63  71  119 66  74  116 69  75  119 74  77  124 80  81  129 80  83  136 82  82  142 82  82  147 81  82  151 79  82  156 77  80  155 75  78  155 69  68  171 79  64  174 77  60  180 79  69  179 80  74  184 89  85  189 91  88  198 93  90  201 92  87  198 87  78  191 87  74  177 84  67  179 93  78  176 92  82  154 73  70  132 60  63  124 60  61  103 45  43  99  50  46  103 59  60  82  42  43  93  51  53  95  50  57  93  42  57  97  47  59  93  45  45  134 61  55  193 66  60  218 79  76  152 43  40  127 46  45  108 49  51  109 63  65  110 60  59  109 55  53  114 58  59  118 59  61  117 57  59  120 60  62  119 59  61  129 70  72  122 66  67  114 65  61  115 72  65  190 154 142 215 187 173 205 184 165 220 203 183 144 129 106 241 229 205 83  71  47  234 223 201 145 130 111 180 154 139 225 197 183 227 204 188 153 126 109 117 78  63  182 139 123 230 191 174 234 197 179 106 64  48  226 180 167 228 175 167 115 62  54  122 74  64  146 98  86  187 135 122 133 75  63  135 67  58  166 94  82  127 53  42  126 52  39  137 61  47  146 68  55  155 73  59  168 82  67  181 92  78  183 87  75  193 89  80  197 90  82  189 87  75  195 87  75  213 90  82  214 86  77  219 93  81  209 83  69  216 84  72  222 88  76  216 80  68  213 86  71  206 95  75  193 95  70  187 92  64  200 106 78  200 102 73  199 101 74  207 106 86  204 97  81  211 93  81  205 84  73  199 81  71  193 79  68  187 79  66  187 79  67  184 73  62  193 85  75  173 70  61  180 82  71  174 80  68  171 77  65  186 81  75  182 75  69  181 72  65  182 73  66  186 74  70  183 74  69  180 75  69  181 78  71  181 78  71  182 79  72  176 75  67  178 75  68  183 74  67  185 74  67  183 76  66  181 79  67  181 81  66  182 82  67  186 80  67  190 79  68  193 80  72  192 81  74  187 82  76  182 83  77  179 85  77  178 85  80  179 83  84  178 83  87  173 86  92  159 83  87  159 90  93  153 87  88  149 77  78  152 80  81  151 81  81  158 70  68  198 75  68  213 65  55  228 66  53  220 62  51  207 68  65  164 51  55  110 33  41  96  40  51  106 63  72  162 119 128 144 91  101 142 89  97  124 82  86  105 66  71  97  54  64  95  51  64  94  53  61  94  55  60  93  54  57  91  55  59  96  59  67  100 67  78  100 67  84  101 68  85  105 68  85  117 71  84  145 79  91  172 86  95  188 81  87  185 75  78  176 80  82  168 82  83  160 82  82  137 67  67  134 72  73  127 68  70  121 62  66  119 64  69  109 56  62  98  49  55  87  45  49  83  44  47  84  50  51  81  49  50  79  47  48  78  44  45  83  47  51  95  43  47  124 40  40  165 58  52  190 63  56  197 77  61  178 90  66  165 94  64  166 95  63  166 98  61  161 100 56  156 99  54  152 101 58  151 103 65  148 101 73  138 100 77  123 97  80  112 94  82  112 95  85  109 95  86  106 93  87  78  67  63  68  58  56  65  55  54  64  55  56  61  52  53  60  52  50  58  53  50  58  53  50  56  52  49  55  51  48  54  53  49  50  50  50  49  50  52  48  50  49  42  46  45  21  26  22  18  23  19  18  23  19  17  22  18  17  23  19  17  23  19  16  21  17  17  22  18  
82  31  36  81  30  35  79  26  32  79  24  30  82  27  33  85  30  36  84  29  35  79  26  32  78  27  32  74  25  29  74  25  29  79  30  34  82  31  36  78  27  32  78  25  33  80  29  38  77  31  42  43  7   17  20  1   5   26  7   13  36  2   19  124 64  98  167 77  129 185 77  135 191 83  135 170 76  113 96  29  46  52  8   9   42  9   2   49  12  6   64  8   17  115 49  63  129 63  77  68  4   18  96  38  52  111 50  65  125 52  71  127 45  67  138 46  71  145 51  75  134 42  65  140 48  69  138 45  64  145 46  66  146 37  58  152 36  57  166 50  71  163 50  68  172 66  78  165 65  75  157 64  72  151 64  72  144 63  70  140 63  69  142 70  74  146 76  78  144 74  76  157 83  84  163 85  85  162 78  78  169 79  78  183 89  87  184 86  85  177 74  67  182 77  56  202 93  70  201 91  74  196 85  74  203 91  87  201 86  83  206 84  81  215 90  84  214 88  76  214 91  75  207 90  72  204 91  73  185 74  63  179 76  69  169 74  72  152 67  64  144 69  63  130 65  59  101 43  42  111 59  61  100 50  51  98  48  51  107 51  62  107 47  57  115 55  54  140 55  48  212 75  69  206 63  57  155 50  46  136 58  54  116 56  56  117 65  67  117 61  60  125 65  64  122 61  60  131 67  67  128 60  61  132 64  65  136 66  68  127 59  60  134 70  70  121 63  61  121 71  64  192 150 138 239 206 191 179 152 133 224 202 181 153 133 109 255 240 215 219 195 171 210 183 162 255 237 219 142 104 91  223 185 172 227 191 175 91  52  37  120 72  58  129 73  60  172 112 101 124 62  49  137 70  61  137 70  62  135 68  62  129 64  58  141 77  68  146 79  70  137 63  54  165 82  74  185 92  85  173 76  69  173 72  64  179 76  67  179 76  67  184 82  70  195 91  78  199 91  79  192 80  69  210 92  82  209 84  78  213 84  78  215 87  76  220 88  76  224 83  74  233 91  81  225 87  76  228 90  77  226 86  73  227 85  71  227 83  72  221 88  73  227 115 93  235 141 113 242 163 130 247 177 141 255 188 153 255 194 162 255 177 152 173 82  63  203 93  80  211 90  81  205 84  75  205 87  77  192 80  68  190 82  69  192 84  71  185 77  65  190 86  73  185 83  69  177 80  64  190 88  74  187 75  64  191 77  67  189 78  67  190 79  68  191 80  71  186 75  66  184 76  66  187 79  69  185 77  67  184 76  66  187 76  67  189 76  68  194 77  68  196 79  70  196 82  71  196 86  73  195 89  73  197 91  75  201 90  73  203 90  74  206 90  77  202 90  78  193 89  76  186 90  78  183 91  80  183 90  83  181 81  81  180 80  82  176 81  85  163 74  78  168 88  91  158 82  84  156 76  79  161 85  87  147 81  82  159 81  79  180 68  64  206 67  60  222 61  53  230 63  55  218 60  57  207 73  72  148 50  51  111 41  43  99  46  52  122 72  81  111 53  65  111 55  66  97  56  62  97  61  65  99  57  69  96  52  65  95  54  62  95  56  61  94  55  58  90  54  56  96  59  67  104 68  80  102 68  84  103 69  86  106 68  83  119 67  79  149 78  86  184 92  95  208 92  93  209 87  84  193 81  79  186 84  80  178 85  80  154 69  64  154 76  72  143 72  68  135 65  65  134 66  67  125 61  62  118 60  59  104 53  50  102 57  52  90  51  44  88  54  45  81  48  39  82  49  44  86  47  50  101 49  53  119 45  44  154 57  51  188 63  57  194 70  58  185 90  68  168 91  61  170 94  62  169 96  61  163 98  56  157 98  54  153 99  55  151 102 62  148 102 68  141 101 75  127 99  78  117 95  81  111 93  79  113 96  86  106 93  87  96  85  83  65  55  54  66  56  55  65  56  57  62  53  54  60  52  50  59  51  49  58  50  48  54  49  46  52  48  45  53  49  48  50  48  49  49  49  51  49  49  49  47  49  46  27  29  26  20  22  19  20  22  17  23  28  22  18  23  17  19  24  18  18  23  19  15  20  16  
80  27  33  80  27  33  82  26  35  83  26  35  83  26  35  83  26  35  83  26  35  82  26  35  80  27  35  79  28  35  79  28  35  79  28  35  80  27  35  80  27  35  82  26  37  80  27  37  76  29  39  62  22  31  30  1   6   41  14  21  45  8   26  85  28  61  175 87  138 177 73  132 177 74  130 138 53  94  54  6   22  43  14  16  40  19  14  34  10  8   48  11  18  52  12  21  87  55  58  44  14  14  47  11  13  91  46  51  119 57  70  125 50  70  132 47  70  135 45  70  134 51  71  132 49  69  134 47  66  137 46  64  143 44  65  147 44  65  146 43  62  146 44  58  148 48  56  148 49  54  159 54  61  171 61  70  177 61  74  175 57  71  177 59  73  182 68  78  177 67  76  181 74  80  185 81  82  187 83  82  191 83  80  197 86  79  201 86  79  201 87  76  201 90  70  197 88  67  195 89  75  199 92  82  202 94  91  203 93  92  208 95  91  216 97  91  215 89  77  228 95  80  218 81  63  221 85  69  208 82  67  201 81  67  197 80  71  190 81  74  172 76  64  161 74  64  148 68  67  134 64  64  122 61  58  118 58  57  121 56  60  125 54  58  128 50  46  174 73  65  214 73  64  203 65  55  150 53  44  132 61  55  127 63  63  129 65  66  135 67  66  137 66  64  139 65  64  141 65  65  144 64  65  146 64  66  149 64  67  148 66  68  145 65  66  144 70  69  142 75  69  174 116 105 255 208 195 182 139 123 241 202 185 165 127 108 201 158 139 182 134 114 149 91  77  154 92  81  118 58  48  124 66  55  110 50  39  135 73  62  139 73  61  144 70  59  161 70  65  186 88  85  173 75  74  161 67  65  156 71  68  156 76  69  159 74  67  158 69  61  170 73  67  187 82  78  198 85  81  196 78  74  193 74  68  194 75  67  198 80  70  200 84  71  204 88  75  208 90  76  212 90  77  217 89  76  220 87  78  224 87  77  224 84  71  231 89  75  227 87  72  229 92  76  227 94  77  216 83  66  228 95  78  226 91  72  230 93  77  218 89  70  231 125 101 255 205 172 255 218 178 255 221 177 255 219 177 255 224 185 255 221 187 156 92  65  184 91  74  212 98  88  216 91  85  210 85  79  200 82  72  197 83  72  197 83  72  199 83  70  198 82  69  198 82  69  199 83  70  201 80  69  205 77  68  203 76  67  196 80  67  189 79  66  191 81  68  190 80  67  196 84  72  194 82  70  189 77  65  195 78  68  196 75  66  203 80  72  206 84  73  205 83  72  214 92  79  215 95  81  202 87  69  207 96  77  201 96  74  200 98  75  198 96  73  194 95  72  187 99  77  195 113 92  187 108 91  175 91  80  182 87  83  180 80  80  186 86  88  177 81  83  171 81  83  173 84  86  169 80  84  164 79  84  149 79  81  163 85  85  174 70  71  195 67  68  218 64  62  227 62  58  234 67  61  215 64  57  188 71  62  135 48  41  114 50  50  113 56  63  118 56  71  117 59  74  105 60  67  100 59  67  101 58  68  100 57  67  100 59  67  98  57  63  92  51  55  97  58  63  95  55  64  107 69  82  94  57  74  100 64  78  109 69  80  120 67  75  147 75  76  187 96  91  206 92  82  210 86  76  216 95  87  197 80  73  201 88  80  186 79  71  177 75  70  173 78  72  165 76  70  150 67  61  153 78  72  120 53  44  117 59  48  115 63  50  102 56  41  102 60  44  97  60  42  95  55  43  98  52  54  114 59  64  114 51  46  134 50  40  173 54  48  193 69  59  189 86  67  176 89  62  175 92  62  170 94  58  165 96  55  161 98  55  158 99  57  152 100 60  147 101 65  142 103 72  134 104 80  121 96  76  116 94  80  113 95  83  105 92  84  103 92  90  89  79  78  62  53  54  62  53  54  65  56  57  61  51  50  56  48  46  60  52  50  56  51  48  52  48  45  56  52  51  56  52  53  47  45  48  27  25  26  42  41  39  33  32  30  27  28  23  19  20  14  19  22  15  20  23  16  20  23  16  19  21  16  19  21  16  
80  27  35  82  26  35  83  26  35  83  26  35  85  25  35  85  25  35  83  26  35  82  26  35  82  26  35  80  27  35  79  28  35  79  28  35  80  27  37  80  27  37  82  26  37  80  27  37  77  28  34  74  32  36  45  10  14  38  7   13  41  9   22  58  12  38  127 54  97  180 93  144 172 88  137 86  18  55  46  8   23  38  18  20  35  17  15  37  19  17  39  14  18  36  14  17  54  39  34  32  15  8   44  16  12  82  42  43  108 52  61  119 51  66  127 49  71  126 48  70  117 49  64  118 50  65  124 50  67  131 50  69  136 48  70  139 47  68  138 47  65  138 46  61  138 42  53  147 47  57  152 46  58  151 39  53  158 40  56  173 48  64  181 54  71  180 54  68  187 61  73  191 65  76  196 73  78  200 77  79  207 82  78  212 88  80  217 89  78  214 90  78  209 95  84  202 98  87  193 100 92  188 99  95  183 93  93  180 88  91  179 88  87  185 88  82  205 94  85  219 93  81  230 90  77  227 84  70  225 89  73  220 90  74  214 86  73  208 86  71  195 79  64  186 78  66  176 74  70  162 72  71  149 72  66  142 69  62  144 64  63  147 61  60  157 60  54  193 76  67  218 74  63  203 67  55  150 58  45  136 66  58  140 66  67  143 67  69  147 67  66  150 66  64  152 66  65  155 67  66  157 65  66  160 66  67  162 66  68  162 66  68  159 65  66  158 70  68  151 70  66  159 84  78  139 71  60  132 70  57  119 61  47  117 58  42  140 74  58  151 78  63  167 80  71  162 75  66  153 73  66  154 75  68  149 71  61  149 71  61  153 75  63  157 68  60  177 65  63  203 80  82  192 72  74  178 66  65  164 69  65  162 72  64  170 71  65  177 70  64  188 75  69  202 83  77  209 86  81  207 83  75  209 82  75  213 85  74  213 87  75  213 90  75  213 92  75  214 91  75  220 88  73  223 87  73  227 87  74  230 88  74  235 92  75  231 88  71  228 91  72  225 90  71  230 95  76  233 100 81  228 97  77  225 94  74  224 89  70  221 92  71  221 106 85  231 141 114 255 218 180 255 232 189 250 221 179 251 226 185 247 222 182 219 176 144 124 43  24  201 94  84  209 84  78  223 94  89  206 82  74  204 83  72  202 84  72  202 84  70  204 84  70  205 83  68  206 83  68  210 84  70  214 84  70  212 86  71  200 87  71  197 90  72  192 87  68  202 95  77  192 79  63  197 79  65  209 89  75  215 91  79  218 90  79  216 90  78  206 88  74  205 94  75  203 96  76  203 103 79  206 110 85  219 130 100 224 141 107 235 157 119 248 170 134 255 182 147 255 194 162 255 200 171 213 153 129 135 66  50  179 95  85  184 89  85  186 84  82  185 83  81  180 85  83  175 81  81  173 79  80  174 84  86  164 84  85  159 77  79  177 78  83  190 71  75  212 69  71  218 60  57  230 61  54  228 70  58  203 73  57  165 65  50  131 56  51  127 65  70  123 55  70  117 55  70  113 62  71  107 60  66  109 62  70  106 59  67  100 55  60  108 66  70  99  57  61  102 60  64  108 62  73  105 61  74  109 68  82  103 62  76  101 60  68  114 64  65  133 69  60  194 111 97  205 102 83  213 101 81  205 89  74  212 94  82  204 83  72  203 82  73  200 81  73  198 85  77  186 84  72  174 85  71  140 63  47  140 75  55  149 93  70  153 105 82  164 120 95  185 143 118 206 166 140 224 181 162 94  40  38  112 53  55  118 58  50  135 55  44  169 52  45  191 63  54  193 80  62  184 84  60  179 90  60  172 94  58  168 94  55  164 97  55  160 98  57  154 99  58  147 102 61  142 104 68  136 102 74  124 96  74  119 93  76  112 93  79  106 91  84  104 93  91  94  84  83  74  65  66  61  52  53  62  53  54  62  52  51  61  51  50  61  53  51  57  52  49  55  51  48  57  53  52  47  43  44  42  38  39  31  27  26  47  43  40  37  33  30  24  23  18  20  20  12  25  26  18  21  22  14  20  23  14  19  22  13  19  22  13  
82  26  37  82  26  37  83  25  37  83  25  37  85  25  37  85  25  37  83  25  37  82  26  37  82  26  37  80  27  37  79  28  37  79  28  37  80  27  37  80  27  37  82  26  37  80  27  35  76  30  32  75  34  32  59  21  20  39  7   8   38  16  19  40  12  24  68  22  48  127 72  103 151 94  126 61  13  37  42  12  22  34  14  15  34  13  12  36  17  13  32  16  16  29  15  12  29  16  8   31  11  4   47  12  8   66  20  20  79  26  32  86  26  38  85  22  39  80  22  37  79  34  41  80  35  42  89  33  44  97  33  49  108 36  56  119 41  63  130 49  66  139 52  69  146 48  71  138 39  60  135 40  60  142 49  67  143 52  67  138 44  58  143 43  55  155 47  60  171 50  65  179 51  66  189 53  65  198 59  66  209 66  68  215 76  73  219 80  73  212 83  77  194 81  85  177 84  92  160 87  94  147 86  93  144 84  94  143 86  95  143 86  92  147 85  86  165 87  83  182 83  78  222 95  89  225 84  77  232 91  81  228 92  76  218 89  70  217 90  71  215 86  67  212 84  71  204 82  77  193 81  77  179 82  73  170 80  69  171 74  68  175 70  66  188 71  64  213 80  71  223 75  63  201 67  55  156 62  50  147 70  62  157 69  68  161 69  70  163 69  67  165 70  66  168 70  67  170 70  68  173 69  68  175 69  69  175 69  69  175 69  69  176 72  71  170 68  66  170 75  71  165 75  67  167 80  71  174 92  81  164 86  74  157 78  65  155 67  53  174 76  65  200 88  84  178 66  62  172 70  66  165 70  64  172 77  71  166 73  65  165 79  66  169 72  63  186 64  61  213 79  78  207 74  75  193 71  68  173 75  66  169 75  65  180 71  64  190 73  66  202 79  72  208 84  76  209 86  78  209 87  74  215 89  77  220 93  78  216 89  74  217 92  74  220 95  75  225 96  77  230 93  75  234 91  75  236 90  75  235 92  75  228 89  68  223 87  63  232 96  74  227 88  69  230 89  72  227 87  70  221 92  71  223 97  75  226 93  74  227 92  73  224 91  76  219 104 85  236 159 131 255 221 185 255 236 197 255 237 195 247 234 192 255 235 201 127 59  38  176 78  65  217 96  88  214 82  78  217 90  83  211 89  78  200 82  68  202 85  68  206 86  69  207 87  70  207 88  68  205 88  68  204 90  66  202 92  67  199 93  71  192 90  67  199 99  75  194 88  66  212 95  78  218 92  78  224 94  81  215 81  70  217 83  72  212 89  73  217 115 92  252 169 137 255 190 153 255 202 161 255 210 166 255 219 171 255 214 163 255 217 166 255 214 165 255 215 167 252 218 173 251 219 180 176 141 111 66  18  0   155 85  73  183 96  87  180 81  75  184 81  76  189 90  84  182 87  81  180 85  83  177 83  83  174 83  82  170 76  77  179 80  85  183 72  79  196 70  73  223 79  78  228 67  57  222 65  48  217 80  61  192 81  64  140 57  49  134 64  66  128 56  68  123 55  68  128 67  74  121 65  68  117 65  67  113 63  64  109 61  61  116 67  70  116 67  70  114 65  69  109 57  69  110 60  72  120 74  87  110 69  77  111 71  72  115 72  63  122 69  51  170 104 78  180 100 67  197 106 75  215 119 94  199 94  75  214 94  80  220 92  81  218 85  76  213 87  75  193 83  66  173 83  59  216 147 118 245 192 158 255 213 175 253 215 178 255 218 181 251 213 176 247 209 172 252 206 180 86  28  24  105 43  44  126 63  54  142 62  51  173 51  46  191 57  48  198 72  57  192 80  58  183 88  58  175 93  56  172 94  56  167 95  55  162 97  57  156 98  58  148 101 59  142 103 64  139 103 71  133 102 74  124 96  75  114 92  78  110 93  85  107 96  92  102 92  91  92  83  84  64  55  56  60  51  52  60  50  49  62  52  50  60  52  50  57  52  49  56  52  51  55  51  50  56  50  50  50  44  44  45  39  39  56  52  49  49  45  42  28  27  22  19  19  11  19  20  12  21  23  12  20  22  11  19  21  10  19  21  10  
82  26  37  82  26  37  83  25  37  83  25  37  85  25  37  85  25  37  83  25  37  82  26  37  82  26  37  80  27  37  79  28  37  79  28  37  80  27  37  82  26  37  83  25  37  80  27  33  78  33  30  71  30  24  69  29  27  49  18  16  33  13  12  33  17  20  39  13  24  55  24  39  99  65  81  70  38  51  42  17  23  38  13  16  44  18  19  36  12  10  34  19  14  33  20  14  30  13  6   45  20  15  62  21  17  72  22  21  82  27  33  84  26  38  81  23  38  78  26  39  67  28  33  67  28  31  70  23  31  75  18  33  77  18  36  85  22  41  97  29  44  106 32  49  127 41  66  135 46  74  134 50  74  128 49  68  124 47  63  127 49  62  135 49  62  141 47  61  149 42  58  157 40  56  167 41  55  176 44  55  186 51  57  194 58  60  199 64  60  195 70  68  182 67  80  165 73  88  145 79  91  133 81  93  133 87  98  135 93  105 130 93  101 127 86  90  126 72  72  150 72  70  199 87  85  222 90  86  230 92  82  227 87  72  220 88  67  224 92  69  226 87  66  227 85  71  222 85  77  212 85  78  199 87  73  192 84  71  192 80  69  196 75  67  212 79  70  224 82  72  224 76  62  202 69  54  167 69  56  162 73  65  171 71  69  176 70  70  176 72  69  177 74  69  179 74  70  182 74  71  183 74  71  185 73  71  185 73  71  184 72  70  183 71  69  186 77  74  175 70  64  184 81  74  187 89  80  190 93  84  188 94  84  166 72  60  176 74  60  187 76  65  208 85  80  203 78  76  187 74  70  175 68  62  173 66  60  175 74  64  171 79  66  174 77  61  190 67  60  216 81  77  218 80  78  206 79  73  185 83  71  182 85  69  192 78  68  204 80  72  212 83  77  212 84  75  208 86  73  209 87  72  216 89  74  220 90  74  223 92  74  223 92  72  222 93  72  224 92  71  234 89  72  237 87  72  236 86  71  231 89  69  234 98  74  228 94  69  230 94  72  232 91  73  244 96  82  227 84  68  227 94  75  221 92  71  227 94  75  226 89  71  229 87  73  227 100 83  202 110 85  251 190 159 255 236 199 245 230 189 247 243 198 243 225 185 188 137 108 129 48  29  197 91  78  216 99  89  207 94  80  200 90  73  194 92  70  193 93  69  194 94  68  197 98  69  202 104 75  209 119 85  218 134 98  224 144 107 243 163 128 246 168 132 255 194 158 255 187 153 214 112 87  209 94  73  215 90  72  224 92  77  227 91  79  214 93  74  221 132 102 255 203 162 255 220 173 253 223 171 243 224 168 236 221 162 242 222 161 246 222 162 245 219 160 247 222 166 239 219 169 239 220 177 140 115 84  56  15  0   112 44  31  187 98  90  197 94  85  194 87  77  189 87  75  182 84  75  183 88  82  181 88  83  182 85  79  175 80  76  172 78  79  182 83  86  177 67  66  202 75  69  215 67  55  231 78  62  205 68  49  190 75  57  148 61  51  139 68  64  138 67  71  128 62  66  131 70  69  124 67  60  127 75  64  122 72  63  126 77  70  119 70  65  130 79  78  121 69  73  115 59  68  132 79  89  131 80  89  117 71  74  111 72  65  139 100 83  187 143 116 225 175 138 248 186 145 255 195 154 255 191 158 160 72  48  209 98  81  223 95  82  223 87  75  222 90  77  207 98  75  186 101 70  249 191 153 255 226 181 254 223 176 243 217 168 250 219 173 250 217 172 253 219 174 253 212 180 77  23  11  92  28  26  131 63  54  157 67  58  183 56  50  197 54  48  202 64  53  198 76  55  186 87  56  176 92  56  173 93  56  169 93  57  165 95  59  159 97  58  149 100 59  143 101 59  142 102 66  141 104 75  130 100 76  116 93  75  110 93  83  106 95  91  104 94  93  103 94  95  78  69  70  64  56  54  60  50  48  62  52  50  60  52  50  58  53  50  56  52  51  47  46  44  42  36  36  34  29  26  34  29  26  45  41  38  52  49  44  40  39  34  27  26  21  18  18  10  20  21  13  19  20  12  18  19  11  19  21  10  
80  27  37  82  26  37  83  25  37  83  25  37  85  25  37  85  25  37  83  25  37  82  26  37  82  26  35  80  27  35  79  28  35  79  28  35  80  27  35  82  26  35  83  26  35  82  27  33  78  30  28  76  33  27  76  35  33  61  27  26  34  13  12  29  13  13  34  18  19  26  10  11  38  18  20  55  33  36  34  9   12  42  13  17  46  16  18  37  9   8   37  13  9   38  17  12  41  17  15  59  25  24  72  24  24  78  22  23  86  26  34  86  24  39  85  18  36  87  24  41  75  26  32  72  27  30  77  24  34  75  21  34  70  19  36  68  17  32  69  16  26  72  16  29  79  17  38  97  32  56  115 45  69  124 51  71  128 49  68  132 51  68  134 50  66  133 49  65  134 47  63  136 48  62  141 47  61  147 47  59  153 48  55  164 51  55  174 55  57  179 60  64  178 63  76  173 72  86  159 82  92  148 87  95  139 88  97  129 88  96  117 82  89  109 74  78  110 70  70  129 69  68  165 74  71  214 96  92  230 93  85  229 88  71  229 93  69  230 94  68  230 88  64  232 87  70  229 85  76  222 85  75  213 87  72  209 86  70  210 82  69  212 78  67  225 83  73  229 83  70  223 80  64  206 74  59  184 76  64  179 76  69  188 75  71  188 73  70  188 77  70  186 78  68  189 78  69  190 79  70  190 79  70  191 78  70  190 77  69  189 76  68  188 75  67  185 74  65  187 76  67  190 82  72  185 78  68  201 94  84  187 83  72  185 81  68  179 71  58  180 67  53  198 71  64  211 82  77  202 80  75  189 74  69  180 67  59  185 81  68  174 78  62  178 81  62  187 74  60  212 86  74  220 83  75  212 84  73  194 88  72  193 92  74  204 88  75  213 86  77  218 87  79  216 85  75  210 88  73  213 92  75  220 90  74  224 88  72  229 92  74  229 90  71  226 89  70  230 89  69  238 88  71  241 90  73  239 92  74  235 94  74  224 89  67  225 90  68  230 89  71  234 88  73  237 85  72  238 87  76  231 91  74  228 95  76  226 94  73  233 98  78  229 90  71  218 91  72  201 103 78  190 124 92  173 138 100 133 120 76  85  81  34  76  65  20  65  31  0   101 48  16  195 121 94  215 131 105 185 104 77  194 117 87  225 155 121 231 166 128 246 181 141 255 194 151 255 203 159 255 209 161 255 215 163 252 217 163 250 214 162 252 219 166 244 214 160 255 213 163 255 194 154 208 119 87  214 106 80  215 94  73  219 89  73  209 95  71  228 148 113 255 214 170 254 221 170 241 220 163 242 227 168 239 229 167 240 226 161 247 229 165 249 228 165 253 231 174 242 224 174 243 224 182 101 74  45  54  7   0   83  9   0   180 83  77  198 85  77  200 83  73  196 88  75  190 88  74  184 90  80  180 88  77  176 84  71  181 92  78  172 88  78  172 89  81  175 85  76  191 84  74  213 81  69  213 71  59  211 78  63  187 74  58  154 68  55  137 69  58  135 72  63  122 64  53  127 74  56  132 82  59  146 99  73  154 108 82  180 135 114 189 143 128 168 119 112 124 70  70  129 70  76  126 66  74  125 68  74  129 79  78  124 82  70  194 158 134 250 216 181 252 218 173 255 214 164 255 213 164 254 206 168 96  32  4   151 54  37  208 88  74  225 91  80  218 91  74  203 102 74  194 120 83  252 208 159 251 226 170 242 223 165 240 223 167 244 223 170 247 221 170 250 224 175 241 207 169 71  24  6   77  13  4   134 54  45  174 67  61  199 60  57  207 52  48  207 56  47  201 68  49  188 84  55  176 90  55  176 92  58  172 93  60  167 94  59  160 96  60  152 99  59  145 100 59  144 100 61  143 103 68  134 100 73  118 93  73  109 91  79  104 91  85  100 92  90  99  93  93  95  87  85  75  67  65  63  53  51  61  51  49  60  52  50  60  56  53  52  51  49  39  38  36  28  23  20  24  19  15  25  20  16  29  26  21  43  39  36  48  47  43  39  38  34  26  27  21  21  22  16  18  19  13  17  18  12  18  19  11  
80  27  37  80  27  37  82  26  37  83  25  37  85  25  37  85  25  37  83  25  37  82  26  35  82  26  35  80  27  35  79  28  35  79  28  35  82  26  35  82  26  35  83  26  35  82  27  33  77  26  25  82  34  34  74  29  32  71  30  36  62  27  33  48  19  23  45  21  21  39  20  16  35  14  13  39  15  15  39  8   13  47  15  20  44  9   15  46  14  17  46  15  12  55  24  21  67  32  36  76  35  41  83  31  33  86  27  31  86  29  38  83  22  37  83  16  34  85  21  37  75  22  28  73  24  27  76  20  29  73  19  32  67  20  36  64  22  34  67  22  29  68  21  29  63  15  31  62  11  28  76  17  35  105 38  55  125 52  69  130 53  69  129 48  65  129 48  65  130 51  70  130 51  70  133 50  68  135 48  65  138 46  61  143 46  57  152 48  59  160 53  63  167 57  66  170 66  75  167 74  84  154 74  83  133 70  79  117 67  76  106 69  77  102 71  77  107 75  80  116 70  72  139 67  68  196 98  97  217 95  90  225 91  79  231 96  76  230 91  68  232 90  68  234 89  70  233 86  76  229 87  77  224 89  70  221 88  69  222 86  70  224 84  69  231 85  72  230 84  69  225 86  67  211 81  65  201 84  74  195 80  73  201 80  72  201 78  70  198 80  70  197 80  70  198 81  71  198 81  71  196 82  71  196 82  71  197 80  70  197 80  70  201 87  76  189 75  64  200 86  75  191 77  66  202 88  77  204 90  79  202 88  78  197 83  72  196 86  69  188 75  59  201 77  67  204 75  69  209 82  76  200 77  70  193 76  67  191 81  68  180 79  61  185 84  64  187 78  58  207 86  69  221 83  73  219 82  72  202 87  69  202 92  75  211 89  76  217 86  76  219 85  76  219 87  75  214 91  75  219 94  76  225 92  77  230 88  74  230 84  69  232 87  70  232 91  73  234 93  73  238 91  73  235 90  71  226 90  68  220 92  67  223 99  73  221 99  75  226 101 79  226 99  80  222 89  72  234 98  82  223 86  68  227 92  72  225 95  71  225 99  74  216 95  68  219 109 82  212 123 93  202 138 103 179 144 104 158 141 97  180 168 120 204 190 143 232 210 163 239 206 163 252 204 164 255 212 175 132 74  37  185 132 92  255 213 168 255 215 166 255 215 165 255 216 165 254 217 164 251 220 165 245 226 167 244 230 169 242 226 166 240 226 165 237 229 166 236 220 160 255 214 164 255 194 152 199 110 78  209 103 77  213 97  74  207 103 76  238 170 131 255 222 174 253 226 171 243 224 166 245 229 170 241 227 166 237 226 160 240 227 159 241 221 158 239 219 160 239 221 171 244 222 183 81  49  24  60  8   0   101 20  16  191 89  85  203 86  77  206 88  74  201 94  74  190 94  72  176 89  72  172 91  72  175 95  72  174 98  74  165 94  74  153 86  67  170 99  79  166 79  62  201 83  71  204 73  63  205 78  69  174 63  52  154 72  58  180 119 100 212 160 138 225 179 153 239 199 164 251 214 172 255 217 174 250 213 169 249 213 177 255 215 189 163 117 102 92  39  35  141 81  83  128 66  71  133 71  74  142 87  82  122 76  60  221 186 158 246 217 177 244 218 169 245 218 163 255 227 175 219 190 150 74  24  0   95  8   0   193 79  68  232 101 91  217 94  78  202 104 75  223 156 114 255 225 172 247 227 168 243 227 167 245 229 169 243 222 165 246 223 169 250 229 176 244 217 172 71  29  4   68  4   0   142 49  42  186 62  60  211 59  58  216 51  49  210 52  43  202 63  44  188 83  53  176 90  55  176 90  57  175 92  62  168 93  61  161 95  60  153 98  59  150 98  58  147 99  59  144 101 66  137 102 72  124 97  76  110 92  80  103 90  84  99  91  89  95  89  89  103 95  93  86  78  76  69  59  57  58  50  47  59  51  49  57  53  52  46  44  45  30  30  28  31  28  23  32  29  24  30  27  22  24  23  18  29  28  24  46  47  42  43  44  39  37  37  35  27  27  25  21  22  17  17  18  13  17  18  13  
80  27  35  80  27  35  82  26  35  83  26  35  85  25  35  85  25  35  83  26  35  82  26  35  82  26  35  80  27  33  79  28  33  79  28  33  82  27  33  82  27  33  83  26  33  83  26  33  82  25  31  82  27  33  75  23  35  80  27  43  89  32  49  81  24  39  72  22  31  67  22  25  73  32  36  60  21  26  66  24  34  65  23  35  58  22  32  65  28  35  69  29  30  79  34  37  72  26  36  78  28  39  81  26  31  79  24  29  76  27  33  77  25  37  81  20  36  83  22  37  78  28  31  74  26  26  74  19  25  69  15  28  61  17  32  61  19  31  65  20  27  66  19  25  70  24  34  70  23  33  64  13  22  62  7   13  82  21  28  112 47  55  128 54  67  127 49  65  133 48  71  134 46  71  137 44  73  138 45  74  138 44  71  136 42  66  137 45  66  142 48  62  151 52  57  161 55  59  173 55  67  168 58  71  145 59  72  124 61  72  113 69  82  112 79  90  111 75  89  114 72  84  138 85  95  177 104 111 197 101 102 212 97  92  226 95  85  225 88  72  229 92  73  231 92  73  231 89  77  230 90  77  230 91  72  229 90  69  230 89  71  230 87  70  234 89  72  228 87  69  223 91  70  213 86  67  212 88  78  206 82  74  211 84  75  210 84  72  210 84  72  208 84  74  207 85  74  207 85  74  205 84  73  205 84  73  203 85  73  203 85  73  192 74  62  203 85  73  201 80  69  210 89  78  205 83  72  207 85  74  215 91  83  207 86  75  193 82  63  188 77  58  204 84  70  203 76  67  216 84  79  210 81  75  201 78  70  190 74  61  191 80  63  194 87  67  186 80  58  205 86  66  225 81  72  227 80  72  213 83  69  212 89  73  217 86  76  219 85  76  224 83  76  224 86  76  221 91  77  221 91  75  230 88  76  235 87  75  235 83  70  238 88  73  234 93  75  229 92  73  224 87  68  218 88  66  211 97  70  209 104 74  209 106 75  202 105 73  202 113 81  214 127 97  229 138 109 197 93  68  228 103 83  228 96  75  218 92  67  216 106 73  254 165 125 255 201 161 255 203 163 255 217 177 247 214 171 238 214 168 242 215 168 243 220 170 243 223 172 246 224 174 250 222 174 243 209 161 79  41  0   166 130 80  252 222 170 250 223 168 253 223 169 253 222 168 252 221 166 248 222 165 241 222 163 239 223 163 245 219 160 240 218 158 232 224 159 243 234 169 252 223 167 255 208 159 255 202 160 207 123 87  203 106 74  197 111 76  239 187 140 249 218 164 247 222 166 246 224 167 252 226 169 249 225 165 245 230 163 243 230 162 250 230 167 246 224 166 246 226 176 227 203 165 67  32  10  58  4   0   111 28  24  198 94  91  207 93  82  200 87  69  188 88  64  185 100 71  178 106 81  188 124 96  199 136 103 199 140 106 215 162 128 235 185 152 236 181 151 186 114 90  182 78  65  207 88  82  202 83  79  174 69  63  158 82  66  224 173 146 251 213 177 250 221 177 242 221 168 238 219 160 248 224 162 249 223 164 243 217 168 251 221 183 127 86  64  64  16  6   123 63  62  144 78  80  139 73  74  137 77  69  124 76  56  244 205 174 249 220 178 251 230 177 245 224 167 240 219 166 190 168 129 66  24  0   72  0   0   163 52  43  214 87  78  208 88  71  200 107 76  255 191 149 255 218 165 243 219 159 248 226 166 251 226 169 251 221 167 250 223 168 243 222 167 242 218 170 72  37  7   69  8   0   156 51  45  196 56  57  217 51  55  223 49  50  217 50  42  202 60  40  187 82  50  175 90  53  178 89  59  176 91  62  168 93  62  162 96  62  156 96  60  153 98  59  152 100 60  144 100 61  140 104 72  130 102 80  114 95  81  106 93  87  102 94  92  94  88  88  100 92  90  94  86  84  78  68  66  61  53  50  58  50  48  53  49  48  39  39  39  27  27  25  23  22  17  26  26  18  25  24  19  21  22  16  21  22  17  45  45  43  43  43  41  45  47  46  35  37  36  25  27  26  16  18  17  16  18  15  
80  27  35  80  27  35  80  27  35  82  26  35  82  26  35  83  26  35  83  26  35  82  26  35  82  27  33  80  27  33  80  27  33  82  27  33  82  27  33  83  26  33  83  26  35  83  26  35  86  29  38  79  23  34  81  27  41  82  25  42  83  18  38  89  25  42  89  29  39  83  28  34  76  25  30  79  30  36  81  31  42  72  24  36  76  34  44  71  28  35  79  28  33  78  25  31  79  25  38  82  28  41  84  27  36  77  24  30  73  26  34  74  27  37  78  24  38  78  22  35  71  22  26  70  21  24  71  18  26  71  20  29  66  22  35  65  23  33  66  21  28  65  18  24  62  15  23  67  20  26  71  25  28  70  21  25  67  15  19  78  19  25  104 38  48  130 56  71  132 48  71  135 45  73  138 43  75  142 45  78  142 47  79  137 47  75  133 47  72  133 48  67  136 45  52  148 45  49  165 47  59  172 55  71  162 61  77  143 63  76  123 67  78  114 71  81  117 73  86  122 76  89  161 111 122 176 115 122 191 109 111 203 103 103 217 99  95  221 94  87  221 94  79  224 92  77  228 90  80  230 89  79  232 89  72  232 90  68  233 88  67  231 89  69  233 91  71  228 87  69  224 92  71  217 86  68  220 87  78  214 80  71  219 85  73  219 85  73  218 86  73  217 87  74  214 86  73  214 86  73  212 86  74  212 86  74  212 86  74  210 86  74  210 88  73  212 90  75  207 84  69  211 85  71  212 84  73  222 91  81  222 91  81  207 81  69  202 85  68  197 82  64  202 82  66  205 79  67  214 79  73  219 84  78  210 82  73  204 82  69  198 83  65  201 89  69  190 80  57  206 85  66  229 82  72  234 81  73  222 82  69  220 88  73  218 91  76  216 90  75  217 91  76  216 95  76  210 98  76  211 95  72  222 91  73  231 90  73  239 85  73  241 87  75  236 90  75  226 89  70  221 95  72  225 114 86  235 147 111 248 170 131 255 180 140 255 195 153 255 210 166 255 211 172 254 195 163 117 40  14  208 97  78  218 93  73  217 97  70  202 102 66  255 200 153 255 207 156 255 221 172 255 217 168 250 220 170 249 223 172 248 221 166 243 218 161 243 224 168 243 226 172 239 219 168 212 189 139 61  35  0   171 145 96  247 224 172 246 223 169 248 221 166 248 221 166 251 222 166 248 223 166 242 226 167 243 224 165 252 223 167 248 222 163 240 229 163 234 225 158 244 222 162 255 227 175 255 205 162 255 193 157 168 92  60  182 112 78  250 206 159 255 226 172 249 227 169 246 224 166 250 223 168 250 225 169 246 227 169 238 222 163 250 230 177 248 224 178 245 215 179 203 167 141 59  18  0   66  8   0   131 44  37  204 99  93  205 92  78  204 98  76  221 136 105 255 190 153 255 204 166 255 210 169 255 212 169 255 219 173 251 213 166 255 219 174 253 214 171 241 189 152 190 110 87  183 85  72  188 81  75  175 77  68  156 83  66  246 197 167 251 220 176 239 222 168 239 228 164 242 232 163 240 223 154 249 228 165 247 224 174 242 212 174 108 67  45  57  8   0   82  23  19  148 82  83  148 76  77  141 72  65  152 100 79  255 221 188 244 217 172 242 222 169 247 230 176 239 221 171 165 141 105 59  13  0   94  11  0   166 55  46  222 95  86  218 101 83  202 118 84  255 210 165 255 222 169 249 223 166 253 227 170 250 221 165 252 222 168 254 227 174 241 222 166 246 224 175 77  42  12  75  12  0   166 57  52  198 56  55  214 48  50  226 50  50  224 51  44  209 56  40  196 78  50  183 84  52  181 87  59  175 90  61  170 93  63  165 94  62  160 96  61  155 97  59  151 99  59  142 97  58  142 103 70  135 103 78  117 94  78  110 93  83  105 94  90  95  87  84  97  89  87  99  94  91  86  81  77  66  61  57  59  54  51  53  49  46  39  38  36  30  29  25  28  25  20  30  27  20  25  24  19  27  26  22  25  24  20  47  47  45  39  39  37  42  44  43  42  44  43  29  31  30  17  19  18  15  17  16  
80  27  33  80  27  33  80  27  33  79  28  33  79  28  33  80  27  33  80  27  33  82  27  33  82  26  35  83  26  35  83  26  35  85  25  35  85  25  35  83  26  35  83  25  37  83  25  37  82  26  37  80  26  39  80  26  39  80  26  40  82  26  39  82  26  37  80  27  35  80  27  35  79  28  33  79  28  33  80  27  35  80  27  35  80  27  35  80  27  33  83  26  32  83  26  33  81  25  36  82  26  37  82  26  37  79  26  34  77  27  36  73  26  34  74  24  35  73  23  32  70  23  29  69  22  28  67  20  28  67  20  28  66  20  30  63  20  29  65  20  27  65  18  26  65  18  26  67  17  26  67  18  24  66  15  22  72  21  28  66  13  21  72  15  24  118 55  66  125 52  69  129 47  69  138 46  71  140 44  72  140 44  72  139 46  73  131 47  71  132 51  70  135 48  64  135 45  57  145 49  63  148 46  60  165 54  71  166 64  78  140 63  71  130 70  72  128 72  75  154 98  101 175 115 117 182 116 117 186 110 110 191 105 104 202 102 104 210 102 100 214 99  96  218 95  88  225 90  86  232 89  81  235 87  73  235 85  68  234 87  67  236 91  70  231 90  70  230 89  71  230 89  72  229 87  73  229 85  74  229 85  74  228 86  72  227 87  72  226 86  71  224 86  73  220 88  73  220 88  75  221 87  76  222 85  75  222 85  75  220 86  75  215 88  73  213 87  72  216 89  74  217 87  73  219 82  72  224 87  77  224 90  79  215 85  72  208 82  70  206 83  68  207 84  69  210 82  69  214 80  71  224 87  77  216 84  72  205 79  65  200 83  65  205 90  71  202 81  62  209 77  62  230 83  73  235 84  75  227 85  73  220 88  73  207 93  69  204 103 75  202 112 78  224 142 104 221 146 106 208 126 88  202 102 70  216 94  70  232 84  70  241 85  73  247 91  79  230 89  72  214 96  70  224 134 99  255 209 161 255 217 162 255 217 161 255 216 159 255 223 168 248 211 166 226 189 162 71  14  0   139 47  36  216 105 88  211 98  68  211 118 77  255 209 160 252 217 163 255 221 169 250 219 165 246 224 166 242 227 162 240 227 157 246 232 161 238 218 157 252 229 175 239 217 168 190 167 123 51  28  0   214 189 148 253 222 178 252 220 173 250 218 167 255 225 171 250 225 169 244 223 166 248 231 175 242 223 167 248 225 171 239 217 159 247 229 163 244 229 160 241 221 158 247 222 168 255 221 183 233 189 160 90  34  9   180 123 94  255 212 170 255 226 172 251 225 166 249 230 171 239 226 171 240 228 178 241 222 179 165 145 108 125 108 78  103 76  55  91  44  34  78  23  16  64  12  0   69  6   0   154 62  49  204 96  83  208 95  79  196 98  73  235 170 132 255 214 167 255 220 168 247 220 165 247 226 169 241 220 163 244 218 161 250 224 167 245 223 165 246 219 164 239 192 148 176 111 79  174 89  68  172 85  68  170 95  74  255 208 176 253 226 179 238 226 168 241 230 166 241 228 160 245 225 162 249 224 168 246 217 177 251 214 185 83  36  18  60  6   0   84  27  18  150 85  81  157 77  80  150 72  70  171 115 98  255 219 187 251 229 182 242 225 173 243 227 178 246 223 179 141 105 73  78  20  0   94  5   0   189 75  64  222 91  81  213 96  78  228 154 117 255 213 167 255 220 170 255 229 177 246 216 164 245 218 165 249 224 170 250 229 174 242 225 169 247 223 177 84  42  17  82  14  1   165 62  57  199 67  63  214 59  55  228 56  52  228 51  45  219 51  40  206 61  44  195 75  51  185 87  58  176 91  62  171 92  61  169 94  62  165 97  62  157 97  60  148 96  56  142 97  58  140 97  63  137 98  69  128 96  73  116 90  75  106 88  78  101 88  82  96  91  88  85  84  82  91  91  89  84  84  82  58  57  53  50  49  44  52  47  41  35  28  22  34  26  23  30  22  19  27  22  19  33  28  25  43  39  36  44  43  39  35  36  31  25  25  23  24  26  23  30  32  29  33  38  34  32  37  33  
82  26  35  82  27  33  80  27  35  79  28  33  79  28  33  79  28  33  80  27  33  82  27  33  83  26  35  83  26  35  85  25  35  85  25  35  83  26  35  83  26  35  82  26  37  80  27  37  80  27  37  80  27  37  80  27  37  80  27  37  79  28  37  79  28  35  79  28  35  79  28  35  80  27  33  80  27  33  82  27  33  82  27  33  83  26  32  85  26  32  85  26  32  85  25  33  83  26  35  82  26  37  80  27  37  78  27  36  77  26  35  75  25  34  71  24  32  70  23  31  68  23  30  67  22  29  66  21  28  65  20  27  65  20  27  65  20  27  64  19  26  64  19  26  65  18  26  68  18  27  68  18  27  64  14  23  69  19  28  66  15  24  64  13  20  93  36  45  122 56  70  128 51  69  137 48  70  138 44  68  140 44  71  138 48  73  130 48  71  129 50  71  135 50  71  134 47  66  137 50  66  140 46  62  159 48  65  168 56  72  159 63  74  161 79  83  169 97  98  177 112 110 181 116 114 179 111 108 181 111 109 188 110 108 195 105 107 201 101 103 210 106 105 212 99  95  218 91  85  226 87  80  233 87  74  234 87  71  232 90  68  231 92  69  228 92  70  228 91  72  230 89  72  233 87  74  232 86  73  232 86  71  229 88  71  228 88  71  228 87  70  228 87  70  225 88  72  224 88  74  225 87  76  225 87  76  225 87  76  224 88  76  222 90  75  212 81  63  215 82  65  225 89  73  226 90  76  222 90  77  214 91  75  204 87  70  205 92  74  202 89  71  209 94  76  208 87  70  216 84  72  216 80  68  224 88  76  219 87  74  207 84  68  206 83  67  215 85  69  218 82  68  229 87  75  229 89  76  214 82  67  212 98  74  215 122 91  255 195 155 255 200 156 255 210 160 255 209 156 255 199 149 212 135 93  204 104 70  230 99  79  236 88  74  234 80  70  230 89  72  212 101 74  237 160 118 255 215 161 245 221 159 244 220 156 248 224 160 245 221 161 246 219 172 191 163 139 60  14  1   103 20  12  184 80  67  208 100 71  215 126 84  255 214 165 250 220 166 254 224 170 247 222 165 244 226 164 241 228 160 240 232 159 237 227 156 255 231 171 248 218 168 243 219 175 154 131 90  48  26  0   238 215 174 248 219 175 255 226 179 254 224 172 245 218 165 240 217 163 255 234 181 206 186 136 203 185 135 209 189 138 246 227 169 243 225 159 246 227 159 245 225 162 244 221 169 246 220 183 196 165 137 65  23  1   157 111 85  255 216 174 255 227 173 250 224 163 247 228 169 239 229 176 243 230 185 239 213 178 66  36  10  45  19  2   43  9   0   71  11  13  74  4   6   66  2   0   80  4   0   176 73  58  211 96  78  210 93  75  198 103 75  243 186 143 252 219 166 248 226 166 242 226 164 239 228 166 234 219 160 253 231 173 243 221 161 239 224 159 242 226 164 248 221 166 238 193 151 184 115 86  164 86  63  180 113 87  255 211 178 247 223 175 242 232 173 240 226 163 242 224 162 250 221 165 254 220 174 250 211 180 218 171 151 75  19  6   70  10  0   85  25  15  165 98  90  165 81  81  158 79  74  190 140 117 255 223 185 248 228 178 242 227 172 244 226 176 247 218 176 120 73  43  87  16  0   111 14  0   200 84  71  225 97  84  210 99  79  248 184 146 255 229 181 255 225 175 253 225 177 218 190 142 246 220 171 249 226 176 250 229 176 245 225 172 250 223 178 88  42  19  83  13  3   167 64  57  201 74  67  212 65  57  220 56  47  225 46  41  225 48  40  214 54  42  204 67  49  187 83  56  175 90  59  171 90  60  167 92  60  163 95  58  156 97  57  148 96  57  144 96  58  142 96  62  141 98  66  134 97  71  124 93  73  113 90  76  104 90  81  98  90  87  91  90  88  91  93  92  85  87  84  70  71  66  57  56  51  53  46  38  48  39  34  36  26  24  31  23  21  32  24  22  37  32  29  43  39  36  39  38  34  27  28  23  16  18  13  15  17  12  14  19  13  21  26  22  30  35  31  
85  25  37  85  25  35  83  25  37  82  26  35  82  26  35  80  27  35  82  26  35  82  26  35  83  26  33  83  26  33  83  26  33  82  27  33  80  27  33  79  28  33  78  29  35  78  29  35  79  28  35  80  27  35  80  27  35  80  27  35  79  28  35  79  28  33  79  28  33  79  28  33  79  28  33  79  28  33  80  27  33  82  27  33  82  27  33  83  26  33  83  26  33  83  26  33  82  26  35  82  26  37  80  27  37  78  27  36  76  25  34  74  24  33  70  23  31  69  22  30  68  23  30  67  22  29  66  21  28  65  20  27  65  20  27  65  20  27  64  19  26  63  18  25  63  18  25  65  20  27  66  19  27  62  15  23  65  18  26  65  18  26  61  12  18  69  13  22  116 52  66  127 53  70  135 47  69  136 44  67  139 45  71  136 48  72  128 49  71  127 48  69  138 46  69  138 45  66  136 47  65  137 46  63  147 44  61  157 49  64  170 58  74  186 80  94  191 102 108 187 111 113 182 112 110 177 112 108 178 117 112 188 117 113 200 108 111 205 105 107 196 96  94  195 90  84  202 83  75  215 84  74  225 89  73  229 92  73  227 95  72  224 96  71  224 96  71  225 95  73  230 90  73  231 89  75  230 89  72  229 89  72  223 92  72  223 93  71  229 90  71  231 88  71  230 89  72  229 89  74  227 90  74  224 91  76  223 91  76  224 91  74  225 88  72  236 95  78  234 88  73  224 83  66  220 89  71  211 95  72  202 102 76  203 116 88  189 110 79  212 131 101 197 101 76  203 94  71  211 85  70  222 89  74  223 85  72  220 84  70  210 77  62  229 96  81  216 78  65  217 79  66  227 94  79  211 90  71  209 105 80  212 128 94  255 197 156 255 211 161 255 216 164 255 218 163 255 220 162 255 221 165 246 190 141 208 131 89  207 99  71  223 94  73  234 94  79  227 94  75  209 101 73  249 174 132 255 222 167 243 223 160 243 224 158 248 227 164 243 218 161 248 221 176 158 130 106 59  11  0   83  0   0   169 67  53  207 102 72  227 140 97  255 216 167 250 223 170 253 226 173 247 222 166 245 226 167 242 228 165 235 224 162 241 224 168 248 216 169 250 215 173 254 226 186 123 101 60  77  58  15  242 224 178 245 223 174 248 227 174 245 225 172 246 226 173 248 226 177 245 222 178 78  55  14  42  23  0   181 165 114 241 229 171 239 224 159 245 226 160 247 225 165 245 222 170 241 215 178 159 129 101 54  20  0   147 114 83  252 224 177 254 229 173 247 225 165 249 229 170 249 229 179 251 226 185 231 190 158 59  15  0   52  13  0   56  7   0   70  0   1   83  1   3   78  0   0   90  1   0   203 85  71  221 94  77  215 90  70  207 108 79  255 202 157 251 222 166 243 227 165 239 230 165 240 230 171 244 229 174 242 219 165 250 228 171 239 220 161 247 228 169 249 226 172 255 216 173 241 178 147 160 93  67  200 144 117 255 218 182 241 220 173 244 231 176 243 224 166 255 225 171 168 123 81  113 60  28  102 47  27  82  22  11  81  14  6   81  13  4   113 45  36  163 90  81  165 80  75  158 84  71  212 169 137 249 227 178 244 229 170 246 232 171 250 227 173 252 213 170 105 44  16  99  16  0   131 23  11  211 90  79  219 99  85  208 112 87  255 212 172 254 231 181 251 231 180 244 226 176 170 148 99  247 223 175 250 228 179 250 228 179 248 224 176 254 222 181 87  43  18  82  12  0   172 65  57  210 78  73  215 73  63  218 60  49  223 51  41  229 52  44  217 49  40  208 62  47  191 79  55  179 88  59  173 90  60  166 91  59  160 95  57  156 97  57  148 96  57  143 95  57  141 95  59  140 97  65  135 98  72  126 95  74  115 92  76  107 90  80  97  88  83  97  93  90  89  89  87  85  87  86  82  82  80  67  63  60  52  47  43  56  48  45  50  42  40  45  40  37  45  40  36  47  44  39  46  45  40  38  39  33  25  26  20  14  17  10  16  18  13  9   14  8   15  20  16  30  36  32  
86  24  37  85  25  37  83  25  37  82  26  37  82  26  37  82  26  35  82  26  35  82  26  35  83  26  33  83  26  33  83  26  33  82  27  33  80  27  33  79  29  32  76  30  33  76  30  33  79  28  33  80  27  33  80  27  33  80  27  33  80  27  33  79  28  33  79  28  33  79  28  33  79  28  33  79  28  33  80  27  33  80  27  33  82  27  33  82  27  33  82  27  33  82  26  35  82  26  37  82  26  37  79  26  36  77  26  35  76  25  34  73  23  32  69  22  30  68  21  29  67  22  29  66  21  28  65  20  27  65  20  27  65  20  27  64  19  26  64  19  26  63  18  25  62  19  26  61  18  25  64  19  26  63  18  25  64  19  26  66  21  28  62  15  21  59  6   14  102 40  53  124 51  68  133 48  69  134 45  67  137 45  70  132 47  70  127 49  71  125 47  69  130 42  66  135 46  68  134 47  66  138 49  67  137 45  60  147 45  59  165 46  66  185 66  85  197 95  106 195 109 112 190 114 114 183 116 110 178 115 108 178 107 101 188 94  95  192 89  90  182 85  79  184 83  73  197 80  70  210 84  70  223 90  75  227 94  75  225 96  74  221 95  72  224 95  73  226 93  74  233 90  74  234 88  73  234 88  73  230 91  72  224 94  72  224 94  70  230 91  70  232 90  70  234 89  72  232 89  73  228 91  73  224 93  73  223 94  75  225 92  73  231 88  72  231 84  68  235 85  70  230 91  72  210 95  68  205 110 78  226 150 114 248 189 149 255 212 169 255 201 160 255 187 152 204 113 82  201 89  67  217 92  74  221 88  73  223 85  72  231 91  78  218 76  64  225 85  72  220 88  73  213 94  74  204 104 78  212 132 99  252 195 152 254 218 168 245 220 164 254 228 171 246 220 161 248 222 161 249 219 159 255 226 171 255 199 152 212 130 93  206 101 72  222 97  77  218 96  75  206 105 75  253 182 140 255 225 169 241 226 161 245 227 163 244 224 163 246 224 167 247 220 177 132 102 78  56  8   0   83  0   0   179 79  63  204 103 73  237 156 113 255 218 169 251 224 171 253 226 173 246 224 167 246 227 168 244 227 171 246 228 178 253 225 185 254 209 176 246 200 167 203 167 133 84  59  19  105 87  41  247 231 180 245 228 174 241 226 169 241 228 173 246 230 179 247 226 183 234 208 173 53  26  0   45  20  0   201 187 140 241 230 174 245 231 168 248 230 166 248 226 168 252 226 177 245 219 184 128 101 72  52  25  0   169 145 111 247 227 177 249 230 172 248 228 167 251 230 173 254 227 180 253 221 182 187 144 110 70  23  0   56  9   0   77  17  7   107 18  20  122 22  24  143 46  37  167 61  45  220 93  78  226 93  74  212 90  67  213 116 84  255 213 167 249 222 167 243 227 165 238 228 166 235 222 170 171 153 105 106 83  33  230 207 155 240 219 164 244 225 169 243 223 170 254 221 176 236 181 150 109 49  21  202 159 127 255 228 190 249 232 186 246 233 180 245 222 168 251 215 167 103 47  12  95  29  5   92  24  11  84  13  7   84  5   0   88  5   0   144 64  53  173 91  80  169 82  73  159 86  69  229 191 152 246 229 175 241 232 167 247 233 168 253 227 170 244 200 155 104 32  7   117 21  7   147 28  20  217 95  84  207 97  80  223 142 113 255 227 183 243 225 175 245 232 180 244 230 181 125 104 57  249 226 182 250 229 184 251 229 182 252 225 180 255 222 184 88  42  18  86  14  0   177 66  57  215 80  74  217 77  64  218 66  53  220 54  42  224 52  40  219 48  38  211 59  45  195 76  54  183 88  60  176 91  62  168 92  60  162 94  57  157 97  60  149 95  57  144 94  57  142 94  58  139 94  63  135 95  69  126 94  71  116 90  73  104 88  75  95  84  78  93  90  85  86  85  83  83  83  83  85  83  84  74  70  69  57  52  49  53  48  45  52  47  44  50  46  43  45  42  37  39  38  33  37  38  32  34  37  30  26  29  22  14  19  12  15  20  14  11  16  10  14  20  16  27  33  29  
85  24  39  83  25  39  83  25  39  82  26  37  82  26  37  80  27  37  82  26  35  82  26  35  83  26  33  83  26  33  83  26  32  82  27  32  80  28  32  79  29  30  78  29  32  78  29  32  80  28  32  82  27  32  82  27  32  80  28  32  80  27  33  80  27  33  79  28  33  79  28  33  79  28  35  79  28  35  79  28  35  79  28  35  80  27  35  80  27  35  80  27  35  82  26  35  82  26  37  82  26  37  79  26  36  76  25  34  75  24  33  72  22  31  69  22  30  68  21  29  67  22  29  66  21  28  65  20  27  64  19  26  64  19  26  64  19  26  64  19  26  61  18  25  61  20  26  59  18  24  61  18  25  64  21  28  63  20  27  62  19  26  64  19  24  60  9   16  85  25  37  120 49  65  134 51  71  134 46  68  136 46  71  130 46  69  126 51  72  123 50  70  115 40  61  128 51  71  130 49  68  136 53  71  130 46  61  141 44  61  158 41  60  173 52  71  193 85  98  193 98  104 191 107 107 185 110 105 182 109 102 179 100 93  185 87  86  187 83  80  184 86  77  190 86  75  202 86  73  213 87  73  223 90  75  228 92  76  226 93  74  224 91  72  228 93  74  233 90  74  239 85  73  242 84  73  241 85  73  237 87  72  230 91  70  227 93  68  231 92  69  233 91  71  235 88  70  234 89  72  228 91  72  225 93  72  224 93  73  227 92  72  236 89  71  229 79  62  231 89  69  220 96  70  203 106 73  233 161 121 255 213 169 255 218 169 242 217 163 251 221 169 255 210 164 255 187 146 206 115 84  207 97  72  222 97  77  221 84  68  227 84  70  228 85  71  220 84  68  215 96  74  198 100 71  213 137 101 255 205 162 255 221 171 242 227 170 236 227 168 235 219 159 253 231 171 244 223 160 243 222 159 242 220 160 251 216 162 254 195 151 215 132 98  201 95  71  208 100 74  208 115 82  255 198 154 253 224 166 238 227 161 241 227 162 242 223 164 246 225 170 246 218 178 101 70  49  55  5   0   89  5   0   192 95  78  200 105 73  248 173 131 255 219 171 250 224 173 251 226 172 246 223 169 247 228 170 245 225 174 172 143 109 100 60  35  98  40  20  94  33  12  82  32  5   67  31  0   139 115 69  247 230 178 242 227 170 239 229 168 245 236 179 248 234 185 245 221 183 201 171 143 54  18  2   64  33  12  230 213 170 243 232 178 243 229 168 247 231 169 244 223 166 246 222 174 255 228 194 91  66  36  48  27  0   203 185 147 241 227 178 247 232 175 248 229 170 253 231 174 255 227 180 254 222 181 152 120 81  59  23  0   61  15  0   137 69  56  198 94  95  212 92  93  215 98  88  220 99  82  226 93  74  226 96  72  209 95  68  217 133 97  255 219 170 249 224 168 248 228 169 243 226 170 249 228 183 126 103 62  54  30  0   243 219 171 250 227 177 245 224 171 242 225 173 249 222 177 216 168 132 71  20  0   200 170 134 239 220 178 238 224 177 243 227 178 253 227 178 244 202 160 111 50  21  106 33  14  97  20  10  101 18  14  97  3   1   104 7   1   173 76  67  180 86  74  181 89  76  169 97  73  245 208 166 247 232 175 243 234 167 246 233 165 252 223 167 224 173 130 112 30  8   128 22  9   165 36  30  221 97  87  199 100 79  249 183 149 255 232 187 244 231 179 241 231 180 234 222 174 98  79  36  249 228 185 249 230 187 251 230 187 251 226 185 255 221 185 97  45  21  97  18  3   186 67  59  217 78  71  218 78  65  218 73  56  216 59  44  215 49  35  221 50  40  212 56  43  196 71  51  185 84  56  179 90  60  170 91  58  165 92  59  160 96  60  150 94  57  146 94  57  141 93  57  137 92  59  133 94  65  128 94  69  117 90  71  105 87  73  98  85  77  89  84  80  86  82  81  82  80  81  81  79  80  81  77  78  69  63  65  51  45  45  45  41  40  44  43  39  36  35  31  23  24  19  24  25  20  34  36  31  35  37  32  25  30  24  22  27  23  20  26  22  23  29  27  28  34  32  
82  26  39  82  26  37  80  26  39  80  27  37  80  27  37  80  27  37  80  27  35  82  26  35  83  26  35  85  25  33  85  25  33  83  26  32  83  26  32  82  27  30  80  28  30  80  28  32  82  27  32  82  27  33  82  27  33  82  27  33  82  27  33  80  27  33  80  27  35  79  28  35  79  28  35  79  28  35  79  28  35  79  28  35  80  27  35  80  27  35  80  27  35  80  27  35  82  26  37  81  25  36  78  25  35  76  25  34  74  23  32  72  22  31  68  21  29  68  21  29  67  22  29  66  21  28  65  20  27  64  19  26  65  20  27  65  20  27  64  19  26  62  19  26  61  20  26  59  20  25  60  17  24  64  21  28  61  20  26  58  17  23  62  20  24  62  13  19  72  12  24  119 48  64  134 53  72  136 48  70  137 49  73  131 47  70  127 52  73  120 51  70  97  34  51  119 55  72  126 51  71  133 54  73  122 44  58  134 46  62  151 42  61  163 46  65  168 56  70  166 62  69  156 70  69  158 79  74  170 87  81  176 87  81  180 81  76  184 81  76  192 88  77  199 89  76  208 87  76  214 86  73  220 86  74  225 89  75  228 92  76  229 94  75  230 90  73  234 88  73  241 85  73  242 84  73  241 85  72  237 87  70  230 91  68  228 94  69  231 92  69  232 90  68  235 88  70  234 89  70  230 91  72  227 92  72  227 92  72  230 91  70  234 89  68  234 94  71  217 93  65  209 106 73  229 158 116 255 209 162 255 223 174 240 215 161 243 227 168 247 231 172 249 218 164 255 210 162 251 184 142 198 112 77  208 98  73  220 93  74  223 83  68  226 89  73  215 93  72  192 91  63  216 142 105 255 209 165 255 222 173 247 222 168 236 229 174 235 230 172 238 221 165 247 225 167 241 219 159 246 226 165 247 231 169 245 223 165 255 225 176 254 192 153 216 129 101 201 107 79  203 123 88  255 214 169 248 226 166 237 229 164 240 229 165 244 228 169 246 224 174 243 215 176 72  40  19  59  7   0   97  13  2   199 102 85  197 111 78  255 190 148 255 219 173 248 225 175 250 227 175 246 225 170 248 229 173 246 224 177 138 102 76  67  18  3   89  19  9   97  23  10  84  19  0   77  26  0   184 151 108 247 226 173 252 237 178 242 232 171 241 230 174 239 225 176 246 222 186 173 141 118 63  23  11  82  45  27  240 218 179 248 232 181 236 221 164 247 231 172 246 225 172 248 224 178 255 228 194 70  40  12  50  29  0   227 212 173 242 228 179 249 234 179 249 230 172 250 229 174 255 228 181 254 227 184 160 139 96  144 119 79  180 141 112 230 163 146 182 74  71  225 97  94  215 89  75  224 95  76  230 91  70  227 97  71  207 99  70  232 154 116 255 220 172 250 227 173 249 228 171 248 227 174 236 211 171 88  62  27  84  59  19  248 224 180 250 223 176 248 226 177 246 230 179 244 222 175 180 134 98  79  33  0   232 209 168 249 236 192 248 235 190 250 232 184 252 224 177 217 178 137 97  42  11  98  30  9   107 31  18  137 48  42  165 62  57  163 52  45  203 92  81  201 95  81  189 93  77  184 110 85  254 217 173 250 233 177 247 236 174 250 234 172 255 224 173 198 142 105 118 30  10  134 20  10  185 52  45  221 97  85  201 114 87  255 210 172 255 229 182 248 236 186 242 230 182 201 187 142 102 80  39  253 230 189 248 231 188 248 231 188 252 230 189 255 221 185 106 48  24  108 19  3   195 68  61  223 79  71  223 81  69  227 82  65  224 71  55  222 60  45  223 55  44  213 55  43  195 66  45  187 79  53  180 86  58  171 88  56  165 89  57  162 92  58  151 91  57  146 92  56  141 91  56  136 90  57  132 91  61  127 93  65  119 91  69  111 90  73  102 88  77  90  81  76  87  82  79  82  80  81  78  76  79  83  81  84  78  73  77  54  49  53  44  43  41  44  43  39  33  34  29  20  21  16  21  23  18  35  37  32  38  43  37  32  37  31  30  35  31  31  37  33  31  35  34  27  33  31  
79  28  37  79  28  35  79  28  37  79  28  37  79  28  37  79  28  37  80  27  37  82  26  35  83  26  35  85  25  33  86  25  33  86  25  33  86  25  33  85  26  32  85  26  32  83  26  32  83  26  33  83  26  35  83  26  35  83  26  35  83  26  35  82  26  35  82  26  37  80  27  37  80  27  37  80  27  37  80  27  35  80  27  35  80  27  35  80  27  35  80  27  33  80  27  35  81  25  36  81  25  36  77  24  34  75  24  33  73  22  31  71  21  30  68  21  29  68  21  29  67  22  29  66  21  28  65  20  27  65  20  27  65  20  27  65  20  27  65  20  27  62  19  26  59  18  24  63  24  29  61  18  25  62  19  26  61  20  26  58  17  23  63  21  25  63  14  20  65  5   17  118 47  63  133 52  71  135 47  69  135 50  73  129 47  69  126 53  73  115 51  68  73  19  33  111 54  69  125 53  73  127 52  72  110 36  53  125 44  59  139 45  61  150 45  60  172 60  74  168 61  67  155 67  65  159 76  68  179 84  78  186 87  81  187 86  78  192 88  79  199 85  75  206 85  74  212 86  74  216 86  73  219 85  73  225 89  75  228 92  78  230 93  77  231 89  75  234 88  75  237 87  73  237 87  73  234 89  72  231 92  71  225 95  69  224 96  69  229 93  69  232 92  69  233 91  71  232 89  72  231 90  72  231 90  72  232 90  70  231 90  70  227 91  67  214 95  65  204 110 72  232 164 119 255 220 170 253 222 168 240 210 158 255 231 177 241 222 163 234 218 158 248 228 169 250 221 165 255 220 168 253 192 147 194 105 71  213 103 76  222 95  76  218 96  75  196 97  68  224 148 112 255 214 168 255 222 171 248 215 162 250 224 173 240 227 175 238 224 175 238 212 163 245 213 162 255 226 171 244 219 162 238 222 162 245 229 170 248 218 168 255 223 183 216 147 116 161 86  55  204 138 103 255 222 176 246 227 168 238 233 169 240 230 169 244 229 172 246 224 175 225 197 160 57  20  1   64  7   0   116 30  17  199 104 84  199 119 86  255 207 166 255 222 177 248 226 177 250 229 176 248 229 173 247 230 176 247 223 179 102 60  38  72  14  3   89  10  3   109 25  15  104 21  7   93  23  0   222 177 136 255 226 174 246 227 169 246 231 172 251 234 180 250 229 182 253 227 192 138 106 81  62  18  5   117 75  59  250 222 185 254 233 186 245 228 174 251 234 180 252 232 181 255 231 188 223 187 155 69  34  6   78  51  21  242 222 185 251 230 183 251 231 178 251 232 176 250 230 177 253 233 183 249 231 183 240 232 183 246 233 188 254 225 191 229 173 148 118 22  10  205 87  77  219 96  78  227 97  75  232 92  69  227 95  70  204 99  69  249 174 135 255 219 173 251 230 177 245 228 174 249 229 179 255 225 191 71  38  7   107 83  45  245 222 180 255 228 183 248 224 176 239 226 174 248 226 179 152 104 68  108 59  26  246 223 181 242 231 185 241 229 181 249 231 185 255 232 186 237 204 161 226 187 148 251 198 167 172 104 85  186 98  86  204 96  86  218 97  88  214 90  78  202 84  70  195 93  78  202 126 102 255 221 184 255 233 184 249 232 178 255 234 181 255 226 184 172 113 83  125 34  15  135 19  6   204 70  61  217 95  80  220 143 113 255 222 181 253 226 179 249 233 184 249 232 186 153 132 89  126 101 61  255 231 193 248 230 190 244 231 187 252 235 192 255 222 185 120 52  29  121 19  5   201 68  61  230 81  75  233 82  73  233 83  69  231 78  64  232 76  61  225 63  50  212 59  45  196 63  44  190 76  52  183 85  58  172 85  55  169 84  55  164 88  56  153 88  56  147 91  56  143 90  56  136 87  54  131 88  56  126 91  61  120 90  66  112 89  71  102 86  73  90  80  71  87  79  77  83  79  80  77  75  78  81  79  84  78  76  81  62  60  65  47  45  46  41  41  39  32  32  30  24  24  22  25  27  24  31  33  30  33  35  32  29  31  28  31  33  32  28  32  31  25  26  28  17  21  22  
79  28  33  79  28  33  79  28  33  79  28  35  78  29  35  78  28  37  79  28  37  80  27  37  82  26  35  85  25  35  86  24  35  86  25  33  86  25  33  86  25  33  86  25  33  85  25  33  83  26  35  83  25  37  83  25  37  83  25  37  83  25  37  83  25  37  82  26  39  82  26  37  82  26  37  80  27  37  82  26  35  80  27  35  82  26  35  80  27  33  80  27  33  80  27  33  81  25  34  80  24  35  77  24  34  75  24  33  73  22  31  71  21  30  69  22  30  68  21  29  67  22  29  66  21  28  65  20  27  65  20  27  65  20  27  65  20  27  65  20  27  62  19  26  56  15  21  67  26  32  62  19  26  61  18  25  63  20  27  61  18  25  65  23  27  63  14  20  62  2   14  117 46  62  130 49  68  132 44  66  134 49  72  128 46  68  124 51  71  110 47  64  57  5   18  105 51  65  123 54  73  123 50  70  99  30  48  113 41  55  129 45  60  141 43  58  169 54  67  169 58  65  158 69  63  163 79  68  186 83  76  193 84  77  191 87  76  199 91  79  205 84  73  212 86  74  216 88  77  218 88  75  221 89  76  227 91  79  227 89  76  228 86  74  233 90  76  234 88  73  235 87  73  234 89  72  232 91  73  229 93  71  227 95  72  227 95  72  229 93  71  231 92  71  231 92  73  232 91  73  233 90  74  234 89  72  232 89  72  227 92  70  218 98  71  207 110 75  235 168 123 255 220 169 250 223 168 242 221 168 251 228 178 249 223 172 247 222 166 248 228 167 239 223 163 241 225 165 245 223 165 255 217 166 255 191 149 205 114 83  210 100 75  202 96  70  231 153 117 255 211 167 255 225 173 247 226 171 254 227 172 250 222 172 234 213 168 87  64  22  63  30  0   208 171 126 255 223 172 255 228 173 241 225 166 245 228 174 247 223 175 251 213 174 171 116 85  103 44  12  216 162 126 255 223 178 240 225 168 237 233 170 239 230 171 237 224 171 246 224 177 204 174 140 53  12  0   64  4   0   135 46  32  197 105 82  199 125 90  255 219 177 255 225 180 248 228 178 251 231 178 247 230 176 248 231 179 247 222 181 87  42  19  75  15  4   98  18  9   130 40  31  154 60  48  166 84  62  252 198 160 255 228 180 252 231 174 249 230 174 249 226 174 250 226 180 252 228 190 116 87  57  60  19  1   157 114 95  255 226 190 246 224 177 252 232 181 246 226 175 247 223 175 255 224 183 167 120 92  66  19  0   113 79  51  251 227 189 255 232 188 248 228 177 251 234 180 250 235 180 252 236 185 242 230 180 240 237 186 239 233 185 254 230 192 197 146 117 110 19  1   159 46  30  212 90  69  225 95  71  232 92  67  224 94  68  199 99  67  255 187 151 255 219 174 250 230 180 242 226 174 250 229 182 225 189 157 69  32  5   138 114 78  253 231 190 251 227 183 250 226 180 247 231 180 252 225 178 138 84  48  133 80  46  255 231 187 247 235 187 244 230 183 248 231 185 254 232 185 253 229 185 255 226 186 255 223 188 115 55  31  128 47  30  205 99  85  206 84  71  223 91  78  216 90  76  202 96  82  218 140 118 255 227 192 255 233 189 248 228 178 254 230 184 255 222 188 154 88  64  134 37  20  134 16  2   213 81  69  210 95  77  239 173 138 255 232 187 255 233 187 252 231 186 255 236 193 114 89  49  148 120 83  255 232 195 248 230 190 243 230 186 252 237 194 255 222 184 133 57  33  130 20  7   204 70  61  234 82  77  237 80  73  233 75  64  230 74  61  234 78  63  227 70  55  214 63  46  201 62  43  195 73  50  187 83  56  175 84  55  170 83  55  166 87  57  154 88  56  147 91  56  143 89  55  135 85  52  129 84  51  123 87  55  118 88  62  112 87  65  100 83  67  92  79  70  85  75  73  80  74  74  79  74  78  76  74  79  73  72  77  69  68  73  48  48  48  41  41  39  35  35  33  35  35  33  37  37  35  35  37  34  33  33  31  30  32  29  31  31  31  26  28  27  21  21  23  15  16  18  
83  26  32  86  31  36  79  24  29  81  28  34  81  30  35  77  28  34  82  32  41  77  27  36  83  32  41  79  23  34  82  24  36  87  27  37  89  29  39  83  23  33  81  21  31  85  28  37  84  26  38  80  22  36  83  25  39  86  28  42  83  25  39  84  26  40  86  28  43  81  23  37  83  25  39  82  26  37  83  26  35  82  26  35  83  26  33  82  27  33  82  27  33  82  27  33  81  25  34  80  24  35  77  24  34  75  24  33  74  23  32  72  22  31  69  22  30  67  20  28  66  21  28  66  21  28  66  21  28  65  20  27  65  20  27  65  20  27  65  20  27  64  19  26  62  19  26  60  17  24  64  19  26  66  21  28  63  18  25  63  18  25  64  19  24  65  16  22  61  1   13  117 46  62  134 53  72  131 43  65  132 47  70  132 50  72  124 52  72  104 40  57  60  3   18  95  37  52  126 52  75  125 52  72  90  29  45  97  35  48  125 47  61  140 44  58  162 44  58  184 69  76  166 76  68  173 85  71  198 91  81  199 85  75  197 85  74  206 89  79  208 84  72  217 89  76  214 88  74  216 90  76  217 90  75  229 95  83  226 86  73  234 87  77  239 88  77  237 87  73  236 88  74  237 92  75  229 86  69  238 95  78  233 88  71  234 91  74  236 97  78  229 92  74  227 90  72  237 96  79  233 87  74  230 84  69  238 98  81  213 91  67  204 110 76  245 178 135 255 217 165 249 227 170 239 219 166 247 229 179 244 222 175 249 222 175 242 210 159 250 224 167 246 227 168 239 228 166 236 224 164 251 226 172 255 218 173 218 145 110 180 93  63  224 141 109 255 207 167 255 223 175 244 227 171 245 233 175 249 226 172 251 220 173 220 190 154 56  23  0   59  24  0   243 206 164 250 216 168 246 219 166 250 230 177 241 224 172 244 220 176 255 225 187 135 92  60  53  8   0   205 165 129 254 223 179 242 227 172 240 234 176 241 232 175 245 232 180 244 221 179 166 133 102 63  16  0   67  1   0   157 64  49  197 105 80  209 144 106 255 223 178 250 221 177 247 226 179 250 233 179 249 232 178 246 228 178 229 204 163 70  31  2   76  21  0   109 33  17  196 107 93  205 103 89  208 117 96  255 208 173 255 229 183 252 231 178 244 224 171 255 232 184 255 228 181 243 226 182 81  62  22  69  36  5   192 155 126 254 224 186 251 227 181 251 229 180 252 228 180 251 218 173 222 176 140 97  33  8   85  23  0   142 101 73  255 229 192 255 232 188 251 231 181 247 234 181 247 236 182 249 236 184 241 229 179 240 237 186 238 230 183 254 226 187 173 117 90  125 32  14  129 14  0   203 78  56  224 92  69  231 93  67  224 99  71  200 107 76  255 210 173 255 223 180 246 228 182 245 229 180 251 226 185 210 165 136 72  28  1   180 154 119 240 221 179 253 230 188 255 231 185 245 225 175 252 219 174 119 59  23  176 116 82  255 229 185 245 228 182 246 228 182 252 235 189 253 235 189 246 227 184 251 229 188 245 215 181 84  36  13  80  12  0   170 73  56  217 97  81  225 92  77  220 90  76  201 95  79  246 170 147 255 221 187 255 234 192 254 233 188 255 223 184 255 223 197 137 60  42  131 28  11  148 28  12  212 86  72  212 106 84  255 207 169 255 228 181 254 232 185 254 233 188 248 223 182 90  62  23  163 133 97  255 229 192 248 231 188 250 237 193 249 235 190 255 224 185 136 54  30  138 25  9   201 68  59  236 87  81  244 79  75  232 60  56  233 69  60  232 72  60  234 78  63  222 71  54  210 65  48  192 61  41  190 80  55  177 82  54  171 84  56  163 84  54  153 87  55  147 88  56  143 87  54  135 85  52  129 84  51  123 87  55  119 88  60  113 87  64  103 82  65  95  79  66  85  74  68  80  72  70  75  71  72  71  71  73  67  68  72  65  66  70  60  60  60  40  38  39  34  32  33  40  38  39  35  33  34  31  31  31  34  32  33  30  30  30  29  27  28  26  26  26  25  23  26  25  25  27  
89  27  32  82  21  26  82  23  29  81  26  31  79  28  33  74  27  33  72  27  34  78  33  40  69  24  31  74  27  35  82  31  40  78  27  36  79  26  34  78  25  33  86  33  41  80  27  35  85  29  40  80  24  35  83  27  38  84  26  38  79  21  35  81  23  37  85  27  41  82  24  38  83  25  39  83  25  37  83  26  35  83  26  35  83  26  33  83  26  33  82  27  32  82  27  33  82  26  35  81  25  36  77  24  34  75  24  33  75  24  33  72  22  31  69  22  30  68  21  29  66  21  28  66  21  28  66  21  28  66  21  28  65  20  27  65  20  27  65  20  27  65  20  27  63  20  27  62  17  24  65  18  26  67  20  28  63  18  25  63  18  25  64  19  24  65  16  22  61  1   13  117 46  62  131 50  69  132 47  68  135 50  73  129 50  71  122 50  70  94  31  48  54  0   14  84  27  42  124 50  73  123 51  73  79  25  39  81  27  40  123 49  62  143 49  63  160 44  57  187 68  74  180 79  71  187 87  72  203 86  76  211 87  77  213 91  80  216 92  80  222 92  79  221 91  77  220 92  79  221 95  81  220 90  76  219 85  73  232 90  78  234 88  75  235 87  73  232 87  70  230 89  71  234 95  76  229 90  71  236 93  76  235 85  71  235 87  73  226 86  69  227 90  72  227 87  72  233 91  77  235 89  76  229 87  73  220 93  74  216 112 83  248 179 138 255 213 164 249 224 168 244 229 174 249 231 181 248 230 184 150 131 88  90  66  22  121 89  40  248 217 163 249 228 171 235 223 163 239 229 170 244 224 171 255 218 171 180 125 84  136 66  32  219 154 116 255 218 176 255 229 178 238 229 172 239 233 173 246 227 171 252 224 177 201 168 137 56  21  0   77  43  8   251 218 177 252 224 176 248 225 173 250 230 179 243 225 177 248 225 183 247 219 182 96  63  32  49  16  0   217 187 151 251 228 184 247 231 180 245 234 180 243 232 178 243 229 180 248 223 183 144 107 80  64  11  0   74  2   0   172 75  59  199 105 80  215 153 114 255 225 180 255 228 185 249 231 185 249 234 179 247 232 177 245 227 177 236 213 169 182 148 111 220 173 143 255 188 162 187 102 82  198 96  81  218 127 106 255 222 187 254 223 177 255 237 186 252 235 183 255 231 183 246 219 172 243 231 181 204 192 144 226 201 161 255 227 187 252 229 185 248 226 179 254 232 185 255 228 182 254 212 172 133 74  42  103 22  1   106 29  9   178 131 103 255 230 191 249 226 182 248 232 183 248 236 184 249 237 185 246 230 181 254 238 189 248 234 187 253 232 187 255 223 189 153 86  60  128 25  10  143 20  5   217 86  66  229 93  71  229 93  69  220 100 73  204 121 89  255 215 178 255 227 187 251 234 190 249 230 187 255 226 186 186 135 108 82  32  5   207 179 142 247 230 187 252 231 188 251 227 183 248 224 178 245 206 163 113 47  13  198 134 99  255 228 186 255 233 186 255 239 194 249 231 185 246 229 183 250 233 190 251 228 194 233 202 174 66  24  2   61  0   0   123 34  16  209 96  80  225 89  75  223 91  78  205 102 85  253 181 157 255 219 183 248 229 186 252 234 188 255 231 193 255 200 177 126 38  24  137 30  14  156 39  22  218 101 84  223 129 103 255 225 183 255 236 188 252 231 184 254 233 188 210 187 146 91  66  26  191 161 125 252 226 189 255 236 194 248 231 187 251 233 187 255 220 180 145 59  34  138 22  7   199 69  56  233 86  79  239 71  70  239 65  64  238 69  62  227 63  53  236 76  62  229 73  58  218 65  51  201 60  42  191 72  48  178 79  50  169 84  55  161 86  55  153 87  55  148 87  56  143 87  54  135 85  50  128 83  50  124 85  52  118 84  56  111 83  59  104 81  63  96  78  64  87  74  66  81  74  68  77  73  70  72  72  70  65  69  68  61  65  64  65  65  65  49  47  48  41  39  40  38  36  37  31  29  30  29  28  26  30  29  27  28  27  25  30  29  27  27  25  26  25  23  24  25  23  24  
92  22  32  93  26  35  95  32  41  81  24  31  78  29  35  79  37  41  69  28  34  74  38  42  74  38  42  79  40  45  72  33  38  67  26  32  76  34  38  71  29  31  70  28  30  78  33  36  78  27  32  81  28  34  77  24  30  81  26  32  88  32  41  83  27  38  78  20  32  84  26  38  84  26  38  83  25  37  83  26  35  83  26  35  83  26  33  83  26  33  83  26  32  82  25  32  82  26  35  81  25  36  78  25  35  76  25  34  75  24  33  73  23  32  69  22  30  68  21  29  67  22  29  66  21  28  66  21  28  66  21  28  66  21  28  65  20  27  65  20  27  65  20  27  65  20  27  63  18  25  65  18  26  66  19  27  63  18  25  64  19  26  65  20  25  65  16  22  62  2   14  120 49  65  128 47  66  133 48  69  136 52  75  126 49  69  120 51  70  80  23  38  51  8   17  70  22  34  121 52  73  122 53  74  69  23  36  66  20  30  121 51  62  142 50  63  155 41  51  190 69  74  203 84  80  212 91  82  217 84  75  223 86  76  222 85  75  218 81  71  221 83  72  218 82  68  222 88  76  225 91  79  226 92  80  223 85  74  240 98  86  231 89  75  233 94  75  230 95  73  224 96  71  228 99  77  225 95  73  231 94  76  233 90  76  231 87  76  229 92  76  234 97  81  233 91  79  233 89  78  236 89  79  229 93  77  212 102 77  246 166 131 255 212 166 255 230 176 247 227 174 246 226 175 249 222 179 252 227 187 109 91  53  49  30  0   125 97  49  255 225 173 246 223 169 247 227 174 245 228 174 240 218 168 255 223 177 157 112 70  90  36  0   221 169 129 255 224 180 252 230 180 239 230 175 242 236 178 243 230 175 250 229 182 167 136 107 55  21  0   100 71  37  253 230 188 247 229 179 245 229 177 245 229 177 244 226 178 252 230 191 236 212 178 61  36  6   59  34  3   235 213 176 247 228 186 248 230 182 246 230 179 245 232 180 243 226 180 253 225 188 111 69  45  64  5   0   84  6   0   191 90  72  199 105 79  235 177 139 255 227 182 253 229 185 247 229 183 248 233 178 248 233 178 249 231 183 251 228 184 250 226 182 255 224 185 255 215 183 145 69  43  158 66  45  230 149 122 255 221 185 250 226 180 243 229 180 243 229 180 249 225 179 255 233 184 247 240 186 236 231 176 247 234 182 249 231 181 248 234 185 248 232 183 253 229 183 255 221 179 182 128 94  102 28  1   126 29  13  115 26  8   215 164 135 255 231 191 250 233 187 252 240 190 245 235 184 244 230 181 245 223 176 255 230 189 255 222 180 255 221 185 255 210 184 158 65  47  150 26  16  165 24  14  229 86  70  232 91  71  228 92  70  211 100 73  211 140 108 255 221 182 251 229 188 250 235 194 252 229 187 255 223 185 159 102 73  98  42  15  236 206 168 251 234 191 250 231 188 249 226 182 255 225 181 226 181 142 116 47  14  229 163 129 255 225 185 253 226 181 253 230 186 247 229 183 255 238 194 246 224 185 255 221 196 198 157 139 57  14  0   70  13  0   130 49  32  210 103 87  219 85  73  224 94  80  199 102 83  255 205 178 255 237 197 249 239 190 246 233 181 255 229 186 242 172 147 137 41  25  135 23  9   157 44  26  203 101 79  249 172 142 255 227 184 250 232 184 253 239 192 252 238 193 248 229 187 249 227 188 245 219 182 255 234 196 255 234 193 253 232 189 255 235 191 255 221 182 146 60  35  141 28  10  200 74  60  233 92  83  238 76  74  243 71  71  230 61  56  231 64  56  234 67  58  236 72  60  229 65  53  214 62  48  193 67  45  181 80  52  167 84  54  160 89  57  153 86  57  148 87  58  142 86  53  134 84  49  127 82  49  122 83  50  115 81  53  107 79  55  106 80  63  96  77  63  87  73  62  80  71  64  74  71  64  67  70  63  58  65  57  53  60  53  63  65  62  50  50  48  35  34  32  29  28  26  32  31  29  36  35  31  32  31  27  24  23  19  21  20  16  19  18  16  19  18  16  19  18  16  
95  23  35  81  13  24  84  22  33  82  29  37  73  28  35  60  24  28  48  16  19  45  16  18  39  10  12  38  9   11  49  19  19  50  18  19  47  11  11  66  28  27  63  25  24  69  29  27  73  29  26  79  31  27  82  34  32  80  30  29  77  25  27  79  27  31  84  29  35  82  26  35  82  26  35  83  26  35  83  26  35  83  26  35  83  26  33  83  26  33  83  26  33  83  26  33  82  26  35  81  25  36  77  24  34  75  24  33  74  23  32  72  22  31  69  22  30  68  21  29  67  22  29  67  22  29  67  22  29  66  21  28  66  21  28  66  21  28  66  21  28  65  20  27  66  21  28  63  18  25  65  18  26  66  19  27  63  18  25  65  20  27  65  20  25  64  15  21  61  3   15  121 53  68  127 48  67  131 50  69  133 51  73  124 49  69  119 55  72  69  17  30  50  15  21  59  19  27  115 52  69  119 56  75  64  24  35  55  15  23  115 52  63  135 48  57  155 46  52  196 73  76  213 86  80  219 88  78  220 86  74  225 89  75  219 85  73  221 85  71  223 83  70  225 83  71  227 85  75  226 85  75  232 91  81  227 89  76  222 91  73  216 91  69  212 97  68  211 104 72  203 100 67  203 103 69  207 103 74  223 113 88  232 115 97  216 93  77  223 96  79  230 94  78  233 89  78  234 87  77  230 83  73  219 92  75  205 110 80  255 206 165 255 230 178 246 231 176 245 228 176 252 228 182 251 219 180 247 217 183 81  61  28  44  26  0   158 131 86  249 221 171 250 227 177 247 225 175 247 225 176 252 225 178 255 220 178 113 71  31  76  31  0   233 191 151 255 225 181 250 230 180 243 230 178 245 236 181 242 231 177 247 229 183 137 105 80  58  23  1   127 103 69  250 233 189 241 229 177 241 232 177 242 229 176 245 228 182 246 227 187 219 196 164 47  26  0   81  62  30  244 226 190 246 229 186 244 226 178 247 229 179 245 232 180 245 227 181 253 223 189 85  39  16  66  2   0   97  13  2   205 100 81  199 104 76  255 202 162 255 228 181 251 228 186 245 227 181 248 233 178 250 235 180 248 230 182 252 231 186 255 234 187 255 222 177 255 204 169 131 57  28  119 35  9   240 166 137 255 223 185 251 230 185 249 239 190 250 240 191 251 230 185 250 229 182 243 233 180 243 238 182 246 235 179 246 235 181 246 236 183 248 234 185 251 229 182 255 218 176 129 70  38  125 43  19  133 25  12  137 40  23  250 199 168 255 233 191 247 233 188 246 236 187 242 232 183 252 234 188 255 242 201 255 212 176 255 204 170 251 176 147 228 137 118 146 36  23  152 18  9   177 30  22  235 87  73  233 91  71  228 93  73  208 98  73  225 160 128 255 224 186 249 230 190 247 234 192 252 229 187 255 221 184 141 80  51  119 59  31  252 220 182 249 230 187 251 232 189 251 228 184 255 228 187 201 153 115 119 53  21  250 185 153 255 226 186 255 231 188 255 232 188 253 232 189 216 195 152 123 93  59  93  48  29  86  34  21  56  4   0   69  5   0   148 62  47  203 96  80  223 89  77  217 90  75  206 115 94  255 216 186 252 231 188 241 235 183 247 237 184 255 234 188 209 144 116 125 34  15  136 29  13  176 70  54  192 108 82  255 210 176 255 229 188 247 230 184 252 239 194 252 239 195 249 231 191 255 235 198 255 236 199 255 234 195 255 237 198 252 229 187 255 236 192 255 222 183 147 60  33  144 31  13  195 69  55  223 86  76  233 84  78  237 82  78  214 55  49  229 68  60  225 57  48  237 66  56  233 61  51  221 59  48  198 61  43  187 77  52  165 82  50  156 87  54  152 85  56  149 85  57  141 85  52  132 82  49  127 81  48  120 81  48  114 79  51  106 76  52  101 76  56  95  73  59  87  71  58  78  70  59  71  69  57  61  67  55  53  64  50  50  61  47  55  60  53  57  58  53  46  47  42  31  30  26  26  25  20  26  25  20  24  24  16  23  23  15  25  25  17  22  23  15  22  23  17  21  22  14  
90  23  40  94  32  47  96  42  55  77  31  41  35  0   6   28  2   5   36  16  17  15  0   0   32  14  12  39  20  16  42  18  14  48  20  16  47  16  11  55  20  14  53  16  8   152 114 103 104 67  49  72  33  16  73  31  17  83  39  28  74  27  19  78  30  26  88  38  37  76  24  28  79  27  31  81  26  32  82  26  35  82  26  35  82  26  35  82  26  35  83  27  36  83  27  36  81  25  36  80  24  35  77  24  34  75  24  33  74  23  32  72  22  31  68  21  29  67  20  28  67  22  29  67  22  29  67  22  29  66  21  28  66  21  28  66  21  28  66  21  28  65  20  27  66  21  28  64  19  26  65  18  26  65  18  26  63  18  25  64  21  28  63  21  25  59  12  18  60  4   15  120 56  70  127 53  70  129 52  70  128 51  71  123 52  70  118 57  73  60  14  24  42  13  15  52  22  24  112 55  70  115 58  73  57  21  31  47  12  18  108 51  60  132 51  58  153 48  53  192 72  73  214 87  80  212 84  71  218 93  75  213 92  71  205 86  66  210 85  65  217 80  64  229 83  70  230 79  70  232 81  72  237 90  80  226 93  76  208 94  68  233 136 103 227 150 106 236 172 124 245 185 135 255 199 150 255 203 159 255 201 164 230 165 133 160 79  52  210 100 77  222 91  73  233 87  74  241 93  81  230 87  73  215 94  73  203 120 86  255 215 170 249 226 172 236 223 168 243 223 173 255 227 185 255 221 185 243 208 178 68  43  13  50  30  0   191 167 123 254 228 179 253 231 182 243 221 174 252 225 182 254 221 180 253 211 173 97  53  16  90  48  10  248 213 173 255 226 184 250 229 182 247 229 179 244 231 178 241 230 176 246 228 182 111 77  52  60  25  5   160 136 102 245 231 186 240 231 176 241 235 177 242 231 177 247 231 182 241 222 182 191 168 136 46  25  0   110 91  59  245 227 189 251 234 191 246 228 180 251 233 183 248 232 181 249 228 185 241 206 176 71  20  0   74  4   0   115 25  14  211 102 82  202 107 77  255 212 169 252 228 180 255 232 190 249 231 185 248 235 180 246 234 176 248 227 182 250 227 185 248 227 182 253 218 176 255 192 159 126 51  22  119 43  17  239 176 145 255 226 188 251 234 190 244 233 187 242 231 185 255 241 197 254 233 190 246 228 180 254 238 187 249 236 183 242 231 177 246 236 183 245 232 180 255 234 187 255 225 183 187 131 98  124 42  18  130 20  5   182 83  64  255 214 181 253 232 189 250 236 191 249 236 191 250 236 191 252 228 184 255 217 179 164 99  67  134 42  17  145 36  16  144 31  17  146 22  12  158 21  13  190 48  38  236 93  77  232 91  71  230 93  74  209 97  75  246 177 148 255 227 191 254 232 193 246 233 191 252 233 190 254 221 180 125 64  33  145 81  53  255 224 186 249 228 185 253 234 191 253 230 188 255 228 190 175 126 93  121 62  32  255 213 179 255 233 193 255 233 192 255 233 191 255 232 191 185 155 117 68  27  0   73  15  1   74  7   0   79  8   2   78  0   0   178 81  65  216 98  84  234 98  84  216 93  77  210 128 104 255 225 192 253 234 191 250 244 194 252 242 189 251 227 179 183 130 96  129 53  29  157 64  47  168 79  61  193 132 103 255 225 189 255 244 204 255 243 200 246 233 191 250 236 197 255 243 207 255 236 201 252 232 197 255 234 200 254 232 193 255 233 192 255 237 195 255 225 186 154 64  38  141 24  7   186 55  45  201 67  58  195 67  56  212 84  73  206 70  58  217 70  60  221 54  46  236 59  53  230 51  44  221 50  42  203 53  39  192 70  49  166 77  47  153 82  50  150 83  54  147 83  55  139 82  52  131 81  48  126 80  47  119 80  49  112 77  49  104 74  50  96  69  50  91  70  53  85  69  54  75  68  52  66  67  51  58  65  47  52  67  46  51  66  47  51  57  45  54  57  50  44  47  38  30  31  23  24  26  15  24  26  15  23  25  12  22  24  11  22  24  11  15  19  4   11  15  1   12  16  1   
109 52  69  134 81  97  79  35  48  29  0   5   32  9   15  21  5   8   12  2   1   24  16  14  17  8   3   34  21  15  38  19  12  47  23  13  49  16  7   48  12  0   59  19  7   206 167 150 232 198 171 206 175 144 156 122 95  101 65  43  76  38  19  75  31  18  78  31  25  78  29  25  79  29  30  80  28  32  80  27  33  82  26  35  82  26  35  82  26  37  82  26  37  82  26  37  81  25  36  80  24  35  76  23  33  74  23  32  73  22  31  71  21  30  68  21  29  67  20  28  67  22  29  66  21  28  66  21  28  66  21  28  66  21  28  65  20  27  65  20  27  65  20  27  66  21  28  64  19  26  65  18  26  64  19  26  62  19  26  63  22  28  60  19  23  55  10  15  64  11  21  116 54  67  125 54  70  126 52  69  123 50  69  119 52  69  112 54  69  58  12  22  42  12  12  62  30  31  114 62  74  111 59  72  49  16  25  39  7   12  100 44  53  133 54  60  155 48  54  182 64  62  207 94  80  198 89  68  207 108 79  216 121 91  226 133 102 229 125 98  192 65  46  222 80  66  228 75  67  237 83  75  237 91  78  222 93  72  216 117 85  255 198 155 255 211 155 255 221 161 250 218 159 252 220 163 255 222 172 255 219 175 204 169 129 89  33  0   195 97  72  223 96  77  232 86  73  243 92  81  233 91  77  217 101 78  215 139 103 255 217 170 254 233 178 249 236 181 255 234 185 255 228 186 254 218 184 219 182 153 59  27  2   58  28  0   232 203 163 251 224 179 243 222 175 251 228 184 255 227 187 255 217 180 248 202 169 80  31  0   111 68  34  255 221 183 252 227 186 251 230 185 249 228 181 246 228 178 250 232 182 248 225 183 87  49  26  65  24  6   194 165 133 245 226 183 243 232 178 243 234 175 243 230 175 246 230 179 249 227 188 158 135 101 47  26  0   144 125 92  243 225 187 254 237 193 247 229 179 249 232 180 249 231 183 252 229 187 212 175 146 69  17  0   85  11  0   138 44  32  212 100 80  213 118 86  255 219 174 251 231 181 255 234 193 250 232 186 247 234 179 245 233 175 255 236 191 255 234 192 255 234 193 255 230 191 228 157 129 116 34  10  129 58  30  252 198 164 255 224 185 252 235 192 251 240 195 241 230 185 247 229 189 253 230 189 255 234 194 255 231 186 248 228 178 248 235 182 248 235 183 247 234 182 253 232 185 255 232 189 255 205 171 131 55  29  163 57  41  211 114 95  255 224 188 255 234 189 251 234 190 247 230 186 253 232 189 255 231 192 255 222 187 144 69  40  141 32  11  156 29  14  149 21  10  163 30  21  158 20  10  196 54  42  231 90  72  228 92  70  225 92  73  209 100 77  255 192 162 255 226 190 255 233 194 246 231 188 253 235 189 239 204 162 113 48  16  175 110 80  255 225 189 255 230 189 254 235 193 252 228 190 255 223 190 149 103 70  132 81  50  255 230 197 255 231 193 252 230 189 255 237 196 255 227 190 163 124 91  89  39  14  87  21  5   90  13  3   97  10  3   115 14  6   200 84  71  219 89  75  227 87  72  216 95  76  221 145 119 255 233 199 255 239 198 252 241 195 244 234 183 255 239 191 249 215 178 255 207 180 255 200 180 158 85  66  218 177 145 254 230 192 255 233 196 252 232 195 255 242 206 254 236 200 251 228 196 255 232 201 253 232 201 255 243 210 249 229 192 255 239 197 255 239 195 255 228 190 158 66  43  142 19  4   194 57  49  192 61  51  147 40  24  166 65  45  196 87  67  211 81  65  225 64  54  237 60  54  230 49  42  220 43  35  209 47  36  198 62  46  172 74  47  156 81  50  149 80  51  144 80  52  136 79  49  129 78  47  123 78  47  117 78  47  110 75  47  101 71  47  94  67  46  89  68  49  82  66  50  72  65  47  61  63  42  53  63  39  47  63  36  44  62  36  45  53  38  46  52  40  44  47  36  35  39  25  25  29  14  21  25  10  21  24  7   21  25  8   62  67  47  49  57  36  27  35  14  10  19  0   
150 107 126 69  30  48  23  0   5   27  6   15  19  8   12  12  8   9   15  15  13  8   9   4   16  13  6   16  7   0   33  15  5   45  18  7   54  18  6   107 65  51  163 115 101 229 187 165 228 195 160 229 204 163 229 201 164 226 196 162 198 164 137 124 86  65  73  31  17  81  37  28  79  31  27  80  30  31  80  29  34  80  27  35  80  27  37  79  25  38  79  25  38  79  25  38  81  25  36  80  24  35  77  24  34  74  23  32  74  23  32  72  22  31  68  21  29  67  20  28  66  21  28  66  21  28  66  21  28  66  21  28  65  20  27  65  20  27  65  20  27  65  20  27  64  21  28  62  19  26  64  19  26  64  19  26  62  19  26  63  22  28  59  18  22  49  7   11  69  18  27  103 43  55  108 40  55  111 38  55  107 38  56  103 41  56  95  41  55  56  9   19  51  6   11  78  33  36  106 56  65  95  49  60  41  10  18  42  7   13  93  40  48  132 53  59  148 37  43  184 71  67  252 164 142 255 186 150 255 204 160 255 211 165 255 212 167 232 158 119 152 48  21  213 86  67  231 84  74  238 87  78  233 90  76  212 90  67  232 147 108 255 218 167 253 223 159 246 227 159 245 221 157 249 220 164 252 218 170 253 218 176 199 169 131 59  10  0   154 63  36  219 97  74  231 85  70  234 84  70  229 89  72  213 99  73  230 155 116 255 220 171 250 225 171 243 228 173 248 228 178 253 229 185 255 226 191 201 164 137 62  21  1   76  36  11  251 215 179 253 224 182 249 231 185 252 233 190 248 218 180 255 218 183 230 176 148 85  32  1   138 95  63  255 227 189 250 227 185 249 231 185 251 230 185 253 231 184 255 231 183 237 203 165 81  33  13  79  27  13  230 191 162 251 222 180 252 232 179 246 231 174 247 230 174 249 229 178 255 230 190 128 102 67  51  26  0   186 163 131 246 228 190 249 232 188 245 232 179 247 231 179 249 231 183 253 228 188 176 139 112 73  17  0   95  19  6   161 65  53  214 99  78  231 134 102 255 224 179 251 233 183 254 232 191 249 231 185 246 235 179 245 233 175 255 238 193 247 222 182 249 219 181 255 223 191 211 129 107 126 38  18  132 62  36  255 223 190 255 227 189 252 233 191 245 230 189 254 239 198 251 233 195 255 234 197 255 215 181 248 204 169 254 225 183 255 233 186 250 232 182 254 236 186 248 230 182 255 230 185 255 224 186 171 106 76  178 79  58  227 137 113 255 221 182 255 235 190 255 238 195 255 236 195 255 230 191 255 226 189 248 194 160 125 45  18  145 30  11  152 20  5   157 23  12  165 27  17  181 39  29  219 76  62  229 90  71  227 92  70  219 93  71  210 110 84  255 208 174 255 228 189 252 235 192 249 232 188 255 231 186 217 174 132 113 44  11  209 143 111 255 227 189 255 232 193 254 232 193 253 229 193 255 219 188 125 80  51  155 111 82  255 231 196 249 227 188 255 238 198 255 247 207 255 227 193 141 94  66  97  39  15  91  23  2   148 67  48  185 81  72  206 83  76  228 90  79  228 82  67  229 84  67  212 91  70  230 159 131 255 227 195 255 230 196 255 239 199 250 237 193 252 241 196 251 237 200 255 238 206 255 207 186 108 52  29  225 205 170 251 242 203 255 238 203 255 233 199 255 240 209 197 172 142 126 96  70  94  64  38  243 219 191 255 239 207 255 238 202 252 239 197 245 237 191 255 226 186 159 64  42  151 21  8   206 61  56  204 73  65  139 52  32  118 49  20  156 75  48  196 87  66  223 71  58  235 61  54  232 51  44  222 41  34  220 47  40  205 54  43  178 69  46  160 79  50  148 76  51  142 78  51  134 77  48  127 76  45  121 76  45  115 76  47  106 70  44  98  66  43  93  66  45  86  65  46  78  63  44  70  64  42  63  65  41  53  66  38  45  64  32  41  60  30  41  53  33  47  56  39  60  67  51  57  64  46  34  42  21  16  24  3   16  21  0   16  24  1   58  66  42  69  79  54  56  66  41  35  48  22  
97  71  84  33  10  20  22  2   11  23  10  17  6   1   5   6   6   8   10  12  9   8   7   2   12  6   0   27  10  0   48  15  0   110 67  50  192 139 123 214 155 137 215 157 135 240 189 160 234 199 159 221 197 151 224 201 157 223 200 158 225 197 160 237 204 173 210 168 144 144 97  79  82  33  19  82  32  23  79  31  27  78  30  30  80  27  35  81  25  36  80  23  38  80  23  38  82  26  39  80  24  35  77  24  34  75  24  33  73  24  30  70  23  29  68  23  28  67  22  27  64  22  26  64  22  26  66  21  26  66  19  27  66  19  27  65  20  27  63  20  29  62  19  28  65  20  27  64  19  26  65  18  26  64  19  26  61  20  26  62  23  28  58  17  21  49  4   9   71  20  29  85  27  39  85  21  35  88  22  36  88  22  36  85  24  39  77  27  38  50  3   11  48  0   2   76  25  30  89  39  48  76  34  44  36  5   13  48  13  20  91  40  45  129 53  57  157 47  48  186 79  69  255 198 165 255 217 170 250 217 164 249 219 165 253 217 167 189 134 95  103 17  0   194 81  63  225 87  76  233 85  73  233 92  75  214 99  72  249 178 136 255 217 163 246 225 160 241 228 160 244 226 160 247 225 165 246 216 166 249 217 176 205 176 142 60  13  0   113 23  0   217 96  77  236 95  78  233 88  71  233 96  78  212 102 75  234 169 129 255 228 181 255 229 178 250 230 177 250 232 182 252 231 186 248 220 183 170 133 106 68  17  0   117 62  41  243 189 161 213 167 133 187 149 112 162 124 88  142 96  63  139 84  54  107 41  17  94  33  5   165 122 90  255 234 196 250 228 187 247 230 186 253 232 189 255 233 189 250 223 180 214 176 140 88  31  12  94  37  20  252 213 182 253 226 183 255 235 185 248 231 177 251 234 180 251 233 183 248 223 182 105 76  42  50  24  0   216 192 158 252 233 193 243 226 182 247 235 183 249 236 184 250 232 186 254 224 186 157 111 85  80  17  0   107 21  8   179 77  63  214 99  78  240 147 116 255 227 182 250 234 185 252 230 189 252 233 190 252 241 187 245 229 177 252 220 181 226 183 149 205 156 126 182 118 93  142 51  33  126 37  19  150 86  59  255 225 191 252 224 185 255 241 201 247 233 194 249 235 196 249 231 193 247 212 180 152 90  65  124 60  35  211 173 137 255 231 187 251 230 183 254 236 186 249 235 186 249 228 183 255 228 189 202 141 110 139 49  25  242 161 134 255 230 191 254 236 190 254 233 190 255 236 195 255 233 194 255 231 195 227 174 142 119 43  17  136 31  10  168 47  30  223 93  79  224 86  75  237 94  80  241 95  80  225 82  65  232 97  77  217 97  73  213 123 96  255 221 185 253 231 190 254 237 194 253 234 191 255 229 185 197 152 111 117 51  19  231 166 136 255 227 191 255 232 192 252 230 191 255 229 195 255 211 184 112 61  34  176 141 109 255 235 199 252 237 196 255 242 200 247 229 191 255 234 199 183 142 114 187 136 109 210 150 124 213 132 111 201 89  77  227 90  82  240 89  78  235 82  68  235 88  72  210 93  73  251 187 159 255 237 204 255 230 198 255 236 204 255 241 204 250 242 203 250 245 207 254 235 202 234 186 164 137 89  66  252 238 203 241 236 198 255 244 208 255 240 210 255 225 198 140 102 79  67  25  1   80  40  15  251 221 193 255 238 205 255 237 199 255 242 200 251 238 196 255 230 195 163 64  43  156 22  11  200 53  46  216 83  74  175 87  67  107 42  14  107 46  15  162 82  55  199 77  62  217 63  55  229 52  46  224 39  34  225 47  43  203 49  39  177 65  45  159 73  48  149 74  51  141 77  52  133 76  49  124 75  45  119 75  46  111 74  45  104 68  44  94  64  40  85  63  40  77  62  39  72  62  37  68  67  39  68  75  42  62  78  42  55  75  38  49  71  35  46  61  32  33  46  20  43  56  28  63  76  48  66  77  47  53  64  34  32  43  13  10  21  0   14  25  0   57  71  38  73  87  54  63  77  44  
33  27  27  20  11  12  14  4   5   15  6   7   11  6   10  10  5   9   15  11  10  23  14  5   36  15  0   63  26  0   162 98  73  216 138 115 226 140 117 226 140 115 221 145 111 241 179 140 239 196 154 232 201 157 225 204 157 217 201 152 216 198 150 227 198 154 236 191 152 232 178 144 196 139 110 137 86  59  82  40  18  75  31  18  77  23  23  87  25  36  85  22  39  82  21  39  78  20  34  78  22  33  79  26  36  74  23  30  70  21  25  67  23  24  61  21  19  61  23  20  61  23  22  62  22  22  66  20  23  68  19  25  68  18  27  65  19  29  62  22  31  62  22  31  68  21  31  69  18  27  68  15  25  70  23  31  59  20  25  55  19  23  64  19  26  47  0   5   80  22  34  83  25  37  82  26  35  80  24  33  84  24  34  82  26  37  71  26  33  63  21  25  60  11  14  78  27  32  82  32  43  61  17  30  23  0   1   40  7   14  89  40  43  123 52  50  156 51  45  200 101 80  255 210 164 255 225 168 244 222 164 244 221 167 253 222 176 149 103 70  86  17  1   117 19  10  204 73  63  222 79  65  225 89  67  221 114 82  255 208 163 251 224 169 244 222 164 245 227 163 241 226 157 242 227 160 248 226 169 248 221 178 200 170 144 62  10  0   112 20  7   219 99  85  225 92  73  229 94  72  224 94  72  202 101 73  247 199 159 253 231 184 252 228 180 254 232 182 246 234 182 245 231 184 252 226 189 143 102 74  82  24  2   89  18  0   107 30  10  104 23  2   112 31  10  106 25  4   110 28  7   107 22  1   109 22  3   98  26  1   198 158 123 250 227 186 254 235 193 253 234 192 248 226 185 255 233 192 255 230 190 188 149 116 90  28  7   120 62  40  251 223 186 248 234 189 247 229 183 248 232 183 247 235 185 248 234 187 242 217 177 85  55  19  62  32  0   241 215 180 255 233 194 250 233 190 244 231 186 249 236 191 246 227 185 255 230 195 129 72  45  99  18  0   131 29  14  199 87  73  208 97  78  253 168 139 255 228 185 246 234 186 254 232 191 253 234 192 247 239 192 252 231 188 217 160 131 122 45  25  114 36  14  114 29  9   109 13  0   112 30  9   168 115 84  255 227 192 255 232 195 251 233 195 245 238 196 243 236 194 254 236 196 238 195 163 125 39  22  121 35  18  243 197 164 254 231 189 254 236 190 245 231 184 249 239 190 250 231 188 255 226 190 174 113 84  121 39  15  241 170 142 255 231 191 251 238 193 253 238 195 251 232 190 255 238 197 255 235 197 186 140 107 114 53  25  118 40  17  162 65  46  211 96  78  227 96  78  233 88  71  239 88  71  244 91  75  230 89  71  216 101 80  213 134 104 255 226 189 255 243 202 246 231 190 255 236 196 255 233 193 162 120 82  115 54  25  250 191 161 255 227 189 255 242 200 250 231 189 255 226 192 252 186 162 109 47  22  202 174 137 247 235 193 254 242 202 251 237 198 252 236 200 255 241 205 255 235 202 255 232 200 255 225 196 186 116 91  157 43  32  231 88  80  236 79  70  241 85  73  231 85  72  200 89  70  255 212 181 255 236 201 255 239 208 253 236 206 250 240 205 250 242 205 250 237 202 255 235 204 207 161 138 186 141 118 255 238 206 253 241 203 255 240 200 255 232 198 255 220 200 110 53  36  79  21  0   99  48  21  255 227 198 255 238 203 251 232 192 255 238 199 255 234 206 255 216 197 168 62  46  150 16  4   203 60  46  221 83  72  189 72  62  141 55  38  94  47  19  90  49  21  142 70  55  180 67  59  216 48  45  229 41  39  223 48  45  204 53  44  175 64  45  160 73  53  149 72  56  138 71  54  132 76  51  121 76  47  110 74  42  106 71  43  102 64  43  95  64  43  79  65  39  65  64  33  61  65  30  61  69  30  58  75  31  61  82  39  63  86  44  60  83  41  62  83  40  59  78  33  53  70  26  52  69  25  61  76  33  67  82  39  60  75  32  48  63  20  16  31  0   33  50  6   59  76  32  68  85  41  
13  14  9   9   8   3   12  7   3   14  6   4   11  5   9   16  7   12  25  13  13  39  16  8   65  22  3   162 96  70  223 127 102 239 127 103 228 112 89  230 120 93  204 112 73  251 180 136 242 199 154 219 192 145 226 204 154 230 207 155 229 196 145 254 203 156 245 172 131 180 100 63  203 131 93  227 169 131 194 154 118 118 83  55  74  26  12  84  28  27  84  27  34  84  26  38  82  26  37  76  23  33  68  15  25  75  24  31  73  24  28  62  16  18  64  24  24  65  27  26  63  25  24  65  23  25  70  21  25  71  18  26  70  17  27  67  17  26  59  19  27  57  20  27  62  19  28  66  16  25  67  16  25  64  17  25  59  23  27  55  20  24  54  9   16  57  6   15  81  25  36  83  27  38  79  28  35  77  26  33  85  25  35  85  28  37  76  29  35  70  25  28  73  24  27  81  30  35  81  29  41  67  21  34  38  2   14  50  13  21  76  28  28  94  25  20  152 54  41  215 124 97  255 216 167 248 224 164 242 223 165 245 225 174 249 221 181 113 72  44  65  6   0   95  6   0   211 84  75  231 91  76  225 97  72  230 133 98  255 213 166 247 227 174 248 225 171 251 231 172 240 225 156 240 227 159 245 226 168 247 224 182 201 170 149 60  6   0   113 20  13  216 98  88  222 93  74  227 95  72  225 95  73  206 107 78  251 207 168 250 232 186 253 229 183 251 227 179 247 234 182 250 234 185 255 225 187 126 76  49  89  21  0   108 22  5   160 64  48  137 35  20  115 15  0   128 31  14  121 28  10  109 16  0   126 29  12  111 31  8   229 186 151 253 232 189 253 231 190 254 231 190 255 230 190 255 231 192 255 225 189 164 119 88  108 37  15  154 90  65  255 229 190 250 237 192 250 231 188 250 233 189 245 234 188 245 232 188 233 207 170 65  35  0   93  63  29  252 226 191 248 224 186 255 239 196 247 234 190 246 233 189 250 232 192 255 220 186 121 51  26  120 23  4   144 31  15  205 89  74  207 102 81  255 190 159 255 231 188 247 239 190 254 235 193 248 229 187 243 234 191 252 226 189 199 127 105 124 31  16  121 25  9   106 10  0   107 7   0   112 27  7   196 147 117 255 229 193 255 232 197 252 234 196 247 240 198 247 238 197 253 231 192 223 172 143 132 36  22  137 44  29  255 209 176 255 233 192 253 234 191 250 236 191 247 239 192 249 230 187 255 223 190 154 89  61  122 46  23  246 185 157 255 239 198 248 241 195 255 243 199 255 241 198 255 237 197 253 227 190 204 165 132 171 124 94  208 154 126 248 178 153 255 170 146 197 78  56  229 94  72  231 86  65  237 86  69  230 93  75  207 101 79  228 157 129 255 232 195 252 237 198 249 234 195 255 243 206 249 224 184 144 110 73  127 81  48  255 217 183 255 236 197 249 226 185 255 234 196 255 210 179 160 78  57  123 48  25  224 198 161 249 245 200 252 243 202 252 238 199 253 239 202 255 241 204 250 237 202 255 239 203 255 233 201 163 97  71  129 17  3   197 56  47  238 87  76  229 78  67  221 83  70  211 109 87  255 223 190 254 236 200 255 235 204 255 236 207 255 240 209 255 241 206 255 237 203 255 235 204 183 137 113 238 192 169 255 235 207 255 233 198 255 236 197 255 242 209 239 177 162 103 29  18  103 24  7   137 61  38  255 192 167 240 185 155 214 164 131 193 139 111 178 116 101 174 92  81  153 39  28  152 18  6   210 67  51  224 78  65  203 65  62  171 64  56  97  45  21  85  58  29  92  57  37  142 73  58  199 66  57  222 55  49  216 47  44  209 57  52  179 68  51  154 67  47  150 71  56  136 69  52  125 71  45  114 71  39  103 70  37  103 72  41  94  58  36  92  66  43  75  70  40  63  71  34  57  68  26  49  65  18  46  66  17  52  74  25  57  78  35  54  76  30  59  81  32  61  84  32  63  83  32  62  82  31  64  82  34  67  85  37  66  83  38  61  78  33  56  73  28  39  56  11  43  60  15  63  81  33  
6   5   0   10  7   2   14  7   1   15  5   3   16  6   7   25  10  13  37  17  16  55  16  9   126 54  40  215 114 96  226 96  80  233 90  74  229 88  71  220 90  66  196 88  52  255 186 139 228 195 141 229 213 154 231 202 146 236 190 138 255 184 139 244 146 107 208 83  51  178 55  22  206 110 70  237 170 125 214 176 127 209 182 137 168 133 101 90  49  27  65  23  7   76  31  25  74  28  30  71  24  32  81  30  39  70  19  28  68  17  26  75  25  34  62  15  23  62  17  24  62  17  24  64  17  25  69  16  26  73  16  25  73  16  25  71  18  24  66  21  24  62  23  24  64  28  32  63  23  31  64  18  28  60  14  24  66  29  36  59  24  30  42  1   9   59  13  23  78  28  37  80  29  38  78  28  37  78  25  35  86  24  37  89  27  40  82  29  39  77  28  34  78  28  31  81  28  34  80  26  39  78  27  42  63  21  33  73  30  39  85  29  32  96  23  17  150 58  45  233 149 121 255 217 168 246 221 164 245 226 170 244 226 176 244 219 179 80  43  16  65  8   0   106 19  9   220 94  82  224 88  72  205 90  61  255 174 134 255 226 178 246 229 177 247 226 173 243 221 164 245 227 161 245 230 165 244 227 171 247 226 183 205 173 152 61  7   0   113 20  13  214 97  87  221 92  73  229 94  72  228 96  75  219 113 89  255 215 178 253 230 186 255 229 185 255 230 183 253 233 183 250 223 178 255 214 181 123 57  33  107 26  7   126 30  16  204 96  83  180 70  55  132 32  16  129 41  19  128 48  23  139 57  33  154 52  37  161 73  53  254 210 175 254 231 189 253 228 187 255 227 187 255 230 192 255 228 191 255 222 188 146 89  60  122 37  17  196 120 97  255 226 190 252 233 190 252 231 188 252 233 190 246 233 188 246 231 188 212 186 149 58  28  0   123 97  62  255 233 197 248 226 187 255 238 195 250 236 191 245 232 187 251 236 195 244 206 170 115 30  9   137 25  11  156 36  22  210 97  79  202 110 85  255 208 172 253 232 187 246 243 192 252 241 196 247 234 190 253 241 199 255 232 197 169 94  71  122 26  10  107 10  0   121 21  6   140 32  20  142 49  32  234 180 152 255 231 196 255 233 196 255 240 201 250 238 198 254 239 200 255 228 193 197 140 113 131 38  21  156 67  49  255 223 189 255 234 193 255 232 191 255 237 196 250 235 192 254 229 189 255 216 188 132 62  37  130 58  36  255 204 177 255 237 198 241 237 192 249 237 195 251 238 196 250 236 197 255 240 203 255 228 194 255 233 200 255 229 195 255 229 197 248 177 149 133 37  12  195 79  54  225 97  72  229 94  74  221 96  74  202 104 79  241 174 145 255 233 198 255 243 207 252 236 200 253 235 199 255 240 203 234 212 173 238 219 179 255 238 199 254 230 192 255 234 200 255 203 175 149 74  53  129 31  18  135 52  34  250 220 184 254 250 205 250 243 201 249 240 199 253 241 203 254 240 203 251 237 202 255 238 204 255 225 194 141 75  49  135 28  12  166 36  22  222 86  70  218 85  68  211 86  68  208 114 89  255 229 194 255 236 200 255 235 206 255 235 207 255 235 205 255 236 204 255 233 201 255 226 194 182 132 105 255 219 194 255 217 190 255 211 179 236 186 151 225 166 136 172 96  82  112 23  15  124 22  10  138 28  15  166 52  41  133 19  8   132 22  7   133 27  13  136 34  29  135 27  25  152 29  22  152 15  5   210 62  50  226 74  63  220 71  67  191 68  61  130 53  33  86  49  22  61  52  23  80  59  32  135 63  38  187 70  53  207 49  48  208 53  51  177 64  48  158 72  49  145 67  47  135 67  44  127 74  42  117 77  41  101 71  33  95  69  32  89  59  31  94  73  44  73  74  40  67  82  39  66  82  35  60  78  28  57  77  26  60  80  29  60  77  33  55  72  28  50  72  26  55  78  32  60  82  36  59  81  35  59  77  35  59  77  35  62  79  37  62  79  37  68  85  41  55  72  28  51  68  24  57  74  29  
12  7   3   13  8   2   16  7   0   19  10  3   26  15  13  35  17  17  46  18  15  70  15  10  152 51  43  201 64  54  220 57  48  237 65  55  230 64  52  197 46  27  207 82  50  255 179 137 255 200 147 234 187 133 253 189 141 255 170 127 214 100 64  189 50  21  204 39  17  195 41  15  219 110 69  248 178 126 222 186 126 204 182 124 212 186 137 195 166 124 130 97  62  75  41  16  70  33  24  77  35  36  71  22  26  78  25  33  75  22  32  67  13  27  77  27  39  72  24  38  69  21  35  70  20  32  74  17  32  74  16  28  72  16  25  69  16  22  64  18  20  59  21  20  53  21  22  54  22  25  59  16  23  61  16  23  64  25  30  51  15  19  44  3   9   67  24  31  75  30  35  76  29  35  77  28  34  78  25  33  86  23  34  88  25  36  85  28  37  80  27  33  80  28  32  82  29  35  83  27  38  82  28  42  71  25  36  79  28  37  86  21  25  103 25  21  155 69  54  248 173 142 255 216 169 248 223 167 249 229 178 240 222 176 231 207 171 64  27  0   66  9   0   122 36  23  204 78  66  207 76  58  191 91  59  255 203 160 254 226 178 239 226 174 246 224 174 212 189 135 247 229 167 248 232 170 244 229 174 246 225 182 206 174 153 63  9   0   109 20  12  210 98  87  219 94  74  227 95  74  226 95  75  230 126 101 255 222 187 254 229 188 252 228 182 255 232 184 255 236 187 255 225 182 254 197 168 112 37  16  105 19  2   155 64  46  215 120 100 227 136 115 231 151 126 233 164 135 248 187 156 247 178 149 179 77  62  208 117 98  255 219 184 252 231 188 255 235 192 254 229 188 255 229 190 255 225 189 255 219 187 136 69  42  122 35  15  228 152 128 255 226 188 250 233 189 249 231 185 251 234 190 247 232 189 251 233 193 181 155 120 64  35  1   147 121 86  255 233 196 255 236 196 248 231 187 251 237 190 249 235 188 248 231 188 225 182 148 123 30  12  147 29  15  171 49  36  213 102 83  204 120 92  255 215 179 255 240 195 250 244 196 247 239 193 241 230 185 252 237 196 255 224 189 137 65  41  121 30  12  118 27  9   184 88  72  206 98  86  196 103 86  255 208 180 255 237 201 254 228 191 255 237 197 249 237 197 255 238 200 255 232 199 172 110 85  129 40  24  181 100 79  255 229 193 254 235 193 255 231 194 255 236 199 252 234 194 255 233 196 255 202 178 121 49  27  139 73  51  255 223 193 255 240 202 249 244 202 255 246 205 252 240 200 247 238 199 255 241 202 255 235 200 255 238 203 255 239 203 255 231 197 216 152 124 124 32  7   154 40  16  212 86  63  225 95  73  221 100 79  196 104 79  255 198 167 255 234 200 253 239 202 253 237 203 253 237 203 255 241 206 255 245 206 255 251 207 251 239 197 255 224 189 255 209 181 157 79  59  134 36  23  141 26  19  163 67  53  255 224 192 255 243 201 254 239 200 255 237 199 255 240 205 255 239 205 255 235 204 255 233 203 255 224 195 116 40  16  143 33  16  169 42  27  219 88  70  220 91  70  217 95  74  242 142 118 255 221 190 255 220 187 255 205 181 244 179 159 211 151 127 189 127 102 172 102 77  150 75  52  131 56  33  151 75  52  131 50  29  132 47  26  128 42  15  124 36  14  126 29  20  135 28  22  141 20  11  174 41  32  196 51  48  170 22  18  159 18  9   151 20  10  143 28  23  140 28  24  144 25  19  156 25  15  214 66  54  231 73  62  234 75  72  211 72  67  180 83  66  98  48  21  68  69  37  51  61  26  85  59  22  148 77  49  192 60  55  199 60  55  160 61  40  143 66  38  146 72  47  130 65  35  116 66  29  108 71  27  94  67  22  89  66  24  98  72  39  79  60  28  68  73  33  64  81  36  66  84  34  66  84  32  65  85  32  62  82  31  57  73  28  53  68  25  52  73  30  53  76  32  55  76  33  56  77  34  57  75  35  57  75  35  57  73  34  56  73  31  57  74  32  65  82  38  67  84  40  59  76  32  
14  5   0   17  8   3   19  10  1   27  17  8   36  22  19  37  18  14  47  16  11  84  17  11  177 47  45  208 36  34  226 32  30  229 27  23  219 27  22  207 34  20  246 101 74  255 161 128 255 151 117 240 121 89  207 76  48  193 49  23  201 40  20  209 32  16  220 27  12  212 40  16  209 96  52  252 186 126 219 184 118 213 194 125 213 191 131 207 182 126 218 192 141 190 162 122 95  65  41  74  38  26  77  32  26  77  26  25  85  28  35  85  29  42  63  10  26  65  14  31  71  20  39  70  19  36  71  18  36  70  18  31  69  19  28  67  20  26  63  23  23  60  25  23  53  23  21  61  27  28  65  20  23  70  21  25  58  13  16  41  0   1   54  12  14  73  31  33  74  30  31  75  31  32  78  29  32  81  26  31  88  23  31  89  24  32  85  26  32  81  26  31  81  26  31  82  27  33  84  26  38  83  27  40  76  25  34  84  24  32  94  18  22  121 38  34  158 80  60  255 194 162 255 221 175 251 225 174 249 228 181 238 219 177 208 184 150 55  18  0   63  5   0   135 48  31  192 68  56  206 84  63  220 136 100 255 214 169 244 223 176 241 231 182 246 225 178 176 153 103 247 226 169 246 230 171 245 229 177 243 224 182 205 173 150 60  8   0   104 22  11  205 101 88  218 97  76  224 98  75  218 96  73  240 144 119 255 225 191 251 232 190 255 240 194 249 233 184 247 231 182 255 225 184 233 169 142 115 37  17  144 66  44  255 200 174 255 220 184 255 223 184 255 229 188 255 219 180 255 225 185 235 180 149 144 48  32  210 121 103 255 225 189 248 237 192 251 243 196 246 235 189 250 232 186 255 229 188 255 206 174 127 53  26  124 44  19  249 186 155 255 233 189 246 238 189 246 235 189 249 236 191 249 234 193 253 233 196 150 121 89  59  28  0   175 151 117 253 233 196 255 240 199 247 234 189 250 240 191 250 236 189 255 236 195 205 154 123 130 33  16  148 28  14  185 65  51  200 95  74  211 134 104 255 226 189 255 229 186 250 237 192 254 246 200 254 242 200 255 236 196 238 202 168 111 47  22  107 30  10  113 36  16  197 114 96  202 101 89  204 117 100 255 225 196 255 245 208 253 235 197 248 234 195 248 241 199 255 237 199 255 232 203 148 82  58  123 42  23  204 136 113 255 230 191 252 239 197 255 234 199 255 234 199 252 234 196 255 237 203 240 175 155 121 46  27  152 91  70  255 231 200 250 236 199 243 240 199 249 241 202 247 238 199 249 241 204 253 245 206 252 239 204 250 236 201 251 241 206 255 234 205 192 120 98  144 38  22  150 18  3   219 78  61  231 90  73  218 96  75  199 109 83  255 213 180 255 235 199 250 241 202 255 244 209 255 240 207 250 230 197 254 238 202 242 237 195 251 236 195 255 216 186 158 80  60  137 31  18  144 21  14  161 32  27  190 84  71  255 228 201 255 238 202 255 237 205 255 233 202 255 233 205 255 232 205 255 225 199 255 216 191 252 180 156 128 33  13  145 23  8   177 44  29  227 94  75  232 99  80  216 85  65  216 97  77  159 65  40  139 51  31  141 35  22  144 31  23  142 31  20  148 34  23  154 33  22  149 25  15  155 33  22  149 25  15  158 27  19  153 21  9   155 25  9   147 21  7   144 21  16  142 17  15  151 17  8   186 39  31  218 59  56  204 45  41  180 33  23  164 37  22  139 37  23  128 36  23  153 55  42  181 65  52  220 77  63  220 57  48  219 50  47  217 64  59  197 81  66  129 63  37  70  67  34  44  66  27  48  57  12  84  56  19  145 58  39  176 74  59  146 75  45  136 78  41  132 69  34  130 72  34  130 86  41  141 108 57  154 131 81  167 145 98  177 149 112 89  71  35  73  75  35  64  80  33  59  77  25  59  78  23  61  82  26  57  77  24  56  72  25  58  75  31  50  71  28  47  70  26  48  69  26  48  69  26  47  68  25  45  66  23  45  63  21  44  62  20  42  60  18  42  61  16  45  64  19  51  70  24  
18  3   0   25  10  5   28  15  7   34  21  13  39  24  19  36  15  10  46  16  8   92  19  12  187 41  41  222 29  32  232 19  21  234 16  17  225 15  16  216 25  17  206 41  21  201 45  22  196 33  14  204 32  18  206 28  16  208 24  14  215 27  16  222 25  17  229 20  13  212 31  12  224 111 69  239 174 116 226 191 123 215 195 124 213 190 123 214 193 130 220 198 138 219 198 145 222 200 161 154 127 98  84  43  23  76  26  15  86  33  29  80  25  30  82  31  40  79  29  41  70  19  34  69  18  35  69  18  35  68  17  32  64  18  28  62  19  26  60  21  24  58  22  22  58  22  24  59  19  20  58  7   12  66  13  19  60  9   14  54  5   8   73  24  27  76  30  32  76  30  32  77  31  31  80  30  33  83  28  31  88  25  33  89  24  30  86  25  32  82  25  31  82  27  33  81  25  34  82  24  36  84  26  38  85  28  37  94  27  34  108 19  25  144 53  48  160 88  66  255 206 171 255 225 178 251 225 176 248 227 182 245 223 184 183 154 124 58  13  0   70  3   0   162 71  53  207 85  70  209 97  75  252 183 144 255 220 175 248 231 185 244 233 187 234 215 172 159 137 90  247 226 173 247 227 174 248 232 181 249 230 188 206 176 152 58  9   0   100 22  10  204 102 88  219 98  77  222 98  74  210 98  74  251 168 138 255 226 190 251 234 191 246 234 186 245 235 184 249 237 187 255 235 193 205 138 112 113 35  15  142 76  50  255 219 186 255 228 183 250 234 183 255 236 189 255 237 193 255 229 190 205 152 121 133 40  23  195 108 89  255 227 193 246 239 193 243 242 194 241 239 190 245 237 190 255 235 193 247 184 153 121 44  18  129 55  28  255 206 172 255 235 190 244 240 192 244 238 190 248 237 192 253 235 197 255 233 199 118 87  58  46  17  0   211 188 156 255 240 204 247 235 193 253 245 199 249 241 192 249 237 189 252 229 188 186 140 107 147 69  46  179 82  63  233 132 112 194 104 80  223 157 125 255 223 184 255 234 194 254 237 194 249 240 197 249 240 197 255 237 200 255 228 193 205 155 128 232 175 148 255 200 175 255 214 189 195 107 93  192 115 97  255 225 193 248 236 196 253 244 205 250 243 201 251 243 204 255 236 199 255 216 191 132 57  38  122 41  24  230 166 141 255 231 194 255 242 201 255 237 203 255 234 200 248 234 197 255 237 205 207 142 122 115 44  26  172 122 97  255 233 201 255 252 213 250 247 206 252 242 206 248 238 202 250 242 205 247 239 202 251 241 205 254 244 208 248 235 201 255 234 206 167 86  67  141 25  12  163 22  12  232 81  70  237 91  76  216 94  73  207 120 92  255 223 189 255 240 202 255 245 207 255 239 206 255 230 200 255 227 199 255 241 211 255 232 194 249 209 174 154 76  54  131 23  11  154 25  20  163 24  21  161 19  17  243 125 115 255 207 184 250 193 164 242 176 152 217 146 124 193 120 101 168 95  76  149 72  54  137 51  34  138 38  22  143 25  11  164 28  16  197 55  41  227 87  70  225 88  69  232 92  75  226 93  76  195 75  58  162 42  28  153 16  10  161 19  17  164 27  21  160 21  14  158 15  9   160 16  8   159 15  7   171 24  17  194 41  35  182 28  20  179 29  15  181 37  26  183 45  42  197 59  57  201 57  49  200 48  37  217 54  49  214 53  45  202 56  41  188 66  45  152 55  36  119 41  19  112 45  19  135 55  30  172 56  33  201 60  43  206 52  44  206 62  53  179 67  47  167 97  71  71  58  24  61  76  37  68  81  35  94  81  39  156 96  70  163 87  64  137 78  46  159 110 70  241 189 149 251 204 158 252 215 162 246 217 161 245 222 168 248 224 176 221 189 151 78  54  20  77  75  36  71  83  37  64  80  31  61  80  25  62  85  29  58  83  28  57  77  28  63  82  37  61  83  37  60  83  37  62  84  38  62  84  38  58  80  34  53  75  29  55  74  29  58  77  32  60  79  34  55  74  28  49  68  22  49  68  22  
45  20  23  45  24  23  37  18  12  34  17  10  40  21  17  38  18  11  45  17  6   88  18  10  184 34  33  221 22  25  232 16  19  239 16  19  234 15  19  227 23  22  207 25  12  209 29  15  214 19  15  217 15  13  222 18  19  226 22  23  217 17  17  218 16  14  232 19  21  217 36  25  209 99  62  246 183 129 228 188 126 219 191 126 216 191 127 218 194 132 230 210 149 218 202 143 213 202 146 223 207 156 206 172 134 129 85  56  75  27  7   75  25  14  76  31  25  77  33  32  77  32  37  77  30  40  74  26  38  70  24  35  63  20  30  58  16  26  54  12  22  53  10  19  54  7   17  53  0   10  54  0   8   63  3   13  71  14  23  76  23  29  83  30  36  81  30  35  79  28  33  80  30  33  81  28  34  83  28  33  86  25  33  86  25  32  86  25  33  83  26  33  85  29  40  81  28  38  81  25  36  80  24  33  83  23  31  93  21  25  114 13  19  160 61  56  180 110 85  255 214 174 255 225 179 251 228 178 248 230 184 248 224 186 156 116 90  70  13  0   82  4   0   189 90  71  215 98  81  209 107 82  255 201 162 253 224 180 248 231 188 241 228 186 194 175 135 160 139 96  250 228 179 251 229 180 248 230 184 251 232 192 206 179 152 59  12  0   101 23  10  206 102 89  222 95  78  221 97  73  202 103 74  255 192 159 255 226 189 249 236 194 243 235 188 247 241 191 245 239 187 255 232 189 174 104 79  121 44  24  164 113 82  252 223 183 249 235 186 253 243 192 251 233 187 255 228 185 255 219 184 184 118 92  141 48  33  226 140 123 255 228 196 248 239 196 237 239 192 241 245 195 244 242 194 255 237 196 222 157 129 121 41  18  141 69  44  255 215 183 255 235 192 246 240 192 245 238 192 248 236 194 255 233 199 255 227 197 85  53  28  57  30  3   235 218 188 254 244 208 243 236 194 252 248 203 247 243 195 247 239 192 254 237 194 251 226 186 255 234 197 255 230 195 255 197 166 131 68  37  213 160 126 255 232 196 255 238 200 255 239 199 249 240 199 249 240 199 255 235 200 255 235 200 255 223 192 255 238 205 255 235 203 255 220 189 139 72  53  187 126 105 255 238 203 246 244 203 249 247 208 246 241 201 253 243 207 255 233 202 255 188 171 128 39  25  132 44  30  255 185 165 255 231 201 255 239 203 255 238 203 254 240 205 243 238 200 255 238 205 172 114 94  102 37  19  199 159 133 255 238 205 248 240 203 244 239 201 254 241 206 255 242 207 255 246 211 248 238 202 253 240 205 253 239 204 250 234 201 255 228 203 160 73  56  145 24  13  170 28  18  230 79  68  232 89  73  222 101 80  220 133 105 255 226 192 255 235 196 255 232 194 255 229 199 255 234 209 255 230 207 255 211 187 251 185 159 161 74  54  150 32  22  161 22  19  162 14  14  167 15  14  213 63  62  212 79  72  164 58  44  131 34  17  141 30  19  141 27  17  144 30  20  144 30  20  144 29  22  147 26  18  152 21  13  166 23  15  166 12  4   215 61  49  242 95  79  230 88  68  236 89  73  239 93  78  230 92  79  200 59  49  179 27  22  179 27  22  184 43  34  188 52  40  204 63  53  220 80  67  221 79  65  224 81  67  229 81  69  219 71  57  214 69  50  212 71  54  217 75  71  231 89  85  224 77  67  215 65  51  213 59  49  211 61  47  200 65  43  185 67  41  165 69  45  136 69  40  95  68  23  110 83  36  158 93  53  220 125 93  214 99  78  186 71  52  206 117 87  219 159 125 216 187 155 213 200 165 226 213 171 242 217 177 255 211 182 173 111 86  123 62  34  189 135 99  254 211 166 255 223 169 251 225 166 242 220 160 237 215 158 246 218 170 194 156 120 68  35  4   64  54  19  71  76  35  69  81  35  61  79  27  61  86  31  57  86  32  52  80  31  56  82  35  57  81  31  58  81  29  61  84  32  63  86  34  61  83  34  55  77  28  57  77  28  61  81  32  53  73  24  60  80  31  58  78  29  53  73  24  
81  44  52  73  38  42  48  16  17  34  6   3   41  15  14  47  19  16  47  19  8   82  14  5   187 42  39  210 17  18  228 18  19  232 13  17  230 11  17  228 15  19  218 20  17  217 22  16  225 17  17  233 18  23  230 13  21  226 11  18  228 19  24  226 20  24  229 14  21  210 29  22  215 108 74  243 183 133 234 194 135 222 194 131 223 197 136 220 196 136 218 196 138 224 205 146 218 207 143 217 201 141 230 197 146 233 190 148 185 139 105 111 66  37  71  30  8   70  28  12  75  30  24  76  31  28  77  31  34  77  30  36  74  29  36  71  25  35  68  22  33  69  19  31  73  16  31  81  20  35  89  28  43  82  22  34  83  25  37  86  30  39  78  22  31  83  28  34  82  27  33  80  27  33  80  27  33  80  27  33  82  25  32  82  25  32  83  26  33  84  27  36  78  25  35  80  26  39  80  29  38  81  26  32  87  25  30  105 24  30  136 25  31  194 86  83  208 141 114 255 222 180 255 224 177 254 232 182 251 233 185 247 219 180 135 85  58  83  10  0   103 10  0   200 93  75  209 98  78  224 133 106 255 216 175 255 235 191 245 226 186 249 231 193 146 128 90  161 142 100 252 229 185 254 232 185 245 224 181 249 227 188 203 177 150 60  15  0   102 24  11  209 101 89  224 91  76  221 95  73  197 108 76  255 209 172 255 225 187 251 236 195 249 238 192 246 238 189 244 236 187 255 233 191 156 80  57  118 37  16  183 140 106 253 234 191 245 233 185 251 241 192 245 233 185 255 229 189 255 227 196 164 93  71  120 32  18  249 174 155 255 231 199 255 243 203 242 239 196 251 248 203 250 238 196 255 230 192 204 132 108 121 39  18  154 88  62  255 228 193 255 238 196 248 241 195 247 238 195 248 233 194 255 228 198 252 218 191 63  28  6   84  58  33  246 229 201 250 239 207 249 239 203 248 239 198 252 241 196 252 239 195 255 239 199 253 235 195 251 236 193 251 228 186 238 194 159 104 54  21  221 181 145 255 231 193 255 238 201 255 237 200 248 239 200 253 244 205 254 238 204 254 236 200 255 244 208 249 235 198 252 238 201 253 224 192 114 56  34  201 147 123 251 235 201 245 246 206 242 243 203 248 244 206 252 239 204 255 233 205 245 168 152 125 33  22  135 54  37  255 200 178 255 237 206 255 236 200 255 237 201 255 244 206 243 238 200 255 235 200 155 97  77  95  30  10  224 187 160 255 242 207 255 241 206 255 241 205 255 238 207 255 232 199 255 236 206 255 235 201 255 240 209 255 232 202 255 237 209 255 203 179 142 45  29  149 25  13  177 35  25  239 91  79  233 92  75  222 96  74  234 132 107 255 176 146 216 153 122 199 139 111 180 109 87  153 78  59  141 65  49  132 49  33  133 33  17  148 30  16  156 17  10  165 16  12  174 25  21  207 58  54  233 89  81  232 95  85  196 74  61  155 33  20  158 23  17  158 19  14  159 22  16  154 19  13  159 21  18  164 22  18  174 25  19  179 24  19  194 31  24  232 71  61  233 83  68  232 85  67  233 80  66  237 81  68  236 82  72  241 84  75  242 80  75  237 83  75  232 94  81  225 95  79  221 92  73  221 95  73  216 94  71  217 95  71  221 99  75  220 98  74  215 94  65  205 83  59  216 92  80  212 88  78  203 78  58  204 80  56  206 81  59  224 106 80  237 133 98  235 145 108 252 176 142 245 196 156 229 218 164 235 230 172 250 217 164 255 203 162 203 119 91  147 61  34  255 195 157 255 218 176 250 218 180 243 220 179 250 223 178 255 225 181 254 215 182 127 82  53  88  37  8   201 153 117 255 222 171 244 220 160 238 218 155 249 229 168 247 225 168 252 221 175 167 124 92  62  25  0   54  39  8   69  71  34  71  80  37  57  75  27  55  82  29  58  88  36  55  87  40  58  87  41  53  77  27  51  74  20  52  75  23  59  82  30  61  84  32  58  80  31  57  77  28  57  77  28  55  74  28  59  78  32  55  74  28  53  72  26  
107 50  67  103 49  62  88  41  49  67  25  29  53  14  19  50  14  16  52  19  12  74  10  1   173 38  35  206 28  28  212 20  19  212 10  10  230 19  26  228 14  22  220 14  18  220 16  17  218 14  13  226 17  20  233 14  22  230 9   18  227 12  20  229 15  23  233 16  25  211 29  26  219 114 84  248 192 145 230 195 139 217 193 133 225 200 143 225 200 144 224 197 142 228 203 146 222 201 138 231 206 142 229 188 134 238 188 139 218 170 124 217 172 130 169 130 89  98  60  24  72  26  2   76  27  10  80  30  19  80  29  25  77  27  28  82  31  36  86  30  39  80  22  36  82  21  37  92  31  47  79  22  37  78  24  37  86  32  45  78  25  35  79  23  34  80  24  33  83  27  36  80  24  33  77  24  32  78  27  34  80  29  36  80  29  36  82  26  35  83  27  38  84  30  43  76  25  34  79  30  36  84  32  36  85  21  22  105 19  20  186 67  71  209 96  90  232 167 137 255 223 179 255 231 182 247 227 176 248 227 180 255 223 182 119 55  28  105 16  0   133 23  8   213 100 82  202 100 77  244 168 136 255 223 182 251 230 187 254 230 192 252 229 195 99  83  47  185 170 129 249 230 187 248 225 183 252 229 188 250 226 190 210 185 155 56  11  0   108 26  12  209 95  84  231 89  77  222 91  71  201 121 88  255 220 182 255 231 195 255 237 200 253 234 192 255 238 194 251 237 190 255 221 183 144 57  38  125 38  19  213 173 138 250 233 189 251 234 190 253 240 195 248 242 194 247 228 186 255 220 189 136 68  45  120 49  29  255 206 183 255 233 200 255 243 205 250 236 199 253 233 196 255 239 205 255 220 193 184 101 85  125 42  24  180 123 96  255 225 188 255 240 200 250 241 198 250 238 198 255 238 203 255 227 201 219 178 156 58  22  0   111 83  61  255 237 212 253 236 208 255 239 207 255 241 206 255 232 194 255 235 198 255 234 199 252 232 195 250 241 200 255 242 201 211 168 134 100 54  21  250 218 180 255 236 198 255 236 202 254 238 204 250 240 204 248 243 205 250 242 206 249 244 206 247 245 206 247 243 205 252 238 203 243 209 181 110 49  30  226 169 149 255 233 201 255 250 212 245 243 205 248 244 207 250 240 204 255 229 201 216 145 127 125 43  29  133 71  50  255 232 205 254 230 194 255 244 205 253 233 196 255 245 207 247 231 195 255 232 198 132 67  47  111 43  22  255 214 188 255 235 202 255 234 203 255 236 204 255 225 199 255 227 200 255 227 203 255 217 190 255 204 180 237 181 156 220 154 132 197 112 92  139 27  13  151 21  8   183 45  32  234 92  78  233 92  75  226 89  71  216 87  68  174 53  34  141 26  8   142 26  13  158 31  24  154 27  21  146 24  19  149 28  20  152 26  14  155 21  9   154 12  2   172 30  20  205 72  57  223 93  77  221 91  75  219 92  75  223 98  80  203 73  57  189 47  37  186 42  33  195 54  45  203 65  55  212 71  62  217 73  65  227 76  67  231 74  65  233 72  64  230 72  61  223 73  58  222 72  55  227 70  55  230 66  56  235 67  58  232 63  56  229 62  56  220 68  57  208 79  60  210 94  69  211 97  71  208 103 73  199 111 73  209 130 89  223 144 103 235 156 115 250 169 124 255 181 141 255 182 155 176 90  65  218 135 101 255 202 163 255 205 163 255 210 163 255 215 160 255 214 159 253 217 167 247 219 169 243 226 170 238 222 163 243 218 164 255 222 178 147 88  58  117 56  25  255 218 173 248 218 166 244 222 173 248 228 178 252 225 172 245 217 167 243 220 179 78  54  18  58  27  0   217 187 149 247 224 170 245 225 164 243 228 163 242 224 162 238 217 162 255 226 182 132 88  59  55  17  0   44  28  2   65  66  34  61  72  32  62  81  36  55  81  34  58  87  41  50  81  39  36  65  21  22  46  0   59  79  28  61  81  32  63  83  34  59  79  30  59  78  32  33  52  7   31  50  5   50  68  26  53  71  29  54  72  32  54  72  32  
126 54  76  119 50  69  109 45  59  97  39  51  82  28  41  67  20  28  64  24  24  89  24  20  154 29  27  186 27  24  203 31  27  207 23  21  215 16  23  216 10  20  220 13  21  222 16  20  220 18  16  220 14  14  228 9   15  231 7   17  228 11  20  227 13  21  227 13  21  202 24  20  227 122 93  250 189 144 234 194 142 225 194 139 232 199 145 236 199 147 237 195 145 242 196 146 242 195 143 242 189 135 248 182 134 243 172 126 205 143 94  217 164 112 209 168 114 212 172 121 183 138 96  130 80  45  82  31  4   74  23  4   78  30  16  79  30  23  80  26  24  79  23  26  84  29  35  73  20  28  82  33  37  76  30  33  73  23  26  77  25  27  82  30  32  81  30  29  82  28  28  81  30  29  80  30  29  77  29  27  73  29  26  74  29  26  79  29  30  81  29  33  76  25  30  74  25  29  81  32  35  82  26  25  89  19  17  125 31  29  212 88  90  210 96  86  246 183 152 255 224 179 255 232 182 253 233 182 255 236 186 247 208 169 117 41  17  119 16  1   154 34  20  215 98  81  201 109 84  255 204 169 255 229 188 250 228 187 253 224 190 240 214 181 66  50  14  197 185 145 252 235 192 255 235 194 255 232 194 249 223 188 205 180 149 59  14  0   105 22  8   216 99  89  234 90  79  222 93  72  207 133 98  255 230 189 255 229 192 255 233 199 255 237 199 255 233 192 255 239 195 255 219 183 130 43  26  120 33  16  233 195 159 250 233 189 255 239 196 246 229 186 250 243 197 252 230 189 255 204 178 132 55  35  128 62  40  255 218 193 255 240 205 245 236 197 255 242 205 255 237 202 255 232 202 255 224 199 150 82  63  136 71  49  203 164 133 255 238 199 252 237 196 249 235 196 254 234 197 255 229 198 240 189 168 100 47  29  66  25  5   151 120 99  255 243 219 250 233 205 251 232 202 255 238 205 255 235 201 255 234 199 255 238 206 255 240 206 252 240 200 252 234 196 182 135 105 111 62  30  255 229 192 254 239 200 255 241 204 254 240 205 251 241 206 249 241 205 245 239 203 244 240 202 244 242 203 247 242 202 253 234 201 201 164 135 109 48  29  255 201 179 255 236 208 255 240 206 248 235 200 255 244 209 255 239 206 255 235 207 181 104 88  128 42  27  169 104 82  255 227 198 255 231 198 255 238 202 255 239 206 255 219 187 255 231 199 252 198 170 119 38  19  142 55  38  255 195 172 244 184 158 214 152 127 207 139 116 185 108 88  165 84  65  147 64  46  130 47  29  127 41  24  120 31  13  130 33  16  145 35  20  143 17  5   155 21  9   190 54  40  228 91  73  232 92  75  238 97  80  236 95  78  216 74  60  187 45  33  165 21  13  163 9   7   166 14  13  164 22  20  163 24  17  170 28  18  183 40  26  192 49  35  206 66  51  224 95  76  226 101 79  221 95  73  225 94  74  231 96  77  229 88  71  229 81  69  232 81  70  230 83  73  226 82  71  228 81  71  231 83  73  232 78  68  233 77  65  235 74  64  231 73  61  223 76  60  222 75  57  228 71  56  234 68  56  232 59  52  230 62  53  212 59  45  216 84  63  241 137 108 253 168 131 255 183 146 255 196 153 255 206 157 255 212 158 255 208 157 255 209 156 255 215 161 255 213 165 250 190 154 107 47  13  212 157 116 255 220 170 255 222 170 249 220 162 247 223 159 244 226 162 241 224 168 244 224 171 242 221 164 247 225 167 245 224 171 240 213 168 102 63  30  116 78  42  254 228 179 244 228 169 243 228 171 243 226 170 250 226 166 251 226 170 225 206 163 52  36  0   52  32  0   231 209 170 244 223 170 246 228 166 242 226 164 241 225 165 246 225 172 250 221 181 104 62  37  48  13  0   41  29  5   58  63  33  57  69  33  61  79  39  56  81  39  55  82  41  41  67  30  17  41  5   53  71  31  54  71  29  66  83  41  63  80  38  44  61  19  15  33  0   33  51  13  67  85  47  61  78  42  58  75  41  55  72  40  53  70  38  
133 49  73  131 49  72  128 51  69  121 48  67  106 37  56  90  27  44  84  31  39  103 33  35  140 26  25  160 18  14  172 23  16  190 27  22  198 19  23  209 18  25  216 17  24  211 11  14  216 17  12  216 11  6   226 8   9   233 10  15  225 12  16  220 14  18  219 16  19  197 26  16  250 139 109 255 188 144 245 192 142 242 195 143 246 193 143 251 190 145 253 184 142 255 179 140 255 177 144 255 159 127 235 126 95  183 79  44  165 78  33  235 168 115 228 180 118 218 177 115 225 179 120 219 172 120 207 158 115 170 125 86  114 73  41  75  35  9   71  26  7   79  33  18  73  31  17  69  31  18  65  28  12  69  30  15  77  29  15  85  33  19  88  39  24  85  38  20  92  47  28  93  51  29  94  52  30  90  49  27  83  47  25  81  43  22  77  34  15  73  27  12  79  31  27  87  39  37  81  30  26  85  25  17  107 28  21  144 42  37  198 73  69  197 85  73  255 203 169 255 230 183 250 230 180 245 227 177 254 232 185 232 187 148 124 38  15  141 28  14  181 53  40  213 96  79  211 132 102 255 219 182 255 228 188 255 233 192 255 235 201 221 192 158 58  43  4   220 208 168 246 231 190 248 229 189 255 231 193 255 231 196 208 181 151 61  15  0   106 23  7   206 93  79  231 91  76  216 92  68  214 149 111 255 233 189 255 241 204 255 239 206 255 234 197 255 240 201 252 233 191 230 192 156 121 40  21  126 45  26  249 213 177 255 246 203 255 237 195 255 239 199 253 241 199 255 226 190 255 183 163 118 26  11  158 81  61  255 228 201 254 236 198 245 244 200 248 246 205 246 241 201 255 235 202 255 237 207 254 220 192 254 227 197 248 239 198 252 247 205 244 230 191 255 244 207 255 231 199 241 191 166 113 44  28  100 31  16  78  27  10  187 152 130 255 234 207 254 240 211 255 245 213 254 244 209 250 240 204 253 241 203 253 230 198 255 241 207 254 232 195 255 228 195 172 112 86  146 90  63  255 234 198 254 247 205 251 243 204 253 243 207 255 242 209 255 242 209 255 243 208 255 242 207 255 242 205 255 242 204 255 241 208 177 138 107 127 69  47  255 217 193 255 228 201 255 237 206 255 237 206 255 234 203 255 232 205 255 221 199 172 74  63  135 28  18  182 95  78  255 185 161 236 170 144 203 137 111 182 106 82  174 94  71  149 67  45  139 48  29  140 30  17  149 32  22  149 43  29  128 26  11  133 30  15  140 32  19  142 29  15  147 29  17  147 26  15  145 23  12  152 28  18  153 29  19  148 25  10  151 24  9   159 23  9   162 24  11  199 66  49  224 93  73  226 91  72  230 90  73  233 90  74  234 91  75  225 82  68  210 63  53  210 57  51  221 70  63  225 84  75  227 86  76  234 86  74  243 91  78  237 89  75  230 87  71  227 92  73  222 90  69  224 85  66  234 89  72  232 82  67  235 82  68  240 84  72  241 85  73  234 82  71  228 76  65  231 74  65  234 78  66  236 78  67  235 77  65  235 75  63  230 74  61  223 76  60  221 74  58  224 71  57  229 69  57  223 59  47  227 74  58  206 78  53  225 128 93  255 203 158 255 216 164 255 217 165 253 218 162 248 219 161 252 223 163 254 222 165 255 220 163 255 216 158 255 212 162 237 189 151 88  42  6   216 175 131 247 214 161 244 217 164 244 222 164 251 230 167 246 226 165 237 217 164 245 224 171 245 223 166 245 223 166 243 226 174 231 212 169 74  51  19  134 114 77  241 228 175 240 232 169 242 232 170 241 227 164 247 227 164 251 229 171 203 182 137 43  20  0   72  49  18  248 224 190 244 221 171 251 229 171 243 224 165 243 224 166 250 230 180 237 212 172 71  35  11  42  13  0   32  27  5   54  64  37  57  74  42  55  77  41  42  67  28  39  63  27  40  59  29  28  42  16  65  78  50  68  81  51  55  68  38  29  42  12  4   17  0   36  51  22  58  73  44  54  68  42  54  70  44  43  59  33  32  47  24  27  42  19  
122 34  59  131 46  69  136 53  73  130 48  70  118 38  63  110 36  59  104 38  52  109 34  39  139 33  33  150 27  20  156 28  17  171 33  23  179 24  22  191 22  25  202 23  26  210 25  23  209 16  9   217 12  7   230 10  12  233 10  15  222 7   12  216 10  12  219 15  16  204 23  14  214 75  52  220 110 75  220 122 83  227 133 95  226 128 91  223 118 86  217 104 74  212 88  64  207 70  54  189 46  30  189 44  27  191 59  34  199 96  55  245 168 114 216 165 99  213 173 103 216 173 105 218 172 110 220 175 118 220 180 128 219 188 141 218 189 147 200 166 129 170 135 103 147 116 85  145 114 83  154 117 88  174 127 99  200 140 114 169 108 80  221 168 136 209 165 130 207 169 130 207 172 132 206 171 131 203 170 129 202 170 131 201 169 130 194 159 121 186 145 115 134 93  75  100 52  40  83  27  14  99  27  15  117 25  14  174 63  54  205 81  73  197 91  75  255 209 173 255 233 185 255 234 187 247 226 179 255 231 186 214 164 129 125 30  10  142 22  8   195 65  52  206 95  76  239 174 142 255 223 183 255 232 191 250 231 191 255 227 190 167 141 106 55  37  0   221 208 166 250 235 194 249 230 190 251 229 192 255 229 194 211 180 149 68  18  0   112 25  8   208 92  79  228 88  71  205 81  57  239 171 134 255 232 189 255 237 203 255 241 208 255 238 203 255 238 201 250 235 194 210 177 142 115 49  27  138 72  50  253 220 185 250 235 192 252 234 194 255 246 206 254 230 192 251 200 171 160 63  47  151 39  28  138 41  25  228 156 132 255 235 201 252 237 196 252 247 205 248 243 203 255 245 210 249 233 199 253 240 206 251 246 208 248 246 205 244 237 195 255 243 208 255 217 185 234 177 150 131 56  35  124 30  18  110 22  10  87  26  8   231 193 170 255 239 210 250 237 205 243 234 201 245 241 204 248 249 209 249 247 208 251 235 201 255 244 210 255 239 205 255 227 195 138 72  48  178 116 91  255 235 198 252 240 200 253 241 203 255 238 205 255 235 205 255 234 206 255 236 205 255 234 203 255 229 198 255 224 193 255 216 186 166 109 82  154 82  60  255 202 182 255 208 186 255 196 171 231 171 145 210 148 123 189 118 96  174 83  65  154 33  25  159 32  25  144 34  21  151 50  32  122 23  4   135 34  16  146 39  21  143 30  14  142 26  11  155 33  20  149 18  8   147 14  5   193 62  52  194 63  53  155 22  13  154 21  12  155 21  10  161 24  14  166 25  16  168 25  17  177 33  25  183 41  31  193 55  42  197 61  45  212 72  57  214 77  61  225 96  77  226 100 78  228 95  78  230 90  73  233 90  74  234 91  75  232 91  74  232 89  73  234 86  74  233 87  74  227 89  76  226 89  73  233 85  73  240 88  75  235 88  72  231 88  71  232 93  74  232 91  73  235 88  70  241 90  73  243 87  72  239 83  68  236 80  67  234 81  67  234 80  68  233 79  67  239 78  68  241 81  69  238 80  68  237 79  67  238 78  66  234 76  64  226 76  61  224 74  59  227 71  58  230 68  57  229 65  53  228 78  61  200 85  56  239 160 119 255 223 168 243 223 162 241 222 163 242 223 164 242 226 164 242 224 162 245 221 161 254 225 167 250 218 159 248 212 160 190 152 115 70  34  0   225 194 148 251 225 174 252 229 177 240 219 162 242 222 161 247 227 166 246 224 174 250 228 179 247 226 173 245 225 174 244 226 180 214 196 156 50  35  2   162 150 112 233 226 171 239 231 168 243 232 168 246 230 168 247 227 164 247 225 168 174 149 108 49  22  0   108 81  54  253 224 192 250 222 175 253 228 172 245 224 167 243 224 168 246 228 180 220 196 160 54  22  1   43  17  2   39  38  18  47  61  36  44  63  35  42  63  30  37  61  27  41  62  31  44  58  33  26  35  14  38  47  28  33  40  22  12  19  1   7   16  0   5   14  0   52  64  42  57  69  49  35  48  28  17  30  10  6   21  0   0   14  0   0   15  0   
105 23  45  117 38  57  131 50  69  133 51  73  129 46  72  124 44  71  117 40  60  115 33  45  130 34  35  137 33  24  144 36  23  155 42  28  170 43  34  174 37  31  175 31  23  189 26  19  206 19  12  220 15  12  232 9   12  230 3   10  223 4   10  223 8   13  225 9   12  218 10  10  212 21  13  208 30  16  200 30  13  202 35  17  198 28  13  206 34  22  211 34  26  211 32  27  207 25  24  215 35  34  214 37  31  198 43  25  203 85  49  245 162 108 227 177 108 213 177 103 215 177 104 217 179 108 224 186 121 225 194 130 216 196 137 213 196 140 223 201 151 227 205 156 232 210 161 227 196 149 243 194 153 255 197 160 212 126 93  173 87  52  235 171 127 229 181 132 217 185 128 214 188 129 215 184 127 211 182 124 213 187 130 221 196 139 227 197 143 225 193 146 233 197 165 236 190 166 226 161 141 182 96  79  174 67  51  194 74  60  193 71  56  220 124 100 255 218 179 253 235 187 253 235 189 252 229 185 255 231 190 194 138 105 132 35  16  152 30  17  206 80  66  204 102 80  255 206 171 250 229 186 254 237 194 250 232 192 253 231 192 183 159 121 143 124 84  239 221 181 253 238 197 248 230 190 253 233 196 254 230 194 215 178 149 79  21  0   118 22  6   220 98  85  219 76  60  197 68  46  253 174 141 255 235 196 255 229 196 254 238 204 252 238 201 255 246 206 247 238 195 238 219 179 247 206 178 255 216 189 255 242 205 250 235 194 250 236 197 255 231 193 242 193 163 153 71  50  150 27  19  153 14  9   155 27  18  173 63  46  240 163 137 255 230 197 255 236 197 247 229 191 255 237 201 255 247 212 248 238 203 248 242 206 251 242 203 255 234 198 255 227 199 254 178 155 151 60  41  137 31  17  141 22  14  135 28  18  120 52  33  250 208 183 255 234 202 255 246 212 254 246 210 247 245 206 242 249 207 241 246 205 255 247 208 250 232 194 255 232 198 255 219 187 118 52  26  205 139 113 255 234 199 255 237 201 255 238 204 255 229 200 255 214 190 255 198 175 246 180 156 225 154 132 203 128 105 190 110 87  166 78  58  135 38  19  140 37  22  167 59  46  150 40  27  134 26  13  133 33  17  137 37  21  145 38  22  140 18  7   166 21  18  164 15  11  159 25  16  208 80  67  176 44  32  155 21  9   154 18  6   161 23  12  161 19  9   167 25  15  169 28  18  175 34  24  232 85  75  235 88  78  207 63  52  203 61  49  207 67  54  216 76  63  224 84  69  230 88  74  233 90  76  236 94  80  224 87  69  229 97  76  230 95  76  226 95  77  216 91  71  218 93  73  224 91  76  230 90  75  234 91  77  230 89  72  225 90  71  229 94  74  236 95  78  233 93  76  227 94  75  228 95  76  231 90  73  232 89  73  229 90  71  230 91  72  234 92  72  234 87  69  232 81  64  231 78  62  237 84  68  230 80  63  224 79  60  225 80  61  230 80  65  231 79  65  233 75  63  230 72  60  228 75  59  230 74  59  232 72  60  230 70  58  225 69  57  223 65  54  225 61  51  229 58  50  234 60  51  219 63  48  190 72  44  255 178 136 255 219 164 245 223 163 251 226 169 255 231 174 247 227 168 243 224 165 242 220 162 248 223 166 246 220 163 255 226 174 151 121 83  89  61  24  247 220 175 244 221 171 245 223 173 249 228 173 248 229 170 241 222 163 240 220 170 240 222 174 235 219 170 245 228 182 242 220 181 185 162 130 44  27  0   200 188 150 244 233 179 240 229 165 247 228 169 250 230 171 248 228 169 244 223 170 143 115 78  55  24  0   149 115 90  253 220 189 252 224 177 250 225 171 249 228 173 245 225 172 243 222 177 195 171 137 51  18  0   42  16  3   41  42  24  44  59  36  41  61  34  39  62  33  38  61  32  39  58  30  39  51  29  13  20  4   15  18  7   5   8   0   0   3   0   0   3   0   2   10  0   0   8   0   0   8   0   0   6   0   0   8   0   0   6   0   0   12  0   11  26  5   
91  20  36  97  26  40  111 39  53  128 54  71  135 55  80  130 47  75  122 38  62  122 35  51  122 34  33  129 39  28  138 49  31  134 42  21  141 41  25  148 41  25  165 52  34  182 46  32  197 26  18  215 17  16  220 7   11  220 3   11  222 13  18  222 16  20  222 12  15  224 11  13  222 8   8   224 12  9   223 15  11  228 23  18  222 17  14  231 23  23  229 20  23  225 19  23  232 29  33  233 34  37  220 31  27  206 43  26  221 101 64  240 161 105 224 180 109 207 178 100 217 184 107 211 177 103 215 180 112 221 194 127 219 201 137 216 202 141 222 203 147 225 204 151 220 197 143 237 200 148 252 185 143 242 148 114 187 69  41  188 75  43  233 150 106 238 186 129 210 180 116 208 188 119 214 186 121 212 184 119 209 186 119 214 193 128 224 200 136 230 204 147 228 197 153 239 193 159 255 188 161 210 111 88  209 88  69  225 95  79  219 100 80  224 137 109 255 229 187 249 235 188 250 231 188 255 232 192 255 225 189 159 100 70  128 28  12  148 27  16  212 92  78  215 123 100 254 216 177 249 238 193 251 238 196 251 236 195 255 240 200 248 229 187 254 232 191 255 240 198 249 232 189 244 229 188 254 239 200 255 232 196 222 181 153 95  27  6   132 24  12  211 74  64  207 55  42  205 64  44  225 125 99  255 212 182 255 237 208 255 238 206 255 242 207 247 239 200 252 245 203 251 242 201 255 236 201 255 236 202 255 237 200 255 239 199 255 241 204 234 191 159 146 61  41  147 29  19  159 16  12  171 17  15  176 24  19  193 55  44  175 62  44  251 165 140 255 228 196 255 239 203 255 238 203 254 241 206 253 247 211 251 243 207 255 237 201 255 241 209 239 163 140 144 42  27  149 33  20  145 19  7   153 18  12  152 34  24  187 111 88  255 224 196 255 232 202 255 239 207 255 235 206 255 233 203 255 236 204 255 232 198 255 222 190 255 225 193 249 200 170 214 153 125 125 43  21  205 118 98  217 141 117 181 114 88  159 93  69  149 78  56  139 56  38  133 40  25  134 32  18  135 32  17  134 31  14  137 30  12  140 24  9   145 23  8   153 31  18  155 29  17  171 37  28  162 29  20  151 27  15  144 22  9   150 24  10  158 21  11  176 23  17  177 22  17  186 44  32  231 91  78  221 75  62  209 61  49  215 69  56  220 74  61  236 85  74  234 88  75  228 95  78  225 92  75  240 94  79  232 84  70  233 93  76  224 91  72  223 97  75  220 98  75  223 99  75  224 100 76  220 94  71  220 96  72  211 96  67  217 106 76  206 97  68  209 104 75  213 113 87  223 117 93  212 91  72  228 95  80  233 93  80  236 94  80  230 95  76  227 92  72  229 88  70  230 89  71  226 91  71  225 90  70  232 92  75  231 91  74  228 91  72  229 90  71  232 87  70  237 87  70  241 90  73  243 92  75  234 87  69  231 89  69  228 89  68  229 88  68  231 84  68  233 80  66  233 77  64  232 76  63  225 74  57  224 73  54  227 70  55  228 68  56  224 66  55  225 64  54  229 62  53  232 59  52  234 57  49  211 55  40  187 76  46  255 196 152 255 220 164 245 226 167 249 222 167 247 220 165 250 225 168 250 228 171 248 227 170 242 221 164 239 218 161 249 227 177 110 84  47  104 78  43  248 223 182 240 216 168 246 222 174 251 230 177 243 224 166 239 220 162 255 234 187 248 227 184 246 224 183 229 205 169 197 166 137 133 101 76  55  31  5   224 206 170 248 231 177 247 231 169 248 229 170 248 229 171 247 230 174 244 226 178 108 82  49  50  18  0   179 145 118 254 221 188 251 224 177 246 223 169 251 232 176 249 229 178 241 220 175 162 136 103 54  17  1   41  13  2   46  43  28  45  58  40  46  64  40  40  63  35  36  59  31  33  53  26  37  50  30  13  19  5   0   1   0   15  16  11  9   10  4   0   3   0   9   15  3   33  41  26  40  49  32  40  52  32  39  53  30  34  48  25  30  46  20  31  47  21  
80  24  33  79  24  30  91  30  38  111 45  57  126 52  75  132 49  77  130 41  69  127 38  56  119 38  37  111 33  20  132 57  34  139 65  40  175 99  76  211 133 110 234 153 124 211 106 84  180 32  22  202 24  22  205 12  15  208 12  16  211 23  24  200 16  16  195 10  8   213 19  19  223 15  15  227 15  14  224 16  14  224 19  16  221 13  11  231 21  22  231 21  24  232 23  26  228 24  25  222 27  23  217 30  21  202 46  23  225 116 73  230 161 102 213 181 106 202 183 104 207 181 104 216 184 111 224 191 124 225 195 131 218 198 135 222 203 145 226 203 149 226 198 148 235 201 153 248 193 152 245 152 121 197 71  49  214 61  47  205 60  41  237 134 99  239 176 125 221 189 128 215 196 128 220 195 131 222 194 131 219 195 131 218 197 134 220 200 137 223 201 143 225 197 147 243 196 152 233 153 118 202 92  65  226 91  71  226 89  70  211 97  71  249 170 137 255 227 183 248 237 191 252 235 192 255 238 201 255 226 193 145 81  56  140 40  25  149 32  22  198 85  69  242 158 132 255 230 189 247 245 197 251 242 199 248 235 193 242 231 186 253 240 195 255 235 193 255 232 190 250 233 190 253 240 198 251 239 199 250 227 193 228 182 156 110 29  12  150 23  17  203 45  42  217 46  39  217 57  43  197 70  53  230 139 118 255 211 187 255 235 206 252 236 202 252 244 205 250 243 201 247 242 200 252 249 208 255 247 208 251 233 195 255 234 200 238 197 167 146 71  50  149 17  13  172 14  15  172 14  13  175 16  12  203 40  35  210 51  45  207 60  52  189 69  53  249 172 146 255 226 193 255 243 206 248 240 203 240 234 198 255 247 213 255 236 202 225 169 142 150 55  37  147 26  15  158 28  15  165 27  17  171 28  20  210 86  74  217 135 111 255 210 182 255 213 186 246 184 161 228 149 134 220 134 121 201 113 101 173 83  72  158 62  50  141 43  30  123 30  13  139 37  22  139 21  9   152 24  15  159 28  20  155 26  20  146 28  18  144 27  18  145 24  16  151 22  16  159 22  16  157 23  14  149 26  11  146 25  8   156 26  12  154 22  7   162 35  20  193 61  48  219 75  66  190 48  38  177 47  33  186 60  45  196 69  52  211 78  63  216 73  59  226 83  69  229 94  75  232 99  80  231 90  72  229 86  69  227 90  72  226 89  71  233 92  75  222 89  70  214 100 73  208 99  70  216 90  67  225 96  74  214 96  70  208 100 71  206 112 76  198 108 71  198 110 72  212 122 85  224 132 95  233 148 107 232 158 113 245 179 131 254 191 147 255 200 156 255 205 165 223 155 120 158 64  38  212 95  77  222 86  72  233 90  76  235 92  76  235 90  73  238 88  73  241 91  74  236 94  74  232 93  74  230 89  72  229 89  72  230 93  75  233 94  75  234 87  71  236 84  70  235 85  70  230 85  68  229 88  68  227 92  70  227 92  72  227 88  69  230 80  65  232 76  63  234 76  65  233 80  66  232 82  65  229 82  62  231 78  62  232 76  63  232 76  64  234 76  65  240 76  67  245 77  68  239 68  58  215 68  50  195 95  61  255 204 157 249 224 167 243 232 170 249 228 171 254 227 172 250 220 166 244 217 162 246 227 171 243 228 171 242 230 172 237 224 172 88  66  29  125 99  66  251 221 183 254 225 181 250 223 178 242 218 170 249 228 173 255 238 182 211 188 144 88  60  23  69  32  5   61  19  0   62  17  0   59  16  0   84  46  27  248 217 186 253 227 176 251 233 171 244 232 174 241 232 177 243 233 180 238 225 180 76  53  22  47  19  0   205 178 149 253 227 190 248 228 178 244 227 171 250 233 177 247 230 178 246 223 181 132 101 72  57  15  3   49  14  8   61  53  42  47  55  40  39  54  33  34  54  27  37  62  33  38  61  35  39  57  35  6   17  1   4   5   0   13  12  8   1   0   0   5   6   0   11  14  3   50  57  41  58  67  48  68  80  56  58  72  46  57  72  43  54  71  39  52  69  35  
76  30  33  78  29  33  82  27  33  94  32  43  113 44  63  132 54  78  136 50  75  130 43  62  116 37  40  157 84  75  243 176 157 250 188 163 242 182 154 245 186 154 254 196 158 207 126 96  167 39  28  190 34  35  190 24  28  186 25  30  175 31  30  153 11  7   154 1   0   193 19  18  212 9   12  224 11  13  225 17  17  225 20  17  224 14  15  232 22  23  226 20  20  227 24  20  228 26  22  220 27  20  221 41  27  199 51  25  229 132 87  233 177 116 216 190 116 203 187 110 210 186 112 215 186 116 221 192 126 224 196 133 222 196 137 228 198 144 237 199 150 243 194 151 249 187 148 241 155 122 193 68  48  207 55  42  214 41  35  212 52  40  229 116 86  253 180 137 230 195 137 213 195 131 211 190 127 216 192 130 222 198 136 225 201 141 227 201 142 231 198 144 246 200 151 232 165 123 187 90  57  212 91  64  238 97  77  231 94  75  207 97  72  255 186 154 255 230 188 253 242 197 253 231 192 255 231 196 255 232 198 162 112 85  199 118 99  213 117 101 181 86  66  255 195 166 255 242 200 231 234 187 248 244 199 255 242 200 255 236 194 255 237 195 255 231 191 255 239 197 250 235 192 249 240 197 243 236 194 253 233 198 235 188 162 107 21  6   151 18  13  214 48  48  237 55  52  223 46  40  203 55  43  179 62  45  224 142 121 255 219 193 255 237 204 255 243 203 251 243 204 249 246 205 236 237 197 253 245 208 255 231 200 243 192 165 131 60  38  135 31  18  169 15  17  181 6   11  185 17  16  210 42  39  220 47  43  218 45  41  217 49  46  200 53  45  197 90  70  255 186 160 255 222 190 255 235 202 255 238 207 255 228 196 224 171 140 129 51  28  142 30  16  152 19  10  157 19  8   176 32  23  228 80  70  227 93  81  202 100 78  156 68  44  123 36  16  129 36  19  143 35  23  144 25  19  145 20  14  150 21  16  156 27  21  146 18  9   154 30  20  154 28  16  160 22  12  168 21  14  222 67  63  185 30  28  164 16  12  161 20  13  165 24  17  173 30  22  186 37  31  198 49  42  204 63  53  208 70  57  219 79  64  229 89  74  223 87  73  230 92  79  236 89  79  230 87  73  227 98  79  217 95  72  219 94  74  225 99  77  223 94  73  222 98  74  212 97  70  216 97  73  231 98  81  228 92  76  219 97  74  220 106 79  217 106 76  217 117 83  220 137 97  233 151 111 252 158 124 253 156 124 176 87  55  200 122 84  239 175 131 255 197 149 255 205 155 255 210 160 255 207 157 255 215 161 255 218 161 253 217 157 254 219 161 247 216 161 254 222 175 180 135 96  90  19  0   196 97  78  225 98  83  232 90  76  232 89  75  236 90  75  240 90  76  239 87  73  237 87  70  236 89  71  238 92  77  231 90  73  228 91  72  229 93  71  232 90  70  237 90  72  240 90  76  234 88  73  227 90  72  225 95  73  228 96  75  229 92  73  233 88  69  234 84  67  233 83  68  229 84  65  222 86  60  219 85  58  219 80  57  220 77  60  224 76  62  231 77  67  241 80  70  245 83  72  229 67  54  218 79  58  208 115 81  255 212 164 249 228 171 239 231 169 242 226 167 248 225 171 255 229 179 249 216 171 251 222 178 234 210 164 210 189 142 186 165 122 67  40  10  160 131 101 250 220 182 250 221 179 250 226 182 250 228 181 247 227 176 243 223 173 195 170 129 61  26  0   66  15  0   71  12  0   78  15  0   68  11  0   114 69  46  255 225 190 250 229 176 248 233 174 244 233 179 244 234 183 245 233 185 232 217 176 58  35  4   53  27  0   227 204 172 250 231 189 248 232 181 247 232 177 247 232 177 246 228 178 251 226 185 114 80  52  61  15  2   59  22  14  56  48  35  47  56  39  44  59  38  38  58  33  33  57  31  28  52  26  34  52  30  5   16  0   9   10  4   4   3   0   3   3   0   2   4   0   0   4   0   2   10  0   16  25  4   27  40  14  41  56  27  48  63  30  55  73  35  57  75  35  
73  27  30  79  30  34  80  27  33  83  23  33  98  31  48  120 47  66  131 52  71  126 48  62  122 47  54  112 42  42  192 128 118 238 180 160 237 186 155 239 194 153 238 198 147 207 145 106 155 44  33  165 32  37  166 35  41  130 17  19  87  12  6   82  5   0   108 0   0   180 26  28  213 17  21  219 5   7   222 16  16  227 21  21  227 14  18  228 18  17  224 26  15  219 26  11  224 30  21  221 32  26  212 35  25  204 64  41  239 156 112 226 181 124 212 184 119 214 191 124 211 183 118 220 192 127 221 202 136 222 201 138 233 196 141 245 194 147 250 188 147 255 177 142 234 124 97  195 58  39  210 52  40  225 54  47  218 43  38  211 55  43  215 97  71  255 176 137 236 194 144 219 198 141 216 200 140 221 202 143 225 200 143 228 196 139 235 196 141 250 194 147 240 156 120 210 105 76  208 88  64  226 93  74  236 93  77  223 90  75  209 104 83  255 203 175 255 235 198 255 237 197 255 236 202 255 232 198 253 241 201 251 233 195 255 222 190 216 159 132 144 76  53  255 220 191 252 238 199 241 244 199 241 240 196 253 238 197 255 218 187 253 202 171 227 193 156 255 246 204 240 233 189 243 242 196 248 243 201 255 237 200 223 178 149 108 27  8   141 19  8   205 46  43  229 40  44  232 42  44  213 46  40  198 52  39  193 66  51  233 139 114 255 226 192 255 245 202 250 241 202 244 239 201 255 246 210 255 234 204 237 179 157 145 59  42  143 32  21  153 21  16  172 20  19  181 15  15  209 40  37  222 49  45  221 42  38  225 46  42  231 56  53  227 65  60  215 74  64  192 72  56  226 125 105 201 115 90  178 98  73  161 80  53  138 42  18  144 33  13  147 19  6   164 28  16  173 31  21  225 78  68  243 91  80  239 88  77  231 89  75  219 86  71  161 35  20  148 26  11  148 26  11  155 27  14  153 17  5   161 21  8   161 23  10  167 29  16  174 34  21  189 47  35  194 52  40  208 61  51  235 84  75  237 85  74  226 74  63  232 84  70  228 88  71  228 93  74  229 94  75  230 88  74  238 86  75  242 88  78  239 92  76  230 85  68  231 87  76  242 98  89  231 88  74  231 94  76  217 96  69  210 97  67  211 96  69  217 106 78  203 98  68  212 115 82  216 132 95  197 103 75  223 99  89  222 95  86  205 107 80  255 190 150 255 199 149 255 210 155 255 211 155 255 214 162 255 210 167 221 169 130 93  39  5   193 145 107 251 217 171 250 219 165 255 222 167 254 215 158 255 224 163 247 219 156 247 222 155 246 223 155 244 223 156 243 221 161 243 219 173 134 100 65  67  15  0   129 50  33  214 98  83  227 91  75  229 92  76  231 91  76  231 89  77  235 87  75  243 90  76  242 86  71  241 89  76  232 87  70  231 95  71  223 92  64  228 94  67  235 95  72  239 87  76  236 85  76  229 93  79  221 89  74  230 93  75  237 98  77  228 89  66  235 99  73  225 89  65  228 99  70  217 101 62  216 107 66  201 92  59  219 100 76  230 92  79  233 85  75  243 89  79  240 84  71  238 85  69  218 88  64  233 149 113 255 217 171 249 223 172 244 232 174 240 230 171 243 228 173 248 220 180 211 175 143 78  30  7   76  25  4   70  24  1   54  12  0   59  22  0   197 164 133 253 225 186 250 227 183 249 231 183 243 227 178 247 229 183 246 225 182 170 141 107 58  16  0   69  10  0   87  13  0   95  7   0   85  6   0   155 110 77  250 227 183 244 235 180 239 232 177 245 231 182 248 229 186 249 226 185 214 188 153 50  25  0   80  57  25  246 228 190 242 227 184 247 234 182 244 231 178 248 235 183 246 228 180 248 223 183 85  50  20  64  21  2   58  26  11  55  54  34  43  58  37  40  55  34  34  53  31  34  58  34  30  53  27  36  48  26  9   13  0   8   11  0   4   7   0   8   12  0   14  22  0   18  28  3   26  39  11  35  47  23  36  50  24  34  49  20  41  58  24  45  63  23  47  66  21  
76  30  33  79  30  34  79  26  34  81  24  33  90  26  40  107 36  52  122 48  63  129 55  68  124 51  62  118 47  51  123 60  53  218 161 144 232 183 153 237 195 153 233 200 147 193 138 97  136 36  21  163 43  45  156 41  46  89  1   0   58  15  6   55  12  3   87  2   0   161 27  28  206 15  20  229 14  19  225 17  17  223 14  17  234 17  25  233 20  24  221 23  12  224 32  19  225 30  24  219 32  27  209 38  28  229 93  71  236 151 114 235 182 132 223 177 125 230 187 132 228 181 127 236 191 136 235 196 139 239 192 138 255 187 145 255 174 140 235 136 107 207 88  66  202 55  39  215 47  36  224 45  40  221 39  35  224 46  42  203 47  35  204 82  59  255 185 150 244 193 148 236 204 153 229 204 148 227 196 142 243 197 147 255 194 149 241 168 125 221 131 94  213 99  72  219 90  69  235 98  80  231 88  72  240 89  78  222 88  76  207 111 89  255 215 186 255 228 191 252 236 200 255 234 200 255 237 202 249 246 205 247 242 200 255 231 197 172 131 101 178 131 105 255 228 199 255 244 206 247 244 203 249 240 199 254 224 190 142 74  51  102 30  8   157 112 81  253 229 191 255 246 203 252 249 204 249 240 199 255 238 202 235 188 160 111 30  9   147 27  13  209 52  47  230 41  45  236 41  45  222 44  40  219 55  46  206 45  35  200 67  50  221 140 111 255 223 190 255 240 209 255 232 202 255 231 205 237 179 157 149 57  44  144 27  18  154 19  15  163 15  11  180 27  22  198 36  31  220 51  44  222 47  42  229 50  46  244 65  61  241 66  63  231 62  57  218 61  56  214 67  59  218 86  73  178 57  40  143 32  12  143 31  9   152 29  11  154 22  7   161 23  10  172 30  18  226 84  72  234 88  75  239 89  75  238 85  71  244 88  76  235 83  70  223 83  68  183 51  36  179 52  35  190 59  41  214 71  57  229 83  68  225 86  67  235 96  77  233 90  74  230 87  73  234 92  78  234 93  76  236 90  75  233 86  70  234 84  67  232 91  71  219 93  68  219 101 73  218 103 76  217 93  69  232 86  71  238 86  73  227 82  63  241 99  79  235 88  78  228 84  75  230 93  77  221 99  75  225 125 89  249 160 120 255 166 129 255 183 146 255 193 154 255 206 163 255 206 160 204 136 101 182 75  65  209 101 91  201 122 91  255 210 163 252 220 161 247 224 157 247 217 155 251 220 163 247 219 171 171 142 100 59  23  0   165 133 95  241 220 173 239 222 168 251 225 168 245 219 158 247 227 164 243 228 161 243 228 161 243 228 161 242 224 158 244 223 166 252 229 187 116 82  54  53  6   0   84  11  0   212 94  82  229 91  78  226 89  71  231 95  79  230 94  82  230 92  79  231 86  69  228 81  63  231 85  70  238 99  80  213 85  56  223 100 66  221 98  65  220 88  63  237 85  74  241 88  82  226 90  78  223 96  79  220 94  72  215 95  68  207 97  62  217 110 74  215 112 77  223 125 86  229 141 93  235 153 103 252 173 132 232 141 112 193 76  59  234 100 89  227 83  72  236 88  74  235 90  71  215 95  68  240 166 129 255 223 178 251 225 176 246 230 178 242 232 173 243 230 177 247 223 185 173 136 110 70  14  0   74  10  0   74  10  0   79  20  6   70  24  1   229 194 164 247 222 181 247 229 181 248 232 181 244 231 179 246 229 183 243 220 179 144 113 82  69  24  1   76  15  0   106 26  15  139 36  27  145 54  36  212 164 126 251 231 181 242 235 181 244 237 185 246 229 183 255 232 191 255 227 191 185 152 119 56  26  0   106 80  45  249 230 190 244 230 185 244 231 179 244 231 178 245 232 180 247 226 181 239 207 169 83  42  14  70  23  3   63  32  14  51  53  31  41  59  35  41  58  39  35  54  35  31  55  33  29  51  30  29  38  19  5   9   0   11  15  1   39  46  30  62  70  47  66  77  47  66  80  47  65  80  47  64  79  50  65  81  52  61  78  46  53  70  34  52  71  26  59  78  32  
77  31  34  78  29  33  80  27  35  83  26  35  85  22  33  92  24  37  111 38  55  127 55  69  127 55  67  116 47  52  105 40  36  157 98  84  234 183 156 232 186 150 239 198 154 185 127 87  138 42  20  162 48  38  162 46  46  108 17  14  65  22  13  52  16  4   75  5   0   149 31  27  205 22  24  224 9   14  227 11  16  229 10  18  228 7   22  232 14  28  230 24  28  224 22  20  225 23  23  223 31  30  219 52  43  244 107 88  239 134 105 250 166 129 239 161 122 234 159 117 246 167 126 252 169 127 252 160 121 240 133 99  224 95  73  209 66  49  202 52  38  207 46  36  223 52  44  225 43  39  227 39  37  229 44  41  229 51  47  207 51  39  211 86  64  255 164 131 253 192 148 234 188 139 241 190 143 255 190 148 248 158 123 220 109 81  211 85  60  223 88  66  219 84  64  234 93  75  238 88  73  224 68  56  224 66  57  210 74  60  196 112 86  255 228 193 254 240 201 252 250 209 245 235 199 249 239 203 245 240 202 254 238 204 255 230 201 149 105 78  226 193 162 254 231 199 251 239 201 255 241 205 255 236 202 249 195 169 122 35  18  132 43  27  185 125 99  255 231 198 254 232 193 252 237 196 255 240 200 255 235 200 233 179 153 108 23  3   148 22  10  209 50  46  227 43  45  232 42  44  220 41  37  229 52  46  229 45  43  213 41  37  206 69  59  235 123 109 246 150 136 217 128 114 181 92  78  148 44  33  148 16  12  168 20  18  165 16  12  182 31  24  202 45  38  219 58  48  238 71  62  233 62  54  231 57  50  223 48  43  230 58  54  235 68  62  228 69  65  238 87  80  236 94  84  215 81  69  171 44  27  156 26  10  160 24  10  171 29  17  188 41  31  228 81  71  233 90  76  235 94  77  230 87  70  235 93  73  237 92  75  227 86  68  230 97  78  224 97  78  216 91  71  225 94  76  230 87  73  230 84  71  228 91  73  224 92  71  229 94  75  229 94  75  228 93  74  226 89  71  227 86  69  234 93  75  232 93  72  228 102 77  209 106 71  191 102 62  193 105 67  207 110 77  220 100 75  225 95  73  226 98  71  225 95  71  226 88  75  225 89  75  222 100 79  205 105 73  241 173 126 255 214 161 255 210 161 255 214 165 255 220 170 255 220 168 246 214 163 179 136 94  117 40  22  188 102 87  205 136 103 255 216 167 252 222 162 246 225 160 247 218 158 248 219 163 250 222 175 135 106 66  54  20  0   170 138 100 245 224 177 241 224 170 251 226 169 248 222 163 244 224 163 243 227 165 240 221 163 242 223 167 247 226 171 242 220 171 242 213 179 78  40  17  61  8   0   101 17  6   217 89  80  241 93  83  231 88  72  230 95  76  220 93  76  216 95  74  219 98  71  230 106 80  229 103 81  207 85  61  227 114 80  213 103 66  212 98  61  224 96  67  240 92  78  236 85  76  229 93  79  217 96  75  233 130 99  255 174 132 255 193 143 255 207 153 255 211 158 255 212 159 255 212 158 255 208 157 255 218 174 192 128 93  115 27  5   208 97  80  224 94  80  234 94  79  230 91  72  214 100 73  250 186 148 255 229 182 247 227 177 245 229 178 246 229 175 249 229 179 249 227 186 131 100 69  76  25  4   72  9   0   92  18  9   76  6   0   86  34  12  251 215 181 254 230 186 244 226 176 238 222 170 246 230 178 255 238 190 245 220 179 114 81  48  62  18  0   80  23  4   150 72  59  185 78  70  181 84  68  231 181 146 249 225 179 250 232 182 246 230 181 248 230 184 255 231 191 255 230 195 147 111 77  69  30  0   147 113 78  253 225 188 252 231 188 250 230 180 250 233 181 246 230 179 251 227 181 227 182 149 89  35  11  83  30  14  75  39  23  50  52  31  39  57  35  41  58  40  36  54  38  27  50  32  34  52  36  22  30  15  5   9   0   18  24  10  54  63  44  71  81  56  67  80  50  67  81  46  60  76  40  56  72  36  65  82  46  63  81  43  59  80  37  57  79  32  52  74  25  
78  29  33  77  28  32  81  28  36  85  28  37  84  22  33  86  20  32  100 29  45  114 43  57  126 54  66  120 50  58  125 59  60  106 43  34  200 143 124 244 193 164 236 188 150 167 104 69  139 40  17  150 34  21  157 39  37  139 45  43  67  18  11  51  13  4   69  5   0   140 31  26  191 19  17  226 20  20  233 19  21  237 18  26  238 17  32  232 16  31  227 20  26  226 26  28  227 31  32  222 40  37  236 78  67  252 112 95  244 119 97  227 111 86  232 118 92  240 126 99  222 104 78  210 84  59  204 63  43  208 55  39  217 49  38  219 42  36  220 43  37  225 46  41  217 32  29  232 44  42  228 43  40  222 40  36  214 43  36  209 53  41  232 101 81  255 164 136 253 167 132 245 163 126 226 133 100 197 89  60  188 56  35  201 54  38  221 65  50  232 75  60  242 90  76  239 87  73  221 59  48  230 63  54  226 57  50  205 67  54  199 122 94  255 233 194 245 238 196 245 248 205 241 237 200 249 243 207 250 242 206 255 237 206 255 221 196 151 110 82  251 227 193 255 245 209 255 240 204 255 232 198 255 225 198 220 145 124 134 30  19  137 31  18  205 124 105 255 225 198 255 231 202 255 223 190 255 219 189 255 214 187 234 159 138 132 30  16  161 24  14  218 55  50  229 45  45  233 45  44  219 40  35  218 39  34  234 41  42  231 45  46  214 46  45  198 49  45  179 44  40  153 26  19  152 28  20  153 20  15  173 23  22  169 11  8   178 21  16  207 49  40  226 68  57  232 72  60  231 67  55  221 55  43  228 61  52  221 57  47  225 62  53  246 88  79  246 92  84  242 91  82  227 83  74  237 97  84  227 91  77  221 85  71  231 91  78  237 95  83  228 86  74  232 92  77  227 94  75  221 92  70  213 89  63  225 101 73  219 95  69  221 101 74  207 93  66  216 106 79  210 100 75  214 95  75  227 91  77  231 91  78  231 96  77  217 85  64  230 95  76  229 96  77  223 90  71  227 94  75  227 95  74  228 99  77  221 101 74  220 117 84  255 180 136 255 191 143 255 197 150 255 187 142 208 115 81  207 100 68  221 103 73  217 91  66  230 93  77  230 94  80  219 98  77  201 108 74  255 204 151 255 226 166 251 231 172 247 228 170 247 225 168 245 224 169 243 223 170 186 155 111 75  17  0   138 70  51  216 156 120 255 215 166 244 218 159 246 226 163 247 223 161 244 217 162 252 224 177 111 82  42  63  29  0   200 170 132 246 228 180 242 225 171 251 226 170 250 226 166 242 222 161 244 225 167 252 228 180 243 219 175 250 226 182 250 222 183 237 206 177 71  28  9   65  7   0   113 25  15  220 87  80  239 91  81  223 83  66  220 96  72  216 110 84  208 113 81  212 124 84  223 135 95  243 150 117 248 158 124 252 171 128 255 180 133 215 122 78  208 98  63  229 94  74  233 91  77  227 94  77  209 95  71  254 169 132 255 216 166 251 215 155 243 219 155 247 225 165 246 221 164 254 223 168 250 217 166 251 218 175 149 106 71  82  16  0   161 68  50  222 100 85  224 88  72  224 91  72  212 107 78  255 204 162 255 231 183 244 228 179 245 229 180 251 228 178 251 227 179 248 227 184 112 83  49  68  22  0   77  14  0   133 51  40  145 66  53  160 106 80  255 223 187 247 223 177 251 234 182 251 236 181 247 230 176 245 225 175 253 229 185 201 171 133 224 188 156 248 200 177 222 150 135 162 55  47  182 80  66  253 200 166 255 237 192 255 231 185 255 233 186 251 230 185 251 228 186 255 230 193 123 82  50  78  33  2   190 147 113 253 221 183 255 232 188 253 229 181 255 233 183 246 228 178 255 227 183 214 154 126 98  31  12  96  37  23  79  43  29  52  51  31  37  54  35  37  54  38  34  52  38  27  48  33  37  53  40  17  25  14  3   9   0   0   9   0   11  23  1   16  29  3   17  32  1   22  38  2   20  38  0   23  41  1   38  56  14  49  71  25  50  72  25  50  72  25  38  60  11  
78  27  32  79  28  33  81  28  34  84  27  34  85  23  34  86  23  34  91  25  39  97  29  44  118 47  61  130 60  70  122 53  56  106 41  37  132 70  57  242 184 164 238 182 155 142 68  43  145 35  20  157 33  25  161 43  43  149 53  54  84  24  23  63  12  9   78  4   1   141 32  27  193 35  26  208 20  11  216 13  9   226 16  17  223 12  19  228 18  27  233 33  35  214 25  21  210 35  30  233 70  63  255 110 98  253 111 97  254 111 97  233 87  74  220 68  57  201 45  33  211 48  39  218 47  39  225 42  38  226 37  33  228 36  33  229 42  37  222 48  39  222 45  39  236 47  45  227 37  37  225 47  43  221 54  46  209 48  38  231 79  66  255 114 98  235 100 81  209 78  58  199 64  45  202 52  37  212 52  40  221 48  41  220 48  38  225 61  49  239 79  65  235 75  61  232 66  54  219 45  36  244 65  60  237 59  55  198 56  44  218 143 112 255 229 189 254 245 204 250 248 207 248 244 207 252 244 208 253 243 208 254 235 203 247 212 184 182 147 117 255 240 204 255 240 201 255 235 200 255 237 208 255 206 185 182 89  74  144 25  17  155 31  23  217 109 97  227 130 113 198 105 88  178 87  68  156 63  46  142 42  27  142 30  19  143 15  6   172 19  14  222 50  48  227 39  38  231 42  40  228 49  44  218 41  35  221 39  36  226 44  43  215 39  41  216 48  48  211 56  52  181 34  27  157 14  6   171 28  20  159 12  4   186 33  25  235 74  66  237 73  64  236 72  62  237 75  62  230 70  56  212 55  38  229 73  58  235 83  69  238 88  74  235 89  76  230 87  73  232 90  76  231 91  78  234 97  81  230 93  75  225 89  73  223 91  78  215 85  71  222 95  78  219 99  75  206 97  68  209 109 73  210 114 76  200 108 67  206 114 75  223 135 95  231 149 109 235 153 115 255 171 137 228 133 105 214 99  81  227 97  83  230 93  75  232 91  71  236 95  77  227 88  69  226 91  71  225 99  76  213 93  68  207 99  70  229 135 99  255 205 162 255 210 159 252 215 160 252 220 163 255 214 160 255 199 152 209 126 84  202 95  59  222 97  69  238 95  81  230 86  75  222 93  74  210 113 80  255 210 160 247 225 165 238 226 166 240 230 171 242 225 169 247 227 174 247 227 176 206 177 135 56  6   0   74  17  0   229 177 140 255 219 170 243 221 163 244 228 166 248 226 168 247 222 168 247 218 174 88  58  20  61  28  0   230 202 163 243 225 177 242 225 171 247 225 168 251 226 169 244 224 165 248 227 174 254 222 184 249 214 184 255 225 195 243 208 180 202 166 144 69  23  7   64  4   0   131 44  34  221 94  85  232 92  77  219 97  73  240 140 108 255 193 153 255 206 159 255 217 162 255 217 163 254 210 163 255 217 169 255 224 169 255 217 157 255 201 145 211 130 83  208 99  68  220 95  73  222 95  76  212 101 74  255 189 147 255 219 165 247 223 161 244 230 165 240 226 165 240 223 167 243 223 172 240 219 174 241 222 182 108 79  45  62  12  0   102 24  2   212 96  81  231 98  83  223 92  74  218 119 90  255 216 173 247 234 182 244 232 182 249 233 184 255 228 181 255 228 181 248 225 181 79  51  12  67  24  0   94  30  5   187 95  82  188 101 84  211 156 126 255 225 184 252 229 179 252 233 177 249 232 176 249 230 174 253 231 181 255 237 190 242 221 178 255 232 195 255 223 194 187 122 102 122 18  9   182 82  67  255 215 182 253 226 181 245 218 173 254 230 184 249 231 185 252 229 187 255 224 188 110 64  31  82  33  1   225 180 147 255 223 186 255 229 186 255 227 180 255 232 182 248 228 178 255 226 184 197 122 99  113 30  16  104 40  28  78  42  28  54  53  33  36  53  34  34  50  37  33  51  39  30  48  36  32  48  37  9   16  8   0   6   0   5   17  0   10  24  0   24  38  12  34  51  19  39  57  19  42  63  20  50  72  25  55  78  26  57  80  28  49  72  20  51  73  26  45  67  20  
80  29  34  81  28  34  82  27  33  81  24  31  83  23  33  86  24  35  88  24  38  89  23  37  106 38  53  123 53  64  122 52  60  122 54  55  106 39  33  178 112 100 244 179 161 121 42  25  131 23  10  146 25  16  151 36  33  145 45  43  123 49  48  76  11  7   77  2   0   142 44  31  168 35  16  208 47  29  217 36  25  217 25  20  216 22  23  213 20  21  216 33  25  208 36  24  234 70  61  255 102 93  255 102 92  221 67  55  205 47  38  209 46  37  217 45  41  221 42  38  225 40  38  230 37  38  235 35  37  238 35  38  236 38  39  228 41  36  216 48  37  212 50  37  219 44  39  220 47  41  209 46  37  224 68  56  253 97  85  252 96  84  229 71  60  209 51  40  208 50  39  213 49  40  224 47  41  234 46  44  234 42  39  227 40  35  219 47  37  220 52  41  226 54  44  227 48  41  228 43  38  232 47  44  230 48  45  198 50  40  255 172 144 255 234 198 255 233 198 255 232 198 255 232 204 255 229 201 255 223 196 251 205 179 231 175 152 208 152 127 220 175 146 200 155 124 174 117 90  161 86  65  160 64  48  157 40  31  160 22  19  160 17  13  174 41  34  168 41  32  152 25  16  150 23  14  152 24  15  158 25  18  155 16  11  168 16  13  180 12  11  224 44  43  228 39  37  226 37  33  229 50  43  221 47  38  220 42  38  228 46  45  232 46  49  224 41  43  224 55  52  217 59  50  205 53  42  213 67  54  218 78  63  228 85  71  230 74  62  218 58  46  212 56  43  218 67  50  227 82  61  222 83  60  225 93  70  219 93  68  221 99  75  219 100 76  218 104 78  213 102 75  207 96  69  203 94  65  214 105 76  228 118 91  236 123 105 215 104 87  213 104 83  211 112 81  244 159 120 254 180 135 249 183 133 255 211 160 255 210 159 255 206 153 255 213 161 255 207 160 255 206 164 216 143 111 146 51  31  213 97  82  224 89  70  240 93  75  233 88  71  227 86  68  229 99  77  212 97  70  206 106 74  236 152 115 255 205 162 255 218 166 251 220 165 242 220 160 246 224 164 251 222 164 255 212 159 255 199 150 218 129 87  212 99  67  223 86  70  232 92  79  221 94  75  221 124 91  255 218 168 247 225 165 238 228 167 242 233 176 241 226 171 245 225 174 240 222 172 225 200 159 60  19  0   59  14  0   230 188 150 254 221 170 246 227 168 238 227 165 244 225 167 251 228 176 233 204 164 66  36  0   67  37  3   246 220 183 244 226 180 245 228 176 246 223 169 249 224 168 247 226 169 244 220 172 146 111 81  118 77  57  96  55  33  76  35  15  70  29  11  47  0   0   66  4   0   150 64  51  218 96  83  223 92  74  210 101 72  244 159 120 255 213 166 254 219 163 247 226 163 238 222 162 246 226 175 239 222 170 232 221 159 242 223 157 255 220 158 255 206 153 214 131 91  203 99  70  210 96  72  213 109 80  255 193 149 252 215 160 250 232 170 239 228 166 235 218 162 247 229 179 240 223 179 244 226 188 247 227 194 85  54  26  55  7   0   94  17  0   211 93  79  225 92  77  220 93  74  228 133 103 255 222 177 240 233 181 243 233 184 249 232 186 255 228 183 255 226 180 240 213 168 95  66  24  115 72  37  152 88  61  197 100 84  206 113 96  221 167 133 251 220 176 255 232 180 252 233 177 252 233 177 251 230 175 252 230 180 249 229 179 249 235 188 248 229 187 255 225 194 163 105 83  123 25  14  174 81  64  255 220 186 255 235 191 255 237 194 251 229 182 246 232 185 255 234 189 252 208 173 103 50  19  91  40  9   252 207 174 255 231 192 251 227 183 255 229 182 254 230 182 250 232 182 255 223 184 178 91  72  125 31  21  109 43  29  74  41  24  53  52  32  36  54  32  32  50  34  32  50  36  29  47  35  23  36  26  6   16  7   5   13  0   33  47  22  47  63  34  65  81  52  68  85  53  59  80  41  63  84  41  66  89  37  57  80  24  46  69  13  50  73  21  56  78  32  32  53  12  
81  28  36  81  28  36  82  27  33  81  26  32  82  25  34  85  25  35  86  24  37  88  24  38  94  28  42  103 35  50  130 60  71  123 52  60  121 49  52  117 46  42  199 129 121 114 34  23  138 41  25  144 37  21  148 37  26  145 41  32  146 55  50  95  15  6   86  13  0   136 59  33  191 94  61  255 147 115 237 92  73  192 32  20  207 40  34  203 39  30  211 59  38  255 107 86  255 98  87  235 64  57  207 32  27  211 37  30  211 42  35  212 44  35  209 36  30  220 41  37  228 40  39  230 37  38  233 40  41  236 44  43  229 41  39  215 41  34  209 58  41  217 78  57  229 89  72  235 98  80  252 115 97  255 113 98  248 87  77  230 57  51  222 43  39  225 46  42  219 48  40  219 48  40  222 45  39  227 42  39  237 43  41  240 48  45  233 48  43  227 44  38  230 43  38  232 40  37  232 40  37  226 38  36  225 41  39  212 58  48  253 147 125 254 174 147 222 146 122 200 122 100 182 94  80  160 68  55  142 49  34  135 37  24  134 28  15  138 30  18  136 34  20  134 30  17  143 31  19  154 31  23  151 16  10  165 17  15  168 10  9   182 22  22  215 62  57  195 43  38  171 19  14  173 21  16  172 19  14  171 16  12  174 16  13  194 29  27  208 30  30  232 47  45  237 45  42  226 39  32  222 44  34  218 44  35  218 43  38  228 44  44  232 35  42  239 44  48  217 42  37  218 56  45  239 86  70  220 75  56  225 93  72  216 85  65  213 72  55  209 68  51  221 84  65  222 94  69  220 102 72  211 104 70  207 111 73  199 111 73  201 122 81  208 137 95  215 151 107 230 169 124 245 187 139 255 200 149 255 202 151 255 201 157 255 179 154 153 66  47  189 108 79  219 147 109 255 217 169 255 211 157 255 221 162 249 215 154 255 221 160 246 214 153 249 220 160 255 230 174 242 208 160 188 140 102 91  20  0   198 101 84  226 93  78  241 91  76  233 86  68  231 92  71  219 98  71  207 107 73  225 150 110 255 205 158 253 216 163 245 219 162 245 223 166 242 222 163 248 223 166 252 223 165 250 215 159 255 216 162 255 190 140 220 132 94  210 93  73  227 101 86  215 98  78  235 142 109 255 221 174 252 223 167 244 229 172 244 233 179 245 229 177 247 230 178 239 223 174 233 214 172 50  22  0   58  26  1   234 201 160 247 219 169 244 229 170 236 226 164 241 224 168 250 228 178 211 181 143 55  25  0   98  69  35  250 226 188 247 230 184 246 230 178 248 227 172 248 225 171 248 227 174 225 201 157 60  26  0   53  14  0   54  13  0   55  12  0   55  8   0   65  12  0   74  11  0   167 81  64  215 98  81  219 97  74  206 106 74  255 180 138 255 215 163 250 221 163 244 224 163 244 229 170 236 222 173 240 228 178 235 229 169 236 227 162 247 223 159 253 212 156 255 200 154 213 138 99  194 99  69  218 129 97  255 212 166 255 226 171 248 229 171 241 224 168 255 230 183 243 214 172 244 215 181 233 202 173 211 173 150 83  35  15  67  6   0   120 33  16  223 97  85  225 87  74  221 94  75  240 149 118 255 225 180 238 232 180 241 233 184 246 232 185 252 228 182 255 227 180 254 226 179 246 213 170 255 221 183 255 203 175 151 48  33  198 101 82  232 179 145 255 237 190 253 231 181 250 231 175 254 233 178 253 232 177 255 234 184 249 233 182 247 239 190 241 228 183 251 222 188 132 78  54  116 28  14  183 101 80  255 223 185 245 228 182 254 233 188 253 235 189 245 237 188 251 233 187 233 183 150 103 42  13  118 68  35  255 224 187 255 232 191 251 230 185 255 232 186 253 231 184 251 237 188 255 219 180 157 64  47  133 30  21  107 44  27  71  43  21  47  51  26  36  56  31  28  52  30  28  49  30  29  46  30  15  29  14  21  32  16  35  47  27  60  76  47  65  85  50  63  82  50  56  76  41  58  75  39  61  79  37  56  76  25  48  69  13  53  74  18  66  86  37  70  88  50  23  40  6   
79  26  34  79  26  34  83  28  34  84  29  35  84  27  36  81  24  33  84  24  36  89  27  40  84  20  36  96  30  44  119 48  62  123 51  63  128 53  60  118 42  46  128 52  54  111 32  25  114 29  8   121 34  6   132 38  12  145 53  28  163 78  57  173 97  73  188 125 92  222 163 123 243 174 132 255 182 142 236 132 105 206 86  69  212 81  71  238 100 89  252 111 91  233 82  61  210 42  33  215 33  30  226 34  33  228 36  33  218 37  30  217 40  32  223 44  37  223 40  36  227 39  37  232 42  42  229 41  40  220 35  33  223 41  38  235 67  58  246 101 84  255 120 100 253 118 99  252 117 98  243 106 88  218 70  56  210 46  37  225 47  43  229 44  42  228 40  39  224 45  40  224 47  41  227 45  41  230 42  40  234 39  37  234 39  37  232 43  39  233 44  40  232 40  37  233 41  38  228 39  35  236 51  48  223 44  39  212 49  42  181 49  34  149 32  15  148 32  17  144 23  12  152 20  15  158 23  19  153 20  15  157 22  16  162 23  16  166 23  15  167 19  15  168 19  15  168 19  15  169 16  11  173 14  11  186 22  20  191 21  21  198 28  28  210 42  39  221 56  52  212 43  40  211 42  39  211 39  37  220 48  46  222 53  50  216 44  42  221 46  43  216 41  36  219 48  38  215 49  35  212 52  36  213 53  39  213 48  42  220 44  44  238 45  50  235 49  50  207 54  40  197 63  38  194 71  40  210 97  63  215 112 79  223 122 92  225 116 93  207 98  75  225 124 96  244 149 117 254 171 131 252 177 135 255 192 144 255 210 159 255 213 161 255 220 166 251 216 160 253 222 165 248 219 159 249 221 158 241 216 150 255 221 168 237 177 149 91  25  3   146 83  52  236 183 141 255 220 168 250 220 160 246 222 160 245 225 162 245 224 161 242 224 160 237 223 158 238 224 163 243 221 171 180 145 107 70  14  0   133 47  32  222 96  81  232 89  72  233 94  73  224 100 74  205 102 69  228 149 108 255 214 166 252 219 166 243 222 165 243 226 170 247 226 171 246 221 167 251 221 167 253 222 167 249 218 161 255 221 163 255 220 165 255 194 150 216 126 99  202 100 78  204 104 78  243 160 126 255 217 169 255 224 170 248 228 175 240 227 174 242 226 174 245 229 178 239 225 176 240 225 184 48  28  1   75  51  23  248 220 180 245 222 170 243 231 171 238 230 168 241 226 171 243 223 173 191 161 123 55  22  0   129 100 68  245 223 184 246 229 183 242 226 174 249 229 176 249 228 175 247 227 176 208 183 142 59  21  0   57  9   0   61  8   0   74  15  1   71  5   0   82  10  0   86  7   0   186 91  71  216 95  78  217 97  73  197 103 69  255 196 151 255 219 165 253 229 169 240 221 162 241 226 171 245 228 184 236 222 177 237 228 173 238 228 167 242 222 161 255 227 169 254 217 165 255 204 160 176 100 66  208 135 100 255 217 170 251 226 172 240 220 167 251 231 180 250 218 177 133 97  61  73  38  10  68  26  4   72  14  0   69  0   0   89  11  0   138 37  25  226 94  82  231 91  76  221 99  76  249 165 131 255 231 185 240 234 182 244 234 185 246 232 185 252 230 181 255 229 182 255 229 182 255 230 186 255 221 183 251 186 156 136 30  14  165 66  47  250 200 163 251 229 182 253 233 182 252 232 181 255 234 181 252 230 180 252 230 181 249 231 183 246 234 186 250 233 189 255 222 187 123 69  43  117 39  19  204 133 111 255 233 195 253 240 195 249 232 188 249 235 188 247 241 191 246 225 180 223 159 131 112 40  15  146 96  63  255 228 190 249 228 185 250 236 191 253 232 187 248 230 184 250 238 190 251 213 176 142 45  29  132 28  19  101 44  24  65  45  18  41  50  19  33  58  26  26  52  23  25  49  23  29  47  23  14  29  6   41  55  32  69  83  57  61  78  42  48  69  30  26  46  11  26  46  11  52  69  33  60  78  36  51  71  20  53  71  19  66  84  34  61  78  34  54  69  38  12  26  1   
82  26  35  82  26  35  82  27  33  82  27  33  82  27  33  82  26  35  83  25  37  83  25  37  85  23  38  85  21  37  95  27  42  119 47  61  137 61  74  122 45  55  122 42  51  162 84  80  194 125 94  218 154 110 224 158 108 228 166 115 231 173 123 225 174 121 221 176 121 223 178 123 230 183 131 240 187 143 220 165 134 157 92  70  145 63  51  199 91  81  222 75  65  208 37  29  219 37  34  220 28  27  234 34  34  234 32  30  232 37  31  228 37  29  229 37  32  225 36  30  230 41  39  230 40  40  227 39  38  221 37  35  224 42  39  230 62  53  239 92  76  255 111 94  255 97  88  235 66  61  210 49  39  211 50  40  219 52  44  221 48  42  225 43  39  225 42  38  222 40  36  230 47  43  233 45  43  233 39  39  241 43  44  239 41  42  234 42  41  229 41  39  227 42  39  224 41  37  222 45  39  222 48  41  224 51  44  213 44  37  210 47  40  197 40  33  170 17  11  170 12  9   183 17  17  170 4   4   183 24  20  181 27  19  183 26  17  193 30  23  210 34  34  210 31  34  207 37  37  209 44  40  207 39  36  215 48  42  226 57  52  214 43  36  220 47  41  221 46  41  219 40  35  223 40  36  231 46  44  227 43  41  217 42  37  216 49  41  208 54  42  199 56  39  190 60  34  189 65  37  183 62  33  206 77  55  195 53  41  218 60  57  221 48  50  213 56  49  248 141 109 255 182 133 255 202 147 255 212 155 255 210 159 255 211 166 203 147 110 121 65  30  241 187 149 255 213 170 255 216 167 255 219 167 255 221 165 250 219 162 247 218 158 250 224 163 245 221 159 239 218 155 250 229 164 244 223 156 241 218 151 251 220 165 188 143 114 69  17  0   95  46  13  253 210 167 252 221 166 249 225 165 244 224 163 245 227 165 245 225 166 244 225 166 240 226 165 237 225 165 241 223 173 178 148 110 66  15  0   110 31  18  218 103 85  221 92  70  215 97  69  206 108 73  226 149 107 255 214 164 248 217 162 248 232 173 238 225 170 245 230 175 248 222 173 252 220 173 255 226 178 255 221 171 250 219 164 250 224 165 249 227 167 253 220 167 255 202 166 178 104 75  180 107 74  251 187 149 255 216 167 255 229 177 249 227 177 245 229 178 241 228 176 244 232 180 237 225 175 242 229 187 74  59  30  99  80  50  245 222 180 246 224 174 242 232 173 240 231 172 239 226 173 252 231 184 153 120 85  60  25  0   156 130 97  251 229 190 247 230 184 246 230 178 250 230 177 245 225 174 248 228 178 181 151 113 61  15  0   76  14  1   92  15  7   119 32  23  136 39  30  147 43  30  165 58  42  214 99  81  226 93  76  221 96  74  207 117 82  255 209 164 255 224 170 247 228 169 242 226 167 245 225 175 191 163 126 86  56  22  191 167 121 247 226 173 245 223 166 247 222 166 250 224 173 241 207 161 90  34  0   208 154 116 255 224 177 246 226 175 243 225 175 245 224 177 250 220 182 77  41  9   61  17  0   67  10  0   92  12  3   98  5   0   113 12  4   166 52  41  231 93  82  232 92  75  212 98  72  255 186 150 255 229 183 243 236 184 249 237 189 249 233 184 253 233 182 252 232 181 251 233 183 253 229 183 255 222 183 219 154 124 138 32  16  150 51  32  255 211 175 249 231 183 247 231 182 253 237 186 252 234 184 254 232 185 253 229 185 255 233 193 250 225 184 255 227 190 250 201 169 109 47  22  111 39  17  230 170 144 255 229 192 248 237 192 250 235 192 249 236 191 247 241 193 255 230 190 197 120 94  127 43  19  177 127 94  255 226 186 253 236 193 248 235 191 251 237 192 246 232 187 250 239 193 235 195 159 134 37  21  134 33  21  95  48  22  83  73  38  56  72  33  33  61  20  27  57  19  21  47  10  29  49  14  1   18  0   41  58  24  24  42  4   10  31  0   4   25  0   30  48  10  61  78  42  58  74  38  66  82  43  50  67  22  47  63  16  61  76  33  67  81  45  34  46  22  19  30  13  
82  26  35  82  26  35  82  26  35  82  27  33  82  27  33  82  27  33  82  26  35  82  26  37  85  25  37  86  24  39  92  25  42  105 34  50  125 51  66  127 49  63  124 44  57  139 65  64  220 161 131 217 167 118 224 180 119 224 183 117 222 183 114 211 177 106 218 185 116 218 187 123 215 184 127 226 198 150 196 170 137 103 67  45  126 66  55  162 63  58  196 41  39  222 36  37  218 29  33  224 34  36  224 35  33  222 29  24  229 32  26  231 34  26  237 40  34  233 42  34  226 41  36  226 43  39  230 42  41  228 40  41  225 37  36  219 40  36  211 49  38  215 51  41  225 41  39  234 46  47  226 48  44  215 44  37  212 41  34  217 44  38  225 46  41  228 45  41  230 45  42  230 42  40  230 41  39  232 40  39  231 37  37  235 43  42  227 42  39  230 47  43  230 45  43  221 37  35  223 49  42  220 49  41  210 39  31  221 47  40  229 47  44  227 45  44  209 37  35  207 35  35  214 31  35  226 43  45  217 44  40  206 38  29  226 55  45  222 45  37  232 39  40  233 43  45  212 40  36  210 52  41  218 64  52  206 53  39  201 45  32  213 53  39  212 44  35  222 45  37  230 45  40  231 42  38  233 41  40  226 43  39  208 46  35  223 82  64  223 103 79  224 124 92  236 148 108 254 173 128 255 181 141 255 181 148 224 111 93  192 61  53  205 60  55  216 91  73  255 197 151 255 221 158 252 225 158 246 223 156 245 221 161 249 223 172 143 114 74  71  41  3   233 204 162 248 221 174 251 225 174 239 217 160 247 225 167 247 225 165 245 225 162 245 225 162 241 221 158 241 221 158 245 226 160 246 225 160 243 222 155 246 221 167 156 121 91  54  13  0   125 87  51  255 222 176 253 228 172 242 222 161 243 224 166 245 226 168 245 224 169 246 225 168 240 225 166 238 226 168 242 224 176 177 149 112 64  15  0   108 31  21  210 100 83  210 94  69  206 109 76  237 162 120 255 205 155 255 225 171 250 229 172 236 223 168 237 226 172 200 184 135 155 128 83  147 114 71  248 214 169 250 218 169 245 222 168 243 224 166 235 223 163 241 220 167 249 207 169 100 47  13  172 120 83  250 203 161 255 222 172 253 223 171 249 227 177 245 227 177 242 229 177 244 232 180 241 227 178 248 233 192 86  67  37  132 113 83  249 226 184 246 226 175 241 230 174 241 232 175 239 226 174 248 225 181 129 94  62  59  22  0   192 166 133 248 229 189 245 227 181 248 231 179 249 232 178 253 233 182 242 221 174 148 120 81  67  26  0   79  20  2   145 63  52  198 97  89  210 93  84  222 98  86  221 94  79  224 93  75  230 88  74  223 97  75  217 128 94  255 212 165 255 224 169 249 230 172 247 226 173 251 224 179 153 118 88  68  33  3   207 178 138 248 222 173 249 226 174 247 226 173 243 225 175 218 194 148 55  16  0   201 159 119 249 222 175 243 225 175 246 230 181 251 230 185 232 204 167 66  29  0   70  24  0   91  26  8   102 9   2   120 8   6   125 10  3   191 67  57  228 88  75  223 91  70  210 107 76  255 199 160 255 232 185 245 233 183 249 235 188 250 234 185 250 233 181 248 232 180 241 228 176 255 236 189 255 228 189 185 118 89  133 30  13  157 62  42  255 221 184 251 234 188 251 239 191 245 233 185 245 231 184 255 235 192 255 235 195 201 165 129 188 143 110 175 120 90  153 83  58  116 41  18  112 41  19  255 202 174 255 236 199 245 232 190 249 236 194 254 241 197 249 238 193 255 227 189 184 96  76  131 36  16  201 148 116 255 231 191 254 237 194 248 235 191 249 236 194 250 237 193 247 232 189 215 172 137 127 30  13  129 33  17  125 86  53  109 110 68  96  118 71  86  118 69  79  111 64  61  88  43  38  61  17  16  37  0   65  87  41  84  108 60  55  77  28  45  67  20  61  79  39  62  80  42  40  56  20  66  82  45  50  65  24  44  59  18  71  83  47  65  76  46  8   17  0   26  34  21  
83  25  37  83  26  35  82  26  35  82  26  35  80  27  33  80  27  33  80  27  33  82  26  35  82  24  36  86  26  38  88  24  40  90  21  39  111 38  55  128 54  69  126 49  65  120 50  52  161 107 83  222 179 136 217 182 124 207 178 110 216 188 114 208 181 104 211 185 110 214 191 121 220 202 140 207 194 142 196 183 149 100 71  53  104 39  35  152 39  43  205 34  40  224 29  37  219 34  40  216 42  44  200 37  30  213 46  37  230 41  35  231 34  28  234 37  29  230 42  33  217 43  34  218 44  37  229 39  39  236 37  42  240 37  43  236 37  40  229 40  38  227 39  37  230 36  37  232 38  39  224 40  38  221 43  39  224 50  43  225 48  42  224 42  38  227 42  39  234 42  41  232 40  39  232 43  41  236 51  48  225 43  40  227 48  44  216 41  36  221 42  38  232 38  39  234 40  41  223 44  39  223 52  44  216 45  37  225 48  42  234 41  42  231 41  43  217 45  43  215 47  44  219 41  41  224 42  41  229 47  43  225 46  39  224 43  34  230 46  38  232 38  38  223 41  38  205 55  41  195 66  44  192 70  46  208 88  61  218 92  67  198 62  38  210 54  39  221 49  37  230 43  36  230 37  32  233 41  38  213 42  32  194 62  39  255 171 139 255 210 169 255 218 169 255 216 158 255 216 157 255 214 161 255 209 165 197 121 95  119 26  9   176 66  53  215 119 94  255 219 168 248 223 156 245 225 156 245 222 155 248 219 163 248 217 171 122 92  58  72  43  11  243 215 178 248 221 178 251 225 176 249 222 169 253 227 170 247 221 162 248 222 163 250 224 165 252 228 168 253 229 169 246 222 162 245 223 163 247 225 165 249 226 176 114 87  58  48  18  0   184 154 116 252 224 176 246 224 167 246 227 168 245 224 169 244 223 170 249 223 172 250 224 173 245 226 168 243 226 170 243 225 177 179 149 115 63  15  1   105 31  22  208 101 85  212 104 76  229 151 112 255 211 164 255 233 179 244 222 165 249 230 174 243 226 174 250 229 184 130 107 65  49  24  0   116 91  51  241 218 174 251 233 185 237 226 172 241 232 175 246 233 180 248 226 177 237 201 165 58  17  0   121 83  46  248 215 172 255 229 182 255 228 178 253 230 180 249 229 179 245 229 177 245 229 178 248 226 179 253 228 188 101 71  43  177 150 121 252 229 185 246 229 177 241 230 174 243 232 178 243 227 178 244 219 178 100 61  30  64  25  0   223 197 164 250 231 189 246 228 180 248 231 179 247 230 176 251 234 182 246 225 180 180 158 117 159 135 97  185 146 115 237 166 148 188 90  77  218 96  83  224 88  74  233 93  76  236 93  77  234 86  72  226 97  78  232 146 113 255 215 169 254 223 168 252 230 173 252 224 176 255 223 184 115 80  50  65  31  3   232 204 165 248 226 177 250 230 179 245 228 176 241 225 176 187 166 121 60  28  0   216 182 144 245 223 176 249 231 183 255 239 191 253 232 189 201 175 140 62  29  0   88  44  15  115 50  28  162 61  53  187 68  64  198 74  66  223 93  80  231 94  76  219 95  71  208 118 83  255 214 171 255 234 187 246 232 185 250 233 189 252 234 188 250 233 181 250 234 182 250 240 189 250 232 186 255 214 177 158 87  59  146 44  29  177 86  67  255 223 187 247 234 189 246 238 192 241 233 187 250 238 196 254 235 195 237 204 169 94  45  15  103 35  12  106 23  5   117 24  6   126 38  18  119 49  24  255 216 187 255 235 201 253 235 197 254 239 200 252 237 196 253 236 193 255 220 185 163 66  49  136 36  20  232 179 148 253 228 188 252 233 193 252 237 196 249 235 196 253 235 195 255 237 196 181 131 98  134 37  20  121 33  13  109 79  41  102 110 61  85  109 57  84  117 62  85  118 65  95  123 72  94  118 68  85  108 56  77  104 49  69  96  41  66  91  36  57  80  28  60  79  34  33  51  11  58  74  37  55  71  35  21  35  0   56  70  35  68  79  49  50  60  36  0   4   0   6   14  3   
83  25  37  83  25  37  82  26  35  82  26  35  80  27  33  80  27  33  80  27  33  80  27  33  81  25  34  83  25  37  87  25  40  83  19  35  96  28  43  121 50  66  127 53  70  120 50  58  104 44  34  184 137 109 215 183 136 210 186 124 206 182 110 216 193 117 218 190 117 221 196 129 214 200 137 209 202 150 181 172 139 91  62  46  85  15  15  160 45  52  203 34  41  220 36  44  205 45  53  169 29  30  136 12  0   178 42  28  216 42  35  228 33  29  236 37  32  230 39  31  222 48  37  219 46  39  227 37  37  233 32  38  238 33  40  239 36  40  238 40  41  236 40  41  236 40  42  232 39  40  227 39  38  227 44  40  225 46  41  219 40  35  220 37  33  232 44  42  231 37  37  231 39  38  223 38  35  224 45  40  214 41  35  219 48  41  222 47  42  227 45  42  231 37  38  238 50  48  207 43  33  205 53  39  211 64  48  203 51  37  214 47  39  213 50  43  199 57  45  205 65  52  206 52  44  221 52  47  220 38  34  225 40  35  231 47  39  221 40  31  222 50  40  209 57  43  234 120 93  255 180 145 255 191 151 255 203 163 255 191 152 234 127 93  191 59  34  204 47  30  229 48  39  233 39  37  230 38  35  212 48  36  191 80  50  255 202 160 250 213 161 245 225 166 246 225 160 247 226 161 248 226 166 253 221 172 185 139 106 75  15  0   134 57  37  222 153 122 255 221 167 239 220 152 247 227 158 248 224 160 253 223 171 246 217 175 84  59  28  99  76  45  252 228 194 251 228 186 244 220 172 251 226 172 250 225 168 248 222 163 253 227 168 251 225 168 250 225 169 247 222 166 248 223 169 247 222 168 246 223 171 242 219 175 84  60  34  57  36  9   232 209 168 245 223 173 241 222 163 246 230 170 243 223 170 249 227 177 249 223 174 250 224 175 245 226 170 243 226 170 244 226 178 178 149 115 63  15  1   104 31  24  206 103 86  211 110 82  255 198 156 255 225 173 248 226 168 241 225 166 245 224 171 253 229 183 248 220 181 100 71  37  54  28  0   150 128 91  246 227 187 240 227 182 243 236 184 239 229 176 239 221 173 243 215 175 209 173 141 59  24  0   95  67  30  251 228 184 252 228 180 254 231 181 253 231 182 247 229 179 247 231 179 246 229 177 252 225 178 254 225 185 116 87  57  212 186 153 252 229 185 247 230 178 242 229 174 244 231 178 248 230 182 241 213 174 80  36  9   80  39  11  239 213 178 254 235 193 247 229 181 247 230 178 251 236 181 245 229 178 247 228 185 245 226 184 246 231 188 255 226 188 235 171 146 124 27  11  209 83  69  241 100 83  235 90  73  228 83  66  235 89  76  223 98  80  244 164 131 255 221 175 250 225 169 247 231 172 252 225 178 253 221 182 95  58  29  92  57  27  250 222 182 252 230 183 248 228 177 246 226 175 248 225 181 161 136 95  75  45  7   239 211 171 255 235 190 250 234 185 238 221 175 243 226 182 248 226 187 224 195 161 244 201 167 190 123 97  199 93  80  216 89  83  226 93  84  227 91  79  227 92  73  219 104 75  211 133 94  255 222 179 255 234 189 248 234 189 250 233 189 252 234 188 254 234 184 255 235 184 243 225 177 255 232 191 255 213 181 147 67  42  130 33  16  201 119 97  255 233 195 244 233 188 247 238 195 240 231 190 243 231 191 249 229 192 227 192 162 86  32  6   105 24  7   112 14  1   119 13  0   121 24  5   156 86  61  255 224 194 255 233 199 252 234 196 254 238 202 251 236 197 255 236 197 255 217 184 147 51  35  137 42  24  252 201 170 255 230 193 255 235 198 252 234 196 245 227 189 255 241 203 255 222 186 177 116 87  127 30  11  123 39  15  110 87  43  102 115 61  89  117 59  87  121 61  83  114 55  83  111 53  92  117 60  97  122 65  76  106 46  63  93  33  59  84  26  68  91  37  79  101 52  74  93  48  59  77  37  64  80  44  8   23  0   57  70  42  62  74  50  17  29  9   1   10  0   0   7   0   
83  25  39  83  25  37  82  26  35  82  26  35  80  27  33  80  28  32  80  28  32  80  27  33  81  25  34  80  22  34  88  27  42  85  23  38  86  22  38  103 37  51  119 48  64  129 57  71  129 53  63  117 52  48  198 157 129 216 188 141 212 187 130 215 187 124 233 197 135 229 195 134 221 201 142 219 205 156 157 142 111 75  41  29  77  5   8   171 62  68  194 48  51  186 40  41  140 32  32  96  11  6   77  0   0   142 43  24  203 49  41  232 43  41  245 41  40  235 33  29  227 44  36  223 44  39  232 39  40  234 38  40  233 37  39  231 37  38  227 38  36  226 39  34  225 40  37  228 43  40  231 42  40  228 39  37  226 41  38  228 43  38  227 42  37  228 39  35  229 33  34  236 44  43  223 41  38  218 47  40  216 51  45  219 50  45  224 40  40  224 36  37  226 38  36  212 44  33  205 75  51  194 87  55  210 112 77  217 118 86  245 140 111 255 158 129 255 179 146 255 186 157 160 48  28  192 50  38  224 51  47  226 38  37  228 45  41  218 54  42  191 61  39  227 130 97  255 194 147 255 222 168 255 216 163 255 212 160 255 215 165 255 204 160 230 132 97  192 60  37  211 43  32  238 49  47  233 39  39  209 45  35  195 92  61  255 207 162 250 223 168 243 229 168 249 225 161 247 223 159 244 224 165 245 223 174 187 163 127 59  25  0   79  33  7   232 188 153 252 225 170 248 229 163 253 230 163 246 220 159 248 222 173 234 211 170 57  38  6   128 113 82  238 222 186 238 223 180 242 226 175 245 228 172 248 229 170 252 232 171 244 224 165 244 223 166 248 225 171 247 224 174 250 226 178 249 225 181 248 223 182 240 216 180 59  39  14  97  80  52  245 226 183 245 228 174 245 231 170 237 226 164 244 229 174 250 230 180 247 223 175 247 225 175 244 227 171 243 228 171 243 227 178 176 150 115 62  16  1   102 32  24  203 103 87  210 115 87  255 213 171 255 223 170 245 226 168 253 236 180 250 224 175 253 221 180 250 216 181 85  51  23  49  22  0   178 153 123 242 219 187 241 223 185 237 224 180 243 226 182 255 234 194 249 210 177 179 139 113 62  26  0   123 101 64  244 229 186 241 225 174 248 232 180 246 230 179 244 231 179 245 234 180 248 233 178 253 230 180 254 227 182 143 121 84  234 214 177 249 228 181 248 231 179 246 231 176 245 229 177 251 230 185 228 198 160 73  27  1   108 62  36  253 227 192 251 234 190 247 229 179 248 233 178 252 239 184 245 232 180 245 226 183 255 237 195 242 229 184 253 224 184 211 145 121 127 27  11  170 40  26  232 89  72  232 90  70  237 96  76  230 92  79  214 102 82  246 182 146 255 230 180 242 234 172 239 235 172 244 231 179 241 213 173 84  43  13  132 91  61  250 221 179 252 230 181 244 224 173 249 226 176 255 226 186 147 109 73  109 75  40  249 221 182 245 226 183 248 234 187 244 234 183 244 236 187 242 229 185 249 226 185 255 224 187 166 95  65  162 52  37  218 85  76  228 87  78  235 95  82  221 86  66  211 102 73  221 152 111 255 227 183 255 232 191 250 235 194 251 236 195 251 234 190 255 236 187 251 223 176 255 229 188 255 212 179 254 172 148 152 60  39  120 28  7   222 150 125 255 233 193 248 237 192 246 234 192 252 240 200 255 241 204 251 231 196 188 154 126 81  27  3   97  11  0   125 21  10  161 49  37  149 48  30  198 131 105 255 227 195 255 234 201 254 238 202 253 239 204 252 238 201 255 238 199 240 195 162 122 37  17  133 51  30  255 214 182 255 240 201 255 241 205 249 231 195 255 242 206 255 225 191 255 218 188 154 78  54  124 25  6   124 44  17  99  81  33  72  87  28  66  92  31  68  98  38  73  101 42  69  94  36  75  99  41  71  97  36  55  87  24  57  89  26  57  85  24  68  93  35  93  118 63  72  94  45  59  80  37  39  56  20  3   19  0   60  74  49  56  69  49  0   8   0   5   17  0   34  48  25  
83  25  39  83  25  39  82  26  37  82  27  33  82  27  32  80  28  32  80  28  32  80  28  32  83  28  34  79  23  32  87  29  41  87  26  41  82  20  35  87  23  39  103 37  51  125 54  70  132 53  72  123 50  59  128 71  60  203 162 132 223 189 144 232 201 147 220 183 128 233 201 144 228 207 152 219 202 156 132 111 84  62  25  16  83  17  21  149 59  68  151 46  43  117 18  13  73  8   6   60  11  6   64  15  0   121 42  25  186 47  40  220 42  40  238 38  38  236 34  32  224 39  34  221 42  35  227 43  41  230 45  43  230 45  43  230 45  42  229 44  39  229 44  39  229 47  43  224 42  38  230 41  39  231 43  41  223 44  37  222 51  41  218 56  43  210 53  38  206 46  34  211 59  45  198 58  41  196 67  46  212 85  66  227 87  72  211 46  42  225 50  47  223 52  44  215 70  49  255 180 145 255 201 157 255 206 159 255 209 163 255 209 165 255 210 169 255 218 175 233 181 142 101 17  0   174 54  38  212 50  47  224 48  48  207 44  37  195 60  41  234 141 108 255 209 162 255 229 172 236 218 156 248 222 163 254 223 166 249 218 161 253 212 158 255 211 165 227 130 97  201 60  42  207 38  31  230 46  44  207 49  38  201 108 75  255 223 177 245 224 169 238 226 166 248 224 162 255 226 166 248 227 170 243 225 177 192 176 140 41  20  0   55  21  0   238 204 167 241 218 164 248 227 164 251 227 163 243 218 161 243 222 175 209 191 153 44  27  0   166 151 120 242 228 191 240 227 183 251 238 186 238 223 166 236 222 161 242 226 164 252 236 176 244 225 167 243 223 172 255 233 186 240 215 175 240 214 179 216 190 157 186 161 131 43  23  0   167 150 120 245 228 182 241 226 169 246 235 171 239 228 166 245 230 175 232 214 164 247 225 178 248 226 176 243 228 169 243 228 169 244 228 177 179 151 114 64  16  2   103 35  26  200 107 90  222 135 107 255 213 170 254 227 174 248 231 175 248 231 177 255 229 182 255 220 182 234 197 168 64  28  4   63  27  5   217 181 159 222 184 161 214 177 150 173 138 106 152 116 82  122 77  46  113 63  38  84  36  16  58  17  0   159 136 104 249 234 193 249 235 186 244 231 179 244 230 181 245 232 180 245 234 180 249 234 179 253 230 178 251 227 179 174 159 118 239 226 184 247 229 181 250 230 179 249 232 178 246 229 177 250 227 183 203 171 133 78  28  3   145 98  72  255 231 197 245 228 184 251 233 183 251 236 181 244 231 176 250 237 185 252 233 190 243 224 182 251 234 190 255 228 189 194 127 101 128 26  11  146 16  2   220 77  60  230 91  68  225 90  68  224 92  77  213 108 87  251 195 158 255 232 180 241 237 174 237 237 173 246 233 180 221 192 150 84  39  8   176 129 99  249 218 174 253 231 181 245 225 172 255 227 179 255 218 182 133 82  51  139 98  66  255 227 189 253 232 189 248 234 185 244 234 183 245 238 186 244 231 186 255 230 190 255 217 177 144 65  34  153 38  20  204 66  56  232 84  74  237 91  78  230 95  75  212 104 75  236 173 132 255 228 186 255 232 194 251 236 197 252 238 199 249 234 191 255 235 189 231 192 149 144 81  48  136 50  27  143 37  21  139 32  16  134 46  24  249 190 158 254 229 188 249 241 195 251 237 198 245 227 191 247 228 195 255 232 200 159 130 100 80  32  9   95  16  1   163 62  50  198 86  72  188 89  70  227 163 135 255 228 195 255 236 202 255 242 207 249 239 203 251 239 201 255 236 199 196 157 124 107 39  16  155 88  62  255 227 192 254 239 200 250 236 201 255 239 203 255 231 197 255 224 191 255 183 158 141 50  29  136 35  15  128 51  21  116 100 49  102 120 58  99  123 61  88  116 55  93  117 59  93  117 59  98  122 62  72  100 39  53  88  24  57  92  28  71  101 39  89  117 56  74  102 43  64  89  34  61  84  38  75  95  58  21  40  12  47  62  41  13  28  9   0   7   0   25  39  13  91  108 76  
83  25  40  83  25  39  83  25  37  82  27  33  82  27  32  82  27  30  80  28  30  80  28  32  82  29  35  80  24  33  84  28  39  84  26  38  81  23  35  83  23  35  89  27  40  104 40  54  115 42  61  138 62  75  123 47  47  143 76  60  230 179 148 224 187 143 225 200 146 226 207 151 215 200 145 220 201 159 101 73  52  45  5   3   82  29  39  89  34  40  65  16  9   53  13  3   43  12  10  52  21  19  57  17  9   101 29  17  183 60  53  216 54  51  224 36  34  236 42  40  224 43  36  218 46  36  214 45  38  216 45  38  218 44  37  222 43  38  226 41  36  228 41  34  225 42  36  223 40  34  235 46  42  229 48  41  204 47  32  206 71  49  223 112 82  226 132 96  241 153 117 246 171 131 249 190 146 255 204 157 255 208 166 255 185 153 172 51  34  191 49  35  195 53  33  216 97  65  255 206 159 255 220 164 253 216 161 253 220 166 254 221 170 252 222 172 243 219 171 201 164 122 86  19  0   132 29  12  193 48  43  202 50  45  193 70  54  235 144 115 255 208 165 254 223 168 239 225 164 243 227 167 255 221 167 254 214 162 249 223 166 252 230 172 247 218 162 255 204 157 232 135 103 192 59  42  209 48  40  207 64  50  222 139 105 253 213 164 249 230 174 241 229 169 249 223 162 252 222 162 245 222 168 245 224 179 212 189 158 49  21  0   77  41  17  248 213 181 244 216 166 245 223 163 250 229 166 247 228 170 241 227 180 179 163 127 44  25  0   204 183 154 248 228 193 240 223 179 240 224 172 248 233 174 244 230 169 250 236 173 237 223 162 246 229 173 252 232 182 233 210 169 98  72  39  71  44  15  58  28  4   46  18  0   61  34  13  229 206 175 253 231 184 242 223 165 245 231 168 248 234 171 216 200 148 219 201 153 249 227 180 249 227 177 245 229 170 244 229 170 248 228 177 182 152 114 69  17  3   105 37  28  196 114 93  234 159 127 255 217 172 254 231 177 247 232 175 239 224 169 255 230 185 255 225 188 221 184 157 57  16  0   61  12  0   97  40  29  79  13  1   76  7   0   95  28  9   76  11  0   86  21  1   76  13  0   73  11  0   82  30  16  194 163 135 248 228 191 254 236 190 246 228 178 249 231 183 250 232 182 248 233 178 252 233 177 254 229 175 250 228 179 207 200 154 235 231 186 248 232 183 249 229 178 250 233 179 249 232 180 247 224 180 173 139 102 88  36  12  186 136 111 255 227 193 246 229 185 253 236 184 251 234 178 241 228 173 249 236 184 255 239 196 251 229 190 248 225 183 255 226 190 174 102 80  127 24  9   153 26  11  223 83  66  233 98  76  223 94  72  218 92  77  219 118 98  255 206 169 255 232 180 244 236 174 244 236 174 252 229 179 198 160 121 100 47  16  214 165 133 252 224 177 250 233 179 248 231 177 255 228 181 255 204 171 122 61  33  166 119 89  255 225 188 255 232 189 250 232 184 246 233 181 249 236 184 255 232 188 255 225 183 255 214 175 139 48  17  149 26  8   179 35  24  237 83  75  238 84  74  234 95  76  202 92  65  255 192 154 255 230 190 255 235 199 250 234 200 250 240 204 250 236 197 255 232 188 201 149 112 132 40  19  150 29  18  153 20  11  142 22  8   131 47  21  255 210 174 254 235 192 250 243 197 255 244 206 255 234 200 255 234 203 250 225 195 128 103 72  73  36  9   99  34  14  177 90  73  200 94  78  177 82  60  242 185 155 255 239 204 253 237 201 244 239 201 243 239 202 250 242 205 252 238 201 199 171 134 169 118 89  215 166 136 255 236 200 247 238 197 242 234 197 255 241 207 255 231 196 246 189 160 137 50  30  132 29  12  134 29  8   134 59  27  118 102 50  85  101 39  71  93  31  76  100 40  90  109 53  95  116 59  87  111 53  60  88  29  53  87  26  60  96  32  80  112 49  85  115 51  90  120 58  55  83  25  58  84  36  88  110 71  72  92  65  4   21  2   0   9   0   0   15  0   52  69  35  99  120 79  
82  25  40  82  26  39  83  25  37  83  26  33  82  27  32  82  27  30  82  27  30  82  27  30  85  28  34  83  26  33  82  26  35  78  25  35  81  28  38  84  28  39  83  23  35  89  25  39  114 45  63  118 44  59  133 54  60  121 48  42  146 89  69  225 182 150 227 195 154 225 201 155 234 205 163 212 177 145 93  49  36  63  17  17  56  11  18  45  9   13  43  25  15  35  23  11  37  19  15  45  22  16  47  14  0   102 45  26  221 124 108 242 110 98  212 50  45  215 43  39  206 47  41  198 49  42  194 52  42  202 51  42  217 48  41  227 45  41  230 43  36  229 42  35  228 43  38  229 42  37  233 44  40  215 41  32  203 61  41  241 134 102 255 203 160 255 218 168 255 219 169 251 218 164 244 225 167 243 228 171 244 222 172 251 203 163 118 28  4   156 45  25  180 66  39  239 150 110 255 213 160 245 224 161 252 226 165 243 217 158 244 222 165 242 222 169 240 224 175 170 142 102 62  9   0   89  7   0   178 62  49  185 67  53  235 149 122 255 212 174 254 221 170 246 227 169 237 224 169 241 224 170 252 219 168 254 218 166 249 224 167 237 221 159 239 228 166 249 223 166 255 199 158 227 131 106 189 59  46  177 55  40  239 169 133 253 220 169 243 226 170 244 229 170 254 228 169 255 226 170 247 226 173 249 228 183 225 200 170 56  26  2   94  63  35  250 220 184 253 230 178 249 229 170 249 229 168 246 227 171 234 221 177 151 135 102 47  21  0   186 155 134 162 131 103 146 118 81  160 140 90  245 230 173 247 231 172 244 229 170 245 233 175 244 231 178 241 224 180 224 202 165 47  17  0   44  9   0   53  11  0   51  13  0   98  68  42  249 225 189 254 232 185 247 227 174 248 232 173 248 233 176 170 156 107 222 205 159 250 228 181 250 228 179 248 229 173 247 228 172 249 227 177 186 152 115 74  18  1   110 38  26  193 113 90  235 167 132 255 223 178 251 231 178 250 233 179 247 230 178 253 229 185 255 226 188 179 142 113 64  17  0   83  25  11  111 43  32  114 36  26  102 20  8   93  14  0   94  19  0   86  18  0   89  22  3   92  20  8   85  23  8   236 201 173 250 228 189 251 228 184 254 233 186 248 232 183 249 233 182 248 231 179 254 233 180 255 230 179 255 235 185 236 232 185 243 239 192 251 235 186 248 228 178 250 234 182 254 234 184 252 220 179 160 116 81  102 42  16  217 163 137 255 224 189 255 236 193 254 234 184 249 232 180 250 239 185 248 234 185 249 227 186 255 232 195 255 231 193 255 216 184 142 64  44  140 37  22  155 25  11  229 89  72  230 95  73  226 97  75  215 95  78  224 129 107 255 217 180 255 230 181 248 233 176 250 233 177 255 223 178 181 135 99  110 55  25  232 183 150 255 229 184 247 231 179 250 234 182 255 228 182 255 192 161 119 49  24  198 151 121 255 230 192 255 232 191 251 233 187 250 234 185 252 228 182 255 221 181 255 202 168 255 169 142 138 32  10  150 23  8   187 45  33  237 85  74  240 90  76  226 89  71  209 103 77  255 206 169 255 235 195 255 237 203 248 232 199 248 240 203 251 237 198 255 227 188 180 115 83  141 30  13  162 23  16  162 17  12  154 28  16  153 73  48  255 226 188 254 237 193 250 241 198 255 234 200 255 232 202 255 234 204 255 236 205 201 181 148 226 197 167 255 208 182 255 213 191 247 150 133 166 71  51  252 188 160 255 231 198 255 235 198 251 243 204 250 246 208 246 242 204 253 244 205 248 228 191 255 233 200 255 235 202 252 237 198 255 246 206 255 240 204 255 227 193 242 185 156 137 57  34  130 29  11  142 37  16  128 34  8   120 58  21  102 89  37  78  92  33  76  95  39  90  113 59  92  112 59  82  102 49  60  83  29  52  80  22  66  102 41  80  119 56  92  124 59  86  114 53  82  110 51  61  85  33  54  77  33  55  75  40  80  98  74  66  83  64  0   17  0   0   8   0   62  82  45  89  110 69  
80  30  42  78  26  38  80  24  35  81  26  32  84  29  34  86  29  35  86  27  31  84  23  28  89  24  32  87  24  33  82  27  33  79  28  35  76  29  35  78  29  35  83  26  35  87  23  37  90  21  39  103 32  48  116 49  58  120 59  58  114 60  50  129 78  61  183 132 111 241 187 163 251 193 173 184 121 104 124 61  52  89  31  29  56  12  11  44  15  11  40  27  18  30  20  8   40  18  7   59  32  13  115 88  58  208 170 133 249 191 154 255 175 147 194 67  58  189 54  51  172 52  51  144 35  30  102 0   0   175 48  39  217 48  45  229 40  38  233 44  38  229 42  35  229 40  38  231 42  40  233 41  40  217 44  37  190 58  37  255 166 129 255 213 162 253 223 163 253 221 164 253 224 168 246 227 169 238 223 168 243 227 178 236 202 164 103 35  12  105 20  0   145 64  34  255 197 153 246 219 166 238 222 162 254 222 163 254 219 161 246 217 159 247 224 172 244 223 180 133 107 74  60  16  0   68  8   0   143 69  42  234 163 131 255 208 169 255 225 177 249 222 167 246 225 172 247 225 184 241 222 180 239 218 171 252 231 176 243 217 158 251 227 163 242 224 158 248 228 167 252 218 170 255 207 173 162 66  52  162 69  52  243 190 150 255 229 174 246 229 175 251 234 180 252 225 170 249 222 169 244 227 175 247 230 184 238 209 177 64  35  3   116 97  57  245 228 182 244 229 172 245 229 169 247 226 169 246 226 176 245 230 191 112 92  65  48  15  0   58  14  3   59  10  0   70  26  1   152 127 86  244 226 176 250 230 179 245 228 174 241 231 178 240 232 183 237 228 185 189 170 137 54  20  0   58  11  0   61  3   0   64  8   0   169 135 98  244 222 175 255 234 187 246 228 182 247 230 186 246 231 188 122 109 65  228 213 170 249 228 183 251 229 180 249 226 176 251 228 178 251 224 179 191 153 116 88  26  5   112 35  19  187 103 77  255 194 159 255 227 181 247 230 178 253 233 183 249 228 181 250 232 186 250 225 184 150 114 78  84  35  5   87  25  2   134 63  43  176 101 82  98  21  1   103 32  10  105 39  13  130 71  41  149 85  57  121 43  23  143 75  54  253 219 184 250 231 189 255 230 189 251 230 185 246 236 185 243 233 182 255 237 187 252 230 181 252 230 183 251 233 187 245 234 189 245 234 189 250 232 186 254 236 188 243 231 181 248 226 179 255 223 186 146 79  50  121 47  20  251 187 159 255 231 194 251 227 183 251 230 185 255 238 192 241 231 182 252 238 193 234 204 168 235 194 164 211 164 138 196 135 114 121 38  20  137 31  17  164 32  19  233 87  72  242 97  80  220 87  68  215 100 79  232 146 119 255 220 182 255 233 188 253 232 185 252 228 182 255 221 182 158 108 73  113 58  28  255 210 177 255 233 189 246 232 185 244 232 182 251 219 178 239 169 143 118 43  20  227 184 152 255 233 195 249 231 191 251 236 193 249 232 188 226 191 151 125 56  27  138 41  22  151 29  24  147 15  13  156 28  19  189 59  46  228 88  73  229 92  74  219 93  71  212 118 90  255 219 181 255 237 197 255 234 203 255 237 206 247 239 202 250 235 196 255 228 193 158 81  53  145 28  11  164 23  13  210 63  56  214 90  78  207 133 108 255 232 196 255 237 197 253 239 202 255 238 208 255 233 203 250 235 202 250 240 205 251 237 202 254 234 201 255 235 201 255 228 200 219 130 112 138 38  22  180 98  77  255 205 177 255 228 193 255 245 204 248 243 201 246 243 202 252 243 204 247 233 196 255 245 209 254 238 202 253 239 200 255 238 201 255 229 196 243 179 152 147 48  29  149 33  18  139 26  8   133 35  10  117 49  12  114 76  31  93  83  32  84  92  41  89  107 59  98  121 75  69  94  52  29  52  8   60  82  36  64  91  40  86  126 66  77  119 55  88  117 53  98  119 62  75  94  48  59  75  39  9   23  0   2   16  0   10  23  3   61  76  53  37  55  29  0   17  0   59  80  47  87  109 73  
77  26  35  80  29  38  85  29  38  84  29  35  80  25  31  80  23  30  84  24  32  89  28  36  87  24  33  87  24  33  85  25  35  82  26  35  79  28  35  79  28  35  82  26  35  85  25  37  88  21  38  88  19  37  93  31  42  104 47  54  111 55  58  114 56  55  127 63  61  143 74  69  205 127 123 153 74  70  126 51  48  122 55  49  82  32  23  45  9   0   49  27  13  76  58  38  132 106 81  196 167 133 217 195 145 221 199 142 229 198 143 242 191 148 175 89  72  150 55  53  99  17  19  75  0   0   86  3   0   165 54  47  211 49  47  227 44  40  222 48  37  221 47  36  227 42  39  230 40  40  230 41  39  215 47  38  189 67  43  255 183 144 255 221 166 248 228 165 250 226 166 249 224 167 245 224 167 241 224 172 240 226 179 229 199 163 93  35  13  89  18  0   148 85  50  250 206 161 244 227 173 241 226 167 255 224 165 255 224 164 251 222 164 247 224 172 242 220 181 109 82  52  54  17  0   85  39  13  226 176 141 255 211 170 255 225 178 244 221 169 247 224 170 248 224 176 185 161 127 97  74  42  122 105 61  236 219 165 255 229 170 247 222 158 244 226 160 242 226 164 247 227 176 246 206 170 97  25  10  141 68  51  252 209 167 249 226 172 244 227 173 247 230 178 252 226 175 250 227 175 247 231 180 247 230 184 243 215 178 67  38  4   140 126 81  242 232 179 242 232 171 243 232 170 248 229 173 246 225 178 244 224 189 94  68  45  53  10  1   71  16  11  113 44  37  67  6   0   178 146 108 247 229 181 244 224 174 249 231 181 243 231 181 245 234 188 237 225 185 160 140 107 49  11  0   59  6   0   104 36  25  129 66  48  228 193 151 253 233 182 252 231 186 247 228 186 242 227 188 238 224 187 94  82  42  238 225 183 247 229 183 251 229 182 249 227 178 251 227 179 253 224 182 197 154 119 93  28  6   116 39  19  191 112 82  255 202 164 255 228 181 247 231 180 254 233 186 251 230 183 248 231 185 250 227 183 139 101 64  111 62  29  159 102 73  209 145 118 237 173 146 244 183 155 251 198 167 255 220 187 255 214 179 245 185 151 144 64  41  194 122 97  255 224 187 252 235 192 252 227 186 255 235 192 245 237 188 244 237 185 228 207 160 255 231 185 255 234 189 250 232 186 246 231 188 248 233 190 250 231 188 250 233 187 242 234 185 254 231 187 255 213 179 138 61  33  128 53  24  255 207 173 255 225 185 255 237 193 253 234 191 249 232 188 250 235 192 244 221 180 126 77  47  87  27  3   82  21  2   97  25  10  101 14  0   131 24  8   169 39  23  235 92  76  232 89  72  228 97  77  203 99  74  236 163 131 255 228 187 255 234 190 252 231 188 255 228 188 255 223 187 134 79  48  134 79  48  255 213 179 253 228 187 241 227 182 255 242 195 254 221 180 212 137 114 129 53  30  248 209 178 255 237 199 246 232 193 248 233 192 255 231 194 211 161 128 131 39  18  147 26  17  157 17  20  168 25  27  154 21  14  192 62  48  231 94  76  229 97  76  221 99  76  219 130 100 255 231 193 254 242 202 255 233 201 255 235 204 249 241 202 255 240 200 255 213 181 147 59  35  145 24  7   167 27  14  229 82  74  224 102 89  214 149 121 255 230 192 254 239 200 254 240 203 255 234 202 255 237 204 253 243 208 249 244 206 251 238 203 254 240 203 254 240 203 255 227 195 189 104 84  133 25  13  142 36  23  200 109 90  255 203 175 255 224 188 255 240 199 250 245 203 250 241 202 255 245 209 250 242 205 255 243 205 255 238 201 255 236 202 241 175 149 144 51  33  150 28  17  149 23  11  139 30  10  131 50  21  113 70  28  105 87  41  81  79  31  69  76  32  88  103 62  53  74  35  18  43  4   12  34  0   66  82  45  93  114 73  76  108 59  49  84  30  90  114 62  82  99  54  64  78  45  51  63  41  14  25  9   23  34  20  0   10  0   8   23  0   73  93  65  6   30  0   37  61  29  94  118 86  
84  28  31  84  28  31  84  27  33  83  26  33  83  26  35  82  24  36  79  25  38  80  26  39  80  26  39  83  25  39  87  23  37  90  22  37  90  22  37  86  24  37  78  28  37  78  28  39  92  28  45  87  18  37  81  17  34  85  24  40  95  34  50  103 41  56  113 47  61  124 50  63  128 47  56  136 54  60  139 57  59  132 55  49  132 69  54  165 113 91  201 160 130 216 182 145 218 187 143 220 195 139 209 191 119 212 199 121 221 209 135 227 207 148 145 103 78  61  12  7   51  4   10  68  15  23  76  4   7   144 40  39  201 51  50  212 49  40  223 79  55  209 60  38  221 49  39  228 43  40  227 42  40  213 50  41  192 78  51  255 201 159 255 224 169 248 228 167 251 227 167 248 223 166 243 222 167 245 228 176 243 225 179 227 195 157 90  29  8   82  14  0   177 119 82  254 214 165 246 229 175 240 228 168 251 222 162 255 225 164 250 226 166 243 223 170 236 214 175 78  51  22  52  18  0   198 159 130 255 216 179 255 231 188 245 217 169 255 233 181 255 232 180 241 217 171 138 113 82  52  29  0   124 102 63  248 226 177 250 225 169 250 229 166 244 230 165 237 226 164 248 228 178 219 183 149 59  0   0   128 70  50  255 222 180 248 227 174 246 229 177 246 229 177 250 227 175 250 228 178 245 232 180 243 226 180 247 219 182 69  41  4   178 164 119 242 232 179 243 233 174 244 232 172 249 232 176 246 225 178 238 214 178 73  38  16  59  9   0   96  29  23  171 86  81  112 36  20  225 187 150 253 237 188 245 232 180 249 233 182 245 227 179 252 231 188 247 225 188 132 103 73  53  16  0   62  11  0   143 73  61  191 129 108 255 227 183 250 233 181 249 228 183 250 231 189 242 228 189 217 208 169 67  55  15  243 230 188 247 228 185 251 230 183 246 230 179 250 230 180 255 226 184 201 156 123 98  33  11  118 46  24  194 125 94  255 215 175 255 229 182 248 232 181 252 234 186 250 232 184 248 231 185 250 227 185 116 78  41  216 170 136 255 214 181 255 226 193 255 220 186 255 228 192 251 223 183 254 225 185 255 220 183 208 149 115 110 34  10  188 121 94  255 229 191 246 231 188 253 230 189 253 232 189 246 236 187 247 237 188 184 160 114 255 229 185 255 235 191 250 232 186 248 231 188 250 235 192 248 234 189 246 233 188 243 237 187 255 233 189 255 196 165 126 50  24  139 74  44  255 225 189 255 232 190 250 237 192 251 234 191 250 228 187 255 233 196 255 214 183 116 41  22  102 16  1   89  12  0   87  8   0   104 13  0   125 20  0   175 52  34  227 96  76  223 91  70  222 103 79  200 111 79  245 185 148 255 229 185 249 232 186 246 229 185 255 231 191 255 220 187 116 57  27  159 100 70  255 225 191 255 231 190 250 233 187 250 232 186 255 233 194 183 105 83  143 67  44  255 223 191 248 234 195 248 236 196 253 234 194 255 228 196 196 126 100 142 30  16  158 23  17  158 16  14  171 28  22  158 18  5   211 70  53  243 98  77  230 90  67  217 93  69  235 149 116 255 234 193 250 241 198 253 235 199 255 236 203 250 242 203 255 243 204 253 194 164 139 45  20  151 28  10  170 30  17  232 90  80  214 101 83  227 174 140 255 240 196 255 246 203 251 244 202 253 239 202 254 240 203 253 245 208 249 244 204 249 241 202 251 242 201 250 241 200 255 225 191 172 83  65  149 28  19  160 27  22  201 74  65  187 87  71  255 199 172 255 235 198 252 239 197 255 247 208 245 236 197 252 240 202 255 236 201 255 230 198 236 176 150 138 42  26  148 31  21  152 28  18  144 31  17  132 47  26  122 68  40  100 80  45  83  81  42  52  58  20  38  48  11  37  51  15  31  47  11  24  44  9   22  39  5   36  47  17  40  49  22  16  31  2   54  70  41  77  92  61  27  41  15  0   8   0   0   6   0   9   20  14  79  92  83  64  80  67  46  65  45  32  56  30  59  86  55  12  39  8   87  116 85  
83  27  28  81  26  29  82  27  32  83  27  36  85  27  39  83  27  40  79  27  40  74  26  38  73  30  40  78  28  39  86  24  39  92  21  39  93  20  37  89  22  39  78  28  39  76  29  39  84  23  38  88  24  41  87  24  41  85  24  42  82  23  41  89  28  46  102 37  57  116 45  63  127 49  65  131 49  61  129 47  53  138 59  55  170 98  86  210 145 125 226 169 142 221 173 137 216 177 134 210 181 125 211 191 118 220 208 126 210 203 125 213 203 142 152 133 101 42  18  8   43  18  22  54  19  25  62  4   2   137 50  41  187 67  53  226 97  75  255 160 127 231 112 80  214 54  40  225 46  41  226 42  40  210 54  42  197 94  63  255 212 168 255 225 171 248 226 166 249 227 169 248 226 168 243 222 167 250 230 179 247 226 181 226 194 156 87  26  5   84  18  0   217 165 125 255 223 172 244 229 174 239 227 169 245 221 161 250 224 163 247 228 169 241 225 173 238 216 179 48  21  0   62  31  3   255 225 195 255 222 182 255 226 179 246 223 171 251 230 177 243 221 171 245 222 180 104 79  49  47  21  0   163 137 102 255 231 185 241 218 164 244 225 166 245 234 172 237 225 167 247 226 179 184 151 118 62  15  0   133 88  65  253 224 184 251 231 181 248 231 179 247 230 178 249 229 176 246 229 177 243 231 179 241 227 180 251 226 186 79  53  16  214 197 153 240 228 176 244 232 174 245 230 171 249 234 179 248 226 179 230 197 164 65  19  0   65  3   0   119 39  32  189 87  82  176 89  72  250 208 170 245 229 178 250 238 186 240 227 175 251 227 183 255 225 186 255 224 189 106 67  38  64  18  0   71  16  0   163 94  79  226 166 142 252 225 180 244 231 178 251 230 185 251 229 188 246 228 190 183 167 131 70  55  16  244 229 188 248 229 186 249 232 186 244 230 181 248 232 183 255 227 185 205 159 126 103 35  14  123 48  27  202 139 106 255 224 183 255 230 183 249 233 184 251 235 186 249 232 186 249 230 187 243 218 177 94  54  18  255 214 179 255 226 190 255 225 187 255 234 194 251 232 190 249 238 192 245 228 184 255 230 191 181 122 90  117 45  20  192 131 102 255 232 193 247 234 190 254 232 191 253 232 189 245 232 187 250 233 187 144 115 71  255 227 184 255 234 190 249 230 187 251 232 190 252 235 192 250 233 190 248 235 190 246 238 191 255 228 185 241 172 143 126 49  23  160 106 72  255 230 189 253 239 194 239 233 185 251 238 194 255 236 195 255 225 190 243 189 161 118 32  17  123 25  14  102 13  0   113 21  6   127 24  7   154 39  20  202 77  57  224 94  72  228 96  75  215 96  72  196 113 79  255 203 163 255 233 189 255 238 194 248 231 187 255 230 190 244 189 158 109 45  17  192 135 105 255 217 182 255 236 194 250 236 189 255 232 188 255 218 183 158 80  58  170 95  74  255 224 191 246 237 196 254 245 204 255 239 202 255 221 189 174 108 82  135 35  19  148 27  16  194 63  53  221 83  72  233 92  75  239 92  74  236 85  64  232 90  66  221 101 76  255 172 140 255 233 190 247 243 198 254 240 203 254 240 205 247 239 200 255 241 203 234 170 142 138 39  16  157 30  15  183 41  29  233 91  81  206 95  76  245 199 163 255 244 198 251 242 199 247 240 198 253 244 205 250 238 200 249 237 199 252 240 202 251 242 201 252 243 202 252 240 198 255 227 191 146 53  35  154 23  15  178 28  27  206 57  53  194 63  53  192 89  72  249 185 157 255 235 200 255 230 196 255 242 209 255 239 208 255 230 204 234 172 149 134 51  33  146 33  25  145 24  15  143 31  17  130 39  20  115 59  32  99  73  40  80  76  39  62  70  33  44  51  17  40  47  13  44  54  19  37  49  13  55  69  34  56  70  37  35  44  15  32  37  14  10  15  0   25  32  16  9   20  3   0   5   0   3   14  8   0   10  8   0   8   6   50  65  60  73  93  81  68  91  71  64  92  67  69  102 73  13  46  17  55  90  60  
67  17  20  74  23  28  80  29  36  82  29  39  81  25  38  77  23  36  75  28  38  75  34  42  69  32  39  71  32  37  78  28  37  85  25  37  89  22  39  87  23  39  79  27  40  78  28  39  79  23  32  83  26  33  85  29  38  82  29  39  80  26  39  81  25  38  81  23  37  82  20  35  97  29  44  108 36  48  121 48  57  130 55  60  123 52  50  120 51  44  151 83  72  192 130 115 216 166 143 222 182 146 221 190 135 224 201 134 220 201 135 221 204 150 162 143 113 43  24  10  38  21  14  45  22  14  55  17  0   126 71  40  203 128 89  255 179 136 254 183 139 229 137 100 202 57  40  221 47  40  223 44  40  204 54  40  206 116 82  255 217 170 255 224 171 251 226 169 248 226 169 250 229 172 246 225 170 250 228 178 248 225 181 225 191 154 81  23  0   101 40  12  248 204 159 255 229 174 241 229 171 240 230 171 246 226 167 247 227 166 242 230 170 243 229 180 211 187 153 49  22  0   87  57  29  248 219 187 254 227 184 252 229 179 249 229 176 246 226 173 246 224 175 255 236 195 75  48  21  47  17  0   199 168 137 254 225 185 249 227 177 249 232 176 244 234 175 240 229 175 248 225 183 154 125 93  62  30  7   154 124 98  247 225 184 251 233 185 246 228 178 247 231 179 248 233 178 243 230 177 245 233 181 246 232 185 255 231 191 107 82  42  236 219 173 239 227 175 245 233 175 245 230 171 248 233 178 249 225 179 214 169 138 75  12  0   82  3   0   152 55  46  192 77  70  214 117 100 255 212 173 242 226 175 248 238 185 245 232 180 255 230 187 255 222 185 255 217 186 89  38  11  70  12  0   82  20  0   176 108 89  249 193 166 252 228 182 249 237 185 253 232 187 252 227 187 255 226 192 141 112 80  102 78  42  250 228 189 248 231 187 248 234 187 244 232 182 247 231 182 255 227 185 209 160 128 113 35  15  131 48  30  210 154 121 255 230 188 255 233 187 251 233 187 247 233 186 249 232 188 250 231 188 227 198 158 120 75  42  255 215 182 254 224 186 249 230 188 247 233 188 238 230 183 240 240 190 245 234 188 255 224 185 162 103 71  111 44  17  218 161 131 250 225 185 255 243 201 253 234 192 255 238 195 249 232 188 247 226 181 122 87  47  255 223 184 255 230 190 250 231 188 253 234 192 252 233 191 254 232 191 254 232 191 252 235 192 255 226 188 219 141 118 126 44  22  184 135 102 255 233 191 253 245 199 241 237 190 247 235 193 253 231 192 255 228 195 223 172 145 117 36  19  115 17  6   152 51  41  202 94  82  223 99  87  228 95  80  234 94  77  231 89  69  241 96  77  227 101 78  200 113 83  255 214 177 255 234 193 255 234 192 250 228 187 255 233 196 223 159 132 125 58  32  213 160 129 255 230 192 248 234 189 247 236 190 253 232 189 255 220 185 138 62  39  189 117 95  255 236 202 251 243 204 247 239 200 245 233 195 251 227 193 210 174 142 212 158 130 242 166 142 249 142 122 204 77  58  230 91  72  238 91  71  240 89  68  232 93  70  205 94  67  255 188 155 255 238 195 244 245 201 253 245 208 252 242 207 244 239 199 255 236 201 207 140 114 136 33  14  150 16  5   199 50  43  236 92  84  209 98  81  255 219 182 254 243 197 251 238 196 255 242 203 255 246 208 255 243 206 255 239 204 255 239 204 255 242 203 255 244 205 253 235 195 255 210 177 145 44  26  158 20  10  187 32  28  235 73  71  211 56  52  198 60  50  196 89  71  255 187 166 255 216 192 255 210 188 255 187 168 246 158 144 145 42  33  136 28  18  140 27  19  136 33  18  128 44  20  113 54  22  96  73  32  74  71  28  58  65  23  52  60  19  56  58  21  65  65  29  72  77  37  87  94  53  80  91  51  70  82  44  78  87  56  71  80  53  29  34  12  11  18  2   1   12  0   0   5   0   0   11  7   0   4   2   0   6   3   19  38  32  68  92  78  68  97  77  65  99  74  56  92  66  54  94  68  71  111 87  
62  13  19  68  17  24  77  21  30  81  25  36  83  25  37  82  26  37  78  28  37  74  31  38  72  31  37  73  30  37  79  28  37  85  25  37  87  23  37  86  24  37  80  26  39  78  28  37  82  31  36  81  29  33  77  26  31  76  25  32  78  27  34  82  29  39  82  29  39  83  27  38  85  27  39  89  27  38  89  26  35  99  34  42  117 51  55  129 60  63  125 55  57  116 48  47  117 56  55  154 100 88  196 151 120 227 188 145 229 192 148 233 201 163 170 142 120 39  18  1   39  22  6   41  23  0   93  68  28  200 164 114 231 186 131 236 187 131 241 193 144 248 170 132 196 56  39  219 46  39  219 44  39  198 55  39  226 146 109 255 218 168 255 225 172 253 228 172 248 226 169 251 232 176 248 227 174 248 226 176 247 224 180 220 186 149 76  22  0   142 87  57  255 221 174 249 227 170 240 228 170 242 232 173 248 232 173 246 230 171 239 228 172 242 230 182 174 147 117 59  27  2   118 91  64  249 225 189 245 224 177 250 233 179 244 227 171 250 233 179 245 224 177 239 213 176 50  18  0   60  25  3   230 197 166 247 218 178 246 226 176 246 230 178 242 231 177 244 231 179 251 226 185 129 103 70  49  25  1   185 165 138 250 232 192 247 231 182 246 228 178 248 232 180 247 236 182 243 234 179 244 234 183 245 231 184 252 229 187 145 120 79  246 230 181 243 230 178 248 233 178 246 231 174 245 232 179 251 224 179 187 131 104 94  15  0   104 8   0   187 76  65  209 91  81  227 131 109 255 221 182 253 237 186 243 231 179 253 239 190 255 229 186 255 223 187 255 202 172 99  33  9   90  18  0   108 36  14  198 132 108 255 215 183 255 233 186 250 238 186 251 230 185 255 230 192 255 217 188 114 68  42  137 102 70  252 226 189 248 231 187 248 236 188 246 232 185 248 230 184 255 227 187 213 160 129 125 33  18  140 47  32  226 173 141 255 231 190 255 234 190 252 234 188 247 233 188 248 234 189 254 231 189 198 164 126 138 87  56  255 224 192 255 228 189 255 241 198 248 237 191 240 234 186 243 241 192 248 234 189 255 214 178 147 84  53  109 44  16  249 196 165 255 232 194 251 238 196 251 233 193 252 230 189 255 236 193 234 207 164 113 71  33  255 218 180 255 229 189 251 232 190 254 236 196 251 232 192 255 233 192 254 231 190 253 234 192 255 231 195 194 112 91  123 38  17  207 164 130 255 240 197 241 234 188 248 244 197 253 240 198 255 239 199 255 239 204 192 151 121 107 42  20  115 34  17  148 61  44  206 104 89  220 97  82  232 94  81  230 87  70  238 91  73  237 86  69  222 93  72  211 128 96  255 224 187 255 232 194 254 229 189 255 233 194 255 234 199 187 127 101 110 46  21  230 187 153 255 242 202 251 238 194 251 237 192 255 240 200 242 193 161 123 47  24  210 139 117 255 230 199 252 239 204 250 240 204 255 242 207 255 243 209 251 231 196 252 230 193 255 224 191 216 129 102 167 48  26  221 86  66  233 88  69  230 83  65  230 98  77  214 110 85  255 213 181 255 240 200 243 244 204 248 239 206 252 239 207 252 239 204 255 233 200 185 110 89  139 32  16  154 21  12  214 70  62  230 89  82  217 107 92  255 225 191 255 242 200 255 236 199 255 240 206 255 230 198 255 235 204 255 233 205 255 226 199 255 229 198 255 236 205 255 220 189 254 184 159 143 30  14  165 21  12  199 37  34  238 69  66  213 43  43  197 44  38  190 68  53  177 81  59  139 61  38  129 51  31  144 48  34  136 27  20  147 29  25  143 28  21  125 28  12  124 46  24  111 54  27  97  64  29  82  79  36  58  67  22  52  59  17  57  59  20  72  68  31  83  79  42  84  86  47  79  87  48  77  87  50  64  78  42  45  59  26  30  45  16  21  34  8   4   16  0   1   12  0   0   7   0   0   9   5   0   4   0   0   7   4   0   15  6   46  73  58  65  97  76  61  99  74  62  105 77  55  99  74  48  93  70  
72  16  29  72  14  26  79  13  25  85  17  28  88  25  34  89  30  36  81  28  34  77  24  30  85  25  37  87  23  37  90  21  39  90  22  37  87  24  35  83  26  33  78  29  32  76  30  32  78  29  33  78  29  35  80  29  36  80  29  36  81  28  36  79  26  34  79  26  34  79  28  35  71  20  27  78  27  32  84  31  39  84  29  35  84  27  34  95  34  41  109 46  54  121 53  64  130 55  75  127 53  68  119 55  55  149 89  79  186 127 113 229 176 162 177 133 122 52  19  2   92  68  40  163 144 102 203 182 125 224 201 134 215 188 121 212 178 117 242 198 153 255 174 144 195 55  40  218 47  39  218 45  39  196 59  41  247 178 139 253 220 169 255 226 175 255 228 175 248 227 172 249 232 176 248 228 175 247 227 177 248 227 182 213 183 145 74  27  0   198 149 116 255 225 174 246 226 167 242 229 174 241 230 174 246 231 174 244 232 174 238 229 174 243 229 182 159 125 97  53  17  0   152 125 98  249 229 192 248 234 185 243 232 176 249 234 177 245 228 174 248 227 180 214 188 151 60  24  2   79  41  20  244 211 180 255 229 189 255 236 189 244 228 177 243 230 178 246 228 180 250 222 182 102 73  39  48  28  1   212 197 168 253 235 195 247 229 183 251 231 181 249 233 181 244 235 180 242 235 181 243 233 182 243 229 182 250 227 183 194 171 127 247 231 182 246 233 181 251 234 180 248 231 177 247 231 179 255 225 181 163 96  70  118 22  6   126 13  0   205 85  71  217 102 84  238 151 124 255 223 181 255 239 189 242 226 177 251 233 185 251 228 184 255 227 190 235 174 146 118 37  16  120 29  11  142 57  37  224 163 135 255 226 190 252 231 184 246 232 183 248 230 184 255 231 195 251 189 164 109 43  21  162 117 88  255 226 190 249 232 189 248 236 188 249 231 185 252 229 185 255 228 188 216 161 131 137 30  20  152 45  35  245 192 160 255 232 191 255 234 193 254 233 190 249 234 191 252 235 192 255 230 190 168 128 93  177 117 89  255 206 177 255 226 188 248 231 188 252 235 191 248 234 189 252 239 194 254 226 186 255 209 178 129 62  35  124 60  33  255 207 175 255 236 198 247 234 192 255 240 200 255 238 197 255 235 194 212 177 139 109 59  24  255 210 174 255 230 190 250 235 192 254 239 198 252 234 194 255 233 194 255 233 194 251 233 193 255 228 195 167 84  66  125 43  22  231 195 161 255 244 202 250 241 198 255 243 201 254 236 198 253 233 196 253 235 197 203 181 144 179 144 112 208 163 134 249 198 169 251 179 154 182 77  56  218 91  74  226 89  71  241 98  81  240 93  77  222 100 79  221 148 115 255 228 190 255 235 197 255 236 199 255 243 204 254 230 194 183 133 106 132 82  55  251 227 189 244 231 187 255 242 199 251 226 186 250 207 173 159 98  70  118 37  18  249 176 157 255 233 204 255 236 203 255 238 206 255 239 206 254 238 205 255 243 208 250 245 207 255 234 197 184 110 81  131 22  1   178 49  30  230 90  75  234 94  79  219 96  80  206 114 91  255 216 188 255 238 204 247 238 205 251 234 206 255 236 210 255 238 207 255 224 197 164 83  66  139 31  18  149 25  15  216 83  74  220 92  83  233 130 115 255 220 190 255 233 199 255 229 202 255 221 196 255 216 194 255 206 186 255 185 169 238 159 144 216 137 120 202 119 103 184 91  76  166 58  45  152 26  12  161 14  4   219 47  45  231 53  51  222 53  50  207 63  52  163 58  36  144 67  37  130 65  35  116 44  19  128 32  18  132 24  14  145 34  25  137 39  26  118 46  22  95  45  18  81  49  24  73  59  32  68  74  38  54  62  23  66  62  27  77  66  34  87  74  42  83  77  43  68  75  41  52  66  31  29  44  11  22  39  7   16  37  6   3   27  0   0   18  0   6   24  0   2   15  0   2   14  4   0   6   0   0   5   0   0   11  5   0   12  0   25  52  35  66  100 76  60  100 73  53  98  67  77  123 94  50  99  69  
75  17  29  84  18  30  97  17  30  102 16  27  98  19  24  92  22  24  86  26  26  86  27  31  87  24  35  90  21  39  93  20  40  92  21  39  86  24  35  80  28  32  78  30  26  75  32  26  76  30  32  77  28  34  79  28  35  82  29  37  83  27  36  81  25  34  81  25  34  80  27  35  84  33  40  76  27  33  75  25  34  78  28  37  79  26  34  79  22  31  84  24  34  92  26  40  104 30  53  122 47  68  112 44  57  127 60  69  124 51  60  120 51  56  133 77  76  174 127 117 219 182 156 210 176 138 220 187 134 210 180 118 211 186 122 221 190 135 236 191 152 255 174 147 198 56  42  220 49  41  216 47  40  194 61  42  255 199 158 247 222 168 255 228 178 254 227 174 249 228 175 248 231 177 247 230 178 246 228 178 248 230 184 208 183 143 75  34  2   237 197 161 255 228 175 248 229 170 249 234 179 241 228 175 243 230 175 244 233 177 240 230 177 249 230 187 132 92  66  66  24  2   179 152 123 252 234 196 238 228 177 243 234 177 245 232 177 250 233 181 249 228 183 180 152 115 69  27  5   103 61  39  254 221 188 252 229 187 248 227 182 245 227 179 248 230 182 246 223 179 249 215 177 76  46  10  66  45  16  229 214 183 251 233 193 250 232 186 253 233 183 249 233 181 243 231 179 245 235 184 246 234 186 247 230 184 255 236 191 240 219 172 243 230 178 247 234 182 250 233 181 248 231 179 249 231 181 255 225 183 150 72  49  134 27  11  153 27  12  217 92  74  212 106 82  254 178 146 255 220 176 253 235 185 254 236 188 250 232 186 253 234 191 255 229 191 212 142 117 123 32  14  134 30  17  162 69  51  241 184 154 255 230 189 253 232 187 247 233 186 252 233 190 255 226 190 224 156 133 106 33  14  173 123 96  255 230 194 247 232 189 249 236 191 253 230 188 255 228 185 255 229 189 218 163 132 143 31  20  155 47  35  255 206 174 253 234 191 255 236 194 254 232 191 252 235 192 255 236 194 255 228 190 151 102 70  110 43  17  135 71  44  242 208 171 251 232 190 253 234 191 253 234 191 249 228 185 255 230 192 255 192 164 118 44  19  143 82  54  255 219 189 255 231 196 255 243 204 247 232 191 255 236 197 255 232 194 195 152 117 105 48  18  255 203 171 255 232 192 249 236 192 254 241 199 252 239 197 252 233 193 255 238 198 251 232 192 255 219 187 151 65  48  135 52  34  253 217 183 254 241 199 255 240 199 254 235 195 255 235 199 255 236 199 255 240 201 253 239 200 255 239 202 255 231 193 255 230 194 235 182 150 117 21  0   210 85  67  232 92  75  230 84  69  236 90  75  217 98  78  234 171 136 255 233 193 255 236 198 250 234 198 249 241 202 251 237 200 250 217 186 255 230 200 245 230 191 255 246 205 255 230 195 255 207 175 150 84  58  118 42  19  119 38  21  255 199 177 255 235 207 251 235 201 255 242 212 255 239 209 248 233 200 249 239 204 244 240 203 255 231 195 158 87  59  136 29  9   164 34  20  221 83  72  224 88  76  219 99  83  223 132 113 255 219 194 255 235 207 255 236 207 255 231 208 255 232 211 255 229 205 255 208 185 154 58  44  144 26  16  155 27  16  223 91  79  220 89  79  226 114 100 218 140 117 181 115 89  175 94  73  154 67  50  144 52  37  134 38  24  133 29  20  140 32  22  142 31  22  145 28  19  153 24  19  159 22  16  162 18  9   171 14  7   214 41  37  221 46  43  205 44  36  193 60  43  154 60  32  134 66  31  129 70  36  116 53  22  128 43  23  136 44  29  127 38  22  119 44  23  120 69  38  99  66  35  71  53  29  66  60  36  64  74  40  56  63  29  75  66  35  83  68  37  75  64  32  56  56  22  36  50  14  30  52  16  27  46  14  19  40  7   7   33  0   24  51  16  27  53  16  34  56  20  39  55  26  49  63  37  43  57  34  36  51  32  25  44  25  6   29  9   5   33  11  54  88  63  56  96  69  56  101 70  49  98  66  64  115 82  
78  19  25  89  18  24  112 15  24  157 48  54  132 26  28  111 17  15  97  26  22  85  27  25  80  25  31  82  25  40  87  24  43  88  25  42  85  25  37  79  27  29  75  28  20  72  29  20  77  32  29  80  30  33  82  27  32  85  25  33  86  24  35  87  24  35  88  24  40  86  25  40  83  25  39  80  26  39  79  27  39  79  27  39  80  27  37  83  25  37  85  25  35  85  25  35  83  26  33  84  29  35  88  32  41  99  37  50  117 40  60  123 46  66  121 53  66  118 58  60  133 74  66  184 125 107 220 161 131 234 180 142 219 177 135 219 180 139 240 191 158 243 159 135 200 57  43  213 40  33  222 55  47  197 70  51  255 208 167 254 233 180 254 226 178 254 228 177 250 230 179 244 228 176 249 233 181 251 235 186 242 228 181 203 181 140 108 75  40  252 219 178 250 227 173 250 231 172 250 233 179 244 228 176 248 233 178 242 229 174 242 229 177 253 228 187 107 61  37  73  25  5   218 188 160 248 230 192 243 233 182 243 234 179 251 235 183 251 231 181 251 228 184 152 119 84  77  29  7   138 92  68  255 229 190 243 225 179 252 231 184 249 228 181 254 230 184 255 227 183 234 195 156 70  34  0   95  68  39  248 227 196 249 230 190 255 234 189 252 232 182 253 235 185 244 230 181 251 239 191 249 235 188 248 231 185 254 233 188 250 232 184 246 233 181 247 234 182 250 232 182 252 231 184 255 234 187 255 216 179 137 49  27  146 26  12  169 36  19  228 103 81  199 104 74  255 194 156 255 230 183 251 235 186 252 234 188 250 231 188 252 235 191 255 221 185 196 120 96  131 31  15  143 31  19  185 90  72  255 217 185 255 234 191 251 233 187 250 233 187 248 231 187 255 231 193 175 113 88  106 40  16  189 146 114 252 226 189 248 233 190 247 233 188 255 232 191 255 228 188 255 231 191 223 170 138 144 36  24  156 52  39  255 220 185 249 236 192 255 236 194 255 236 196 255 238 198 255 231 194 255 222 190 127 70  43  105 30  9   122 54  31  255 224 188 255 237 195 251 232 190 255 236 195 255 230 189 255 225 190 238 164 139 119 39  16  161 100 72  255 227 195 255 234 199 250 235 196 255 243 204 255 233 195 255 230 194 172 122 89  117 52  24  244 187 157 255 235 195 245 237 191 249 240 197 253 241 201 248 235 193 255 238 198 252 230 191 255 211 180 139 50  36  150 62  48  255 224 194 255 242 205 255 237 201 255 235 201 255 233 200 255 234 200 255 237 200 254 239 200 255 238 200 255 238 198 255 235 196 189 140 107 134 35  14  161 29  16  231 83  71  240 88  75  234 88  75  215 103 83  241 189 152 255 239 197 252 237 198 248 240 203 248 249 209 243 241 202 255 241 206 252 232 197 255 237 199 255 231 196 255 205 180 162 76  59  129 32  16  135 39  23  143 62  45  255 221 195 255 241 208 247 243 205 248 242 208 251 242 209 251 238 206 251 236 203 251 235 202 255 223 194 147 62  41  146 31  13  162 28  17  233 92  83  230 93  83  216 94  81  238 141 122 255 211 189 255 203 180 248 190 168 218 146 131 209 132 116 184 106 86  166 75  56  147 29  17  156 22  11  170 30  17  232 88  77  231 89  79  226 94  82  178 65  47  140 33  15  143 25  11  150 28  17  152 25  16  149 22  13  148 24  16  149 22  13  149 18  10  159 20  13  175 23  20  173 11  9   185 17  16  192 20  18  215 42  38  212 48  39  202 56  41  167 47  23  153 64  32  137 69  32  135 79  42  136 84  47  135 76  46  132 72  44  139 82  53  134 85  53  105 67  31  91  65  32  83  62  41  62  54  33  56  61  31  63  68  36  76  67  36  67  56  26  51  48  13  46  57  17  27  52  10  34  63  19  50  75  35  69  94  54  83  112 68  86  115 71  87  113 68  91  115 67  94  115 59  97  116 60  88  106 54  85  104 58  85  107 68  85  109 75  67  94  63  64  97  68  60  99  70  53  96  68  54  101 69  58  107 75  
82  27  30  82  11  15  108 5   9   169 44  48  172 39  40  145 22  17  119 17  12  97  16  12  92  26  28  85  25  35  84  23  39  82  21  37  83  23  35  82  27  33  81  32  28  81  34  28  76  28  26  78  28  29  82  27  30  85  26  32  87  24  33  87  21  33  84  20  34  82  20  35  85  24  39  82  26  39  80  26  39  80  26  39  82  26  39  82  26  39  83  25  37  82  26  35  78  28  29  75  29  29  78  29  35  83  26  41  96  24  48  101 26  49  100 33  50  101 38  47  113 51  52  117 52  48  133 65  54  167 104 87  208 157 130 246 192 164 245 181 154 225 129 107 208 56  43  218 45  38  219 58  48  210 89  68  255 215 174 253 236 184 254 231 181 255 230 181 249 229 179 248 232 181 249 233 182 240 226 177 246 234 186 193 176 132 155 130 90  255 229 186 251 228 174 252 233 175 249 229 178 248 230 180 249 233 181 246 230 178 246 228 178 249 217 178 97  45  23  85  32  14  233 202 173 252 234 194 246 234 184 246 235 181 252 234 184 251 229 180 255 226 184 137 99  63  86  31  10  165 115 90  255 230 189 247 231 182 247 229 181 252 230 183 255 228 184 255 221 179 219 174 135 83  39  4   117 84  53  254 229 198 252 230 189 254 233 188 253 233 183 255 235 185 250 229 184 233 214 171 248 231 187 251 234 190 251 233 185 250 232 184 246 233 181 247 234 182 250 232 184 252 229 185 255 231 187 250 200 165 142 43  24  150 24  10  181 44  26  226 104 80  200 114 79  255 206 164 255 233 186 250 236 187 252 235 191 251 232 189 249 230 188 255 226 191 173 91  69  134 28  14  143 33  20  217 129 109 255 217 184 255 236 192 254 235 192 252 235 191 252 237 194 249 224 184 145 98  68  146 97  67  205 171 136 255 234 195 252 237 194 247 232 189 255 231 191 255 230 190 255 228 188 211 161 128 131 34  17  174 81  64  255 230 193 252 244 198 252 239 197 250 232 192 255 235 196 255 234 199 254 207 177 112 50  25  109 32  12  160 92  69  255 223 188 251 234 191 255 240 197 255 236 194 255 230 190 255 229 195 218 138 115 126 41  21  186 126 100 255 228 195 255 238 203 255 239 201 255 243 204 255 238 202 255 228 196 155 95  67  118 43  20  240 176 148 255 233 194 247 238 195 251 242 201 243 236 194 247 238 195 255 241 200 255 236 198 231 182 152 127 38  24  183 97  82  255 228 198 253 233 196 255 237 201 255 237 202 255 236 202 255 237 201 255 238 200 253 238 199 255 238 200 255 239 199 255 238 200 174 124 91  130 27  8   150 14  2   225 74  63  243 91  80  232 92  79  210 105 83  254 208 172 255 243 200 255 241 204 249 241 204 241 241 203 235 236 196 252 242 206 255 245 209 255 234 200 255 208 181 166 73  58  141 27  17  155 30  24  139 25  15  165 76  60  255 223 199 255 232 201 255 241 208 255 238 208 255 229 201 255 227 201 255 227 204 255 205 183 239 166 147 145 39  23  151 23  10  186 44  34  227 83  74  227 89  78  227 100 85  202 92  75  150 53  34  128 40  20  127 36  18  132 30  18  139 31  19  146 36  21  150 33  16  156 18  7   166 20  7   190 42  28  241 94  78  235 89  74  227 85  71  231 95  79  193 57  43  164 22  10  166 19  11  174 23  16  178 31  23  173 35  25  178 40  29  194 50  41  196 41  36  201 33  30  222 46  46  220 42  42  213 37  37  225 52  48  219 56  47  198 57  39  177 63  36  159 77  40  133 74  32  117 72  30  106 67  24  112 66  30  101 51  18  109 56  24  112 63  30  100 60  25  92  59  26  72  48  22  67  55  29  53  54  23  50  54  21  65  62  31  68  65  32  59  65  27  53  68  25  74  98  50  86  114 63  97  121 69  94  118 66  87  117 63  87  117 63  90  117 66  94  119 62  88  113 45  73  96  24  89  112 44  96  120 60  94  116 67  85  110 68  35  61  26  16  47  16  57  92  62  52  93  61  67  111 75  48  94  55  
65  21  22  83  21  22  111 12  15  157 27  29  193 35  34  197 33  31  182 33  27  146 22  14  108 15  10  94  20  21  88  23  31  86  26  38  88  25  42  87  26  42  81  25  36  77  24  32  80  31  34  79  31  31  80  28  30  83  27  30  85  26  32  87  26  33  88  27  34  88  28  36  83  26  33  82  26  35  80  27  37  80  26  39  82  25  40  82  25  40  83  24  42  83  25  39  81  29  31  80  30  31  76  31  36  77  27  38  82  21  39  83  20  39  81  25  38  81  30  37  80  29  34  85  33  37  94  35  39  111 51  50  110 50  39  153 82  64  215 123 102 202 79  61  213 51  40  220 47  40  209 55  43  225 115 90  255 219 177 251 235 184 252 230 181 252 230 181 251 230 183 253 235 187 249 233 184 241 227 178 246 236 187 193 180 135 210 188 147 254 231 187 253 230 178 246 225 170 248 226 177 251 230 183 248 232 181 249 231 181 250 226 178 235 197 160 90  32  10  108 51  32  253 220 189 252 234 194 247 233 184 248 235 183 251 233 185 254 227 182 255 220 181 120 71  39  95  35  11  201 150 123 254 231 187 248 236 184 245 227 179 254 230 184 255 229 185 255 217 177 195 141 103 95  41  7   151 112 81  255 231 197 254 231 190 254 233 188 252 234 184 254 232 185 255 229 189 202 174 135 250 228 187 252 235 191 250 232 184 249 233 182 246 234 182 247 235 185 251 233 187 253 228 187 255 225 186 233 174 144 144 37  19  154 22  9   195 60  41  223 105 79  204 126 90  255 219 177 255 235 188 250 240 191 248 237 191 249 234 191 252 229 188 255 223 190 149 61  41  140 34  20  133 36  19  249 175 150 255 224 189 255 236 193 255 239 196 240 225 182 253 236 193 253 234 192 253 225 186 255 230 190 255 237 197 253 240 198 249 234 193 250 235 192 254 232 191 255 230 190 255 231 191 224 174 141 128 43  22  184 108 84  253 223 185 249 242 198 252 245 201 250 237 195 255 231 195 255 233 201 240 189 162 113 48  26  115 42  23  175 113 88  254 226 189 255 248 206 242 230 188 253 238 195 254 231 190 255 220 187 184 99  79  130 41  23  218 162 135 255 226 194 255 238 204 254 236 200 248 234 195 255 234 198 255 226 196 135 68  42  123 41  20  230 160 135 255 231 195 250 241 198 255 247 206 248 241 199 248 244 199 251 239 197 255 234 197 214 163 134 122 39  23  199 120 103 255 227 198 255 245 208 253 239 202 254 242 204 255 243 203 253 244 203 249 242 200 249 240 199 253 238 197 255 236 198 255 226 191 149 89  61  136 31  12  157 23  11  231 84  74  241 98  84  220 93  76  205 111 85  255 219 181 253 236 193 255 240 202 255 241 205 255 245 209 255 243 208 255 239 203 255 230 196 255 202 174 158 76  55  143 22  14  165 26  23  160 15  12  158 25  18  219 113 99  255 194 174 239 173 149 214 152 129 196 125 107 182 100 88  166 74  63  155 52  45  150 37  31  150 27  20  163 26  16  159 12  2   196 44  33  244 92  81  230 84  69  235 98  82  223 96  77  207 86  67  154 34  17  147 24  9   161 29  17  159 22  12  155 17  4   157 15  1   169 15  3   183 30  14  199 52  32  228 86  64  234 94  71  233 92  72  235 93  73  235 85  70  225 69  57  238 75  66  235 72  63  226 68  57  204 58  45  204 61  45  212 60  47  214 51  42  223 45  41  229 47  46  220 46  47  227 55  55  222 47  44  208 39  32  207 57  42  192 74  48  142 69  28  117 73  24  98  72  21  109 83  34  115 67  29  127 62  32  126 49  23  120 44  18  125 64  35  108 64  29  86  56  20  77  61  25  60  58  20  58  62  25  67  73  39  65  75  38  67  79  39  74  90  43  82  99  44  89  105 43  90  106 41  91  112 45  95  124 57  94  126 61  83  113 53  74  102 41  79  109 39  85  113 39  96  123 54  89  113 51  88  111 59  90  113 69  71  95  61  0   24  0   42  73  41  65  101 63  54  96  48  58  102 49  
71  30  36  78  22  25  102 12  14  143 19  21  195 32  33  203 23  22  204 24  23  190 26  24  156 24  20  132 24  22  112 20  25  99  17  29  97  16  33  95  18  38  93  21  41  89  25  41  84  26  38  82  27  33  82  25  32  81  24  30  84  25  31  85  26  30  84  28  31  85  29  32  82  27  30  80  28  32  80  27  33  80  27  35  80  27  37  82  26  39  82  25  40  82  26  39  82  27  33  80  29  34  77  32  39  77  31  41  81  27  40  83  25  39  80  27  37  79  28  35  78  31  37  74  25  31  83  27  36  84  22  27  88  17  13  112 24  12  152 35  18  195 52  36  217 46  38  219 48  40  195 52  36  242 140 115 255 222 178 248 234 185 249 231 183 249 228 181 252 231 184 243 222 175 246 228 180 251 237 188 242 232 183 215 205 156 241 222 179 251 228 184 253 230 178 229 206 154 249 227 180 251 230 185 247 231 182 252 232 182 254 226 179 214 170 133 97  32  10  140 79  60  255 229 196 250 231 189 248 232 183 249 233 182 250 232 186 255 228 188 255 210 174 109 50  20  100 38  15  234 185 155 251 230 183 247 238 183 248 230 182 254 230 184 255 228 187 255 219 180 172 110 73  100 37  4   193 150 118 255 232 198 252 231 188 252 234 188 253 235 187 254 232 185 255 229 191 167 131 95  254 229 189 252 233 190 251 235 186 248 235 183 247 235 183 247 235 185 251 232 190 255 229 192 255 223 190 213 146 119 146 33  17  157 21  7   211 76  57  217 103 76  210 138 100 255 225 183 255 234 189 249 241 194 246 238 192 249 236 192 255 231 192 255 209 178 140 45  27  142 39  24  134 52  30  255 204 176 255 235 198 254 235 193 251 236 193 255 243 200 252 235 192 255 236 194 255 240 197 250 235 192 242 230 188 249 237 195 250 237 195 253 238 197 250 235 192 252 230 189 255 227 188 222 172 139 121 45  19  199 129 103 255 235 197 248 239 196 242 238 193 248 239 196 255 240 203 255 234 202 215 165 138 102 42  18  105 40  18  201 150 123 255 248 212 246 234 192 253 240 198 255 241 202 255 227 192 239 182 153 144 53  35  121 32  16  240 189 162 255 229 195 255 237 203 255 239 203 252 238 201 255 237 202 255 210 183 124 47  27  133 40  23  220 142 120 255 231 196 251 237 198 252 238 201 250 241 200 244 241 198 249 240 197 255 226 190 187 133 105 120 43  25  226 155 135 255 234 204 251 237 200 252 244 205 248 245 204 247 244 201 245 244 200 246 243 200 251 242 199 255 241 201 255 237 202 255 229 199 140 68  43  138 28  11  160 28  15  231 89  75  237 97  82  222 97  77  226 128 103 255 225 191 255 227 191 255 232 200 255 226 197 255 222 195 255 220 191 247 198 168 238 174 147 155 73  52  137 29  16  158 21  15  168 16  13  168 15  10  207 64  56  210 90  76  150 45  26  132 35  18  135 38  22  144 37  27  146 31  24  147 22  18  155 21  18  165 23  22  166 18  16  166 13  5   175 21  11  209 55  43  240 88  75  234 87  71  234 91  74  225 85  68  235 98  80  217 80  64  185 45  32  193 49  38  201 53  43  220 72  60  228 78  64  233 79  67  233 81  67  240 95  74  232 93  70  230 94  70  228 92  70  226 84  64  238 88  73  239 78  68  232 69  60  231 70  60  208 54  44  201 59  45  216 79  63  204 61  47  207 53  43  222 53  48  215 43  41  207 45  43  206 44  42  218 50  47  221 60  52  221 84  66  189 81  52  131 64  21  122 78  29  120 82  33  115 68  24  137 66  34  151 67  41  157 69  45  163 83  56  117 58  26  106 62  23  88  56  15  74  53  10  76  64  26  68  65  30  55  62  29  49  63  28  49  65  26  62  78  31  76  85  30  85  91  29  92  101 34  98  114 43  92  119 48  78  110 43  69  103 42  73  107 46  85  121 51  93  126 55  83  114 46  88  116 55  69  93  41  89  112 68  102 123 90  26  49  20  43  70  37  115 147 106 125 164 109 125 166 106 
75  31  44  77  24  34  91  16  21  121 14  20  178 33  38  200 25  32  216 23  28  215 20  26  204 25  28  186 23  26  162 19  25  140 14  25  127 12  29  115 12  31  105 13  34  96  14  36  94  19  40  92  20  40  92  23  41  91  25  39  89  26  35  86  27  33  81  27  27  78  27  24  79  30  26  79  30  26  79  29  28  79  29  28  79  29  30  80  28  32  80  27  33  80  27  37  80  24  37  78  24  38  74  28  39  75  29  39  83  27  38  87  25  36  86  25  33  84  25  31  77  22  28  86  29  36  85  24  31  100 30  32  106 18  14  131 24  14  192 56  42  208 50  38  223 46  38  217 49  40  188 55  36  255 167 138 255 224 181 250 236 187 248 234 187 248 231 185 251 228 184 214 190 146 247 226 181 254 237 191 242 232 183 240 230 181 253 234 191 251 228 184 243 220 170 212 189 139 253 230 186 250 229 186 247 231 182 253 231 182 255 226 180 190 140 103 105 37  14  172 110 87  255 228 196 247 228 186 251 233 185 251 233 185 248 229 186 255 228 191 250 189 160 110 40  15  111 47  22  253 207 174 249 231 181 243 234 179 252 236 187 253 230 186 255 228 188 255 222 183 153 83  49  106 35  3   228 185 151 255 233 196 250 231 189 250 236 189 251 237 188 255 231 187 255 217 184 143 96  66  255 230 194 252 230 189 253 237 188 248 236 184 248 238 187 246 236 187 251 233 193 255 229 195 255 222 193 192 117 94  149 31  17  160 22  9   220 87  68  210 100 73  220 152 115 255 227 186 255 232 190 251 239 197 246 239 195 250 237 195 255 232 194 250 190 162 135 38  21  135 35  19  165 99  73  255 223 188 255 235 198 255 237 197 252 239 197 253 238 197 254 232 191 255 236 195 246 231 188 253 240 196 255 242 200 251 238 196 253 238 197 247 234 192 247 235 193 255 240 197 255 229 190 215 165 132 128 52  26  236 164 139 255 230 195 253 235 195 245 242 197 253 250 205 255 241 204 255 222 189 199 155 126 123 73  46  145 95  70  237 196 166 247 229 191 255 244 205 255 235 199 255 226 193 231 171 145 129 51  31  134 33  21  130 41  25  255 214 185 255 240 203 255 241 205 255 241 205 255 243 205 255 235 200 245 185 159 122 36  19  139 37  25  212 125 108 255 235 205 255 243 205 254 236 200 255 242 203 248 243 201 253 241 199 255 231 197 162 106 79  113 45  24  241 181 157 255 233 202 255 242 206 252 243 204 246 243 202 245 242 199 246 243 200 251 244 200 255 241 200 255 233 197 255 225 192 255 193 167 139 47  26  141 26  8   169 37  22  231 94  76  236 99  81  227 96  76  235 118 98  248 154 129 213 127 104 200 109 90  176 83  66  156 59  43  151 49  35  143 35  22  144 31  17  149 28  17  149 21  10  172 31  22  163 14  7   221 73  63  223 81  67  222 90  75  220 94  79  165 39  25  153 27  15  147 19  8   150 19  11  154 19  13  160 23  15  165 26  19  169 25  16  187 35  24  200 46  34  228 80  66  227 84  68  237 94  77  236 95  77  232 91  73  229 86  70  238 95  81  226 84  70  232 90  78  239 97  85  225 83  71  233 91  79  230 90  77  233 93  80  226 85  68  232 95  77  219 88  68  221 92  73  210 79  61  209 71  58  221 70  61  222 71  64  204 62  52  196 62  51  183 60  45  184 64  48  169 49  33  161 33  20  170 26  18  202 53  49  184 41  35  145 2   0   200 51  44  225 89  75  195 87  59  143 61  24  120 62  16  135 76  32  158 75  41  174 74  48  192 77  58  174 65  45  166 80  53  116 56  20  98  61  19  94  67  20  93  64  20  90  61  21  120 91  59  96  76  49  53  53  25  51  64  34  47  64  30  50  65  26  74  75  31  85  83  32  92  93  35  90  100 37  81  106 41  72  107 43  74  114 54  87  128 68  81  123 59  87  126 59  82  118 54  94  125 66  40  67  16  90  113 71  93  114 81  61  82  51  0   25  0   24  55  11  98  136 77  118 159 93  
69  23  34  81  29  41  91  25  35  94  8   17  132 18  28  164 24  35  192 28  39  201 24  32  206 27  33  202 28  30  195 30  34  185 32  35  171 30  38  154 24  34  137 15  28  122 11  27  117 16  34  109 16  34  103 16  32  97  17  30  91  19  30  86  23  31  83  27  30  81  29  31  79  29  30  79  29  30  79  29  30  79  29  30  80  28  30  80  28  32  80  28  32  82  26  35  85  27  42  82  25  40  76  26  37  76  26  35  82  25  32  87  26  33  87  24  32  86  23  31  88  25  34  96  26  34  99  18  25  104 8   12  156 40  40  200 65  61  205 51  43  224 53  45  225 46  39  214 50  40  190 65  43  255 191 159 255 226 182 249 237 187 247 236 190 247 234 189 252 229 185 188 161 118 254 230 186 248 230 184 247 235 187 249 237 189 251 232 189 250 227 183 217 190 143 214 190 142 255 234 191 249 230 187 249 233 184 254 232 183 255 225 180 165 111 73  112 42  17  204 142 117 255 228 193 249 230 188 255 236 189 255 234 189 249 230 188 255 227 193 232 160 136 119 38  17  133 67  43  255 218 185 252 232 182 243 234 179 252 238 191 250 231 188 254 229 188 255 216 179 139 63  31  122 47  16  253 210 176 255 235 196 248 233 190 250 237 192 250 238 190 255 233 189 243 192 163 129 75  49  255 226 194 252 230 189 254 238 189 250 238 186 249 239 188 246 235 189 251 233 195 255 229 198 255 218 194 169 88  69  151 29  16  164 26  13  221 88  69  207 97  72  234 170 134 255 227 188 255 233 192 251 238 196 248 241 199 252 237 198 255 230 195 230 166 139 132 32  16  129 34  16  217 164 133 255 235 198 251 231 194 255 241 202 253 241 201 248 233 192 255 238 197 255 236 196 255 240 199 255 239 197 251 232 192 255 237 197 252 237 196 248 235 193 247 238 195 254 239 198 255 231 193 221 168 136 133 53  28  216 136 111 255 223 192 255 238 201 248 245 200 243 242 196 249 234 195 255 235 200 255 233 200 255 224 192 255 226 197 255 243 211 249 234 195 255 236 199 255 224 192 234 174 150 141 54  37  134 30  19  137 29  19  153 67  50  255 225 195 255 243 207 255 239 205 254 240 205 250 241 202 255 229 197 229 164 142 131 38  23  142 31  22  204 108 94  255 228 200 255 243 206 255 234 200 255 238 204 255 242 202 255 233 196 255 225 197 143 72  50  121 46  27  255 205 184 255 231 206 255 237 208 255 234 204 255 233 202 255 231 197 255 223 191 249 208 176 231 182 152 211 150 122 203 125 103 190 90  74  134 21  5   153 30  15  191 60  42  232 97  78  233 96  77  226 91  71  226 95  75  183 60  42  148 28  12  144 22  11  151 27  17  153 25  16  154 21  14  153 16  8   161 23  13  162 21  12  165 25  12  154 14  1   213 72  55  228 85  69  232 89  72  236 95  78  228 87  70  216 73  59  193 51  39  188 50  39  207 71  59  219 81  70  217 79  66  224 84  71  235 93  81  239 91  79  235 87  75  231 94  78  231 100 82  217 84  65  229 94  75  233 93  76  233 91  77  231 91  78  225 89  77  232 102 88  216 90  76  219 91  80  216 89  80  224 103 92  206 85  74  229 98  88  215 85  72  182 62  48  166 53  37  179 67  53  150 32  20  217 82  78  201 66  62  142 19  12  207 93  83  128 17  8   130 23  13  144 42  30  120 12  2   162 37  33  188 54  51  186 54  49  151 18  11  211 73  63  216 86  70  180 74  48  150 61  27  155 76  37  181 96  59  206 92  66  208 83  63  195 72  54  174 69  47  128 55  23  127 79  39  87  53  8   111 83  35  100 68  21  101 62  21  143 96  66  122 85  58  64  53  25  47  57  23  41  63  25  52  73  32  97  104 60  102 101 53  90  90  36  75  85  25  75  97  35  79  110 50  69  110 50  55  103 45  61  106 51  75  118 64  83  122 69  77  111 60  28  55  10  50  72  34  91  110 80  88  107 79  4   28  0   0   22  0   37  71  10  67  107 36  
79  33  36  77  28  34  79  23  34  77  15  30  79  11  26  80  2   16  100 8   19  132 23  29  162 31  36  175 29  29  186 31  26  194 32  27  196 34  29  195 33  30  194 32  30  185 32  34  155 22  23  141 22  24  129 19  22  116 17  22  102 17  24  94  18  28  88  22  34  85  24  39  83  25  40  82  25  42  82  25  40  82  26  39  83  25  37  83  26  35  82  27  33  83  26  33  89  27  38  88  26  37  84  27  34  82  27  32  83  26  32  83  26  32  83  28  34  86  26  36  89  21  32  98  10  22  132 16  29  185 45  56  212 51  59  215 40  45  222 44  44  223 44  40  227 44  38  213 51  38  194 78  53  255 210 175 255 227 182 248 236 186 243 237 189 248 237 191 245 220 179 177 148 108 255 231 188 250 227 183 250 236 189 248 234 187 250 227 183 254 227 184 177 150 103 234 210 164 254 233 190 248 231 188 251 235 186 253 231 182 255 222 178 142 86  49  115 45  20  235 173 148 255 230 195 252 233 190 255 234 190 255 233 189 251 232 192 255 226 195 210 129 108 126 37  19  161 95  71  255 221 188 254 234 184 248 237 183 247 235 187 251 234 191 251 232 190 245 203 165 128 47  17  152 73  43  255 223 188 255 237 197 248 237 192 248 240 193 249 237 189 255 233 193 215 157 133 125 65  41  255 220 188 255 235 194 254 238 189 250 240 187 247 240 188 247 236 190 252 234 198 255 226 198 255 211 191 148 61  44  150 26  14  171 31  18  216 80  64  205 95  72  252 189 154 255 230 192 255 234 197 254 236 198 252 240 202 255 237 199 255 228 194 197 133 106 133 33  17  147 54  36  252 209 175 255 241 200 248 236 198 251 242 203 248 239 198 255 247 206 255 230 190 255 230 192 255 226 190 255 223 187 255 227 189 255 240 202 254 239 198 253 241 201 249 242 200 247 234 192 255 228 190 223 166 136 124 32  11  154 59  39  250 183 157 255 224 188 254 247 203 244 246 199 255 242 203 255 238 201 255 239 205 255 237 203 255 241 207 255 237 202 255 240 204 255 234 202 230 172 148 133 45  31  151 27  25  154 21  22  140 25  18  181 98  80  255 228 196 251 239 201 254 241 206 255 244 209 252 243 204 255 236 204 191 123 102 128 30  19  146 29  22  211 109 97  255 222 195 255 239 205 255 236 205 255 231 201 255 230 198 255 213 184 255 183 166 148 50  37  152 54  43  255 171 159 247 159 147 207 124 110 192 104 90  176 88  74  153 64  50  137 43  31  133 32  20  137 29  19  146 27  19  153 26  19  155 20  14  151 13  3   161 25  13  202 69  50  226 91  71  225 89  67  235 94  74  235 94  76  229 87  73  190 50  37  161 24  14  154 20  11  157 23  14  162 25  15  166 28  17  175 33  21  189 41  31  189 46  30  216 81  62  233 101 78  232 96  74  236 94  72  235 86  66  242 89  73  242 90  76  238 93  76  229 94  75  222 89  70  222 87  68  231 94  76  238 97  80  232 91  74  232 91  81  228 94  83  214 93  76  216 101 82  213 96  78  220 99  82  224 94  80  220 88  75  203 77  63  211 93  79  188 80  67  192 90  76  159 55  46  165 62  55  156 63  55  154 57  48  188 77  70  204 91  83  119 18  8   148 59  45  112 29  15  108 18  9   192 78  78  202 86  87  114 12  10  140 45  41  139 39  39  110 12  11  115 24  21  143 48  46  125 10  15  160 35  39  189 64  60  174 42  37  215 76  69  204 63  53  194 58  42  205 74  54  203 77  54  219 90  68  204 73  53  196 75  54  175 77  50  135 62  27  121 72  31  105 64  20  148 99  58  139 88  45  116 72  25  126 75  32  159 88  56  150 86  58  88  62  27  48  54  10  47  79  29  70  107 55  91  114 62  101 115 64  95  105 52  82  93  37  83  103 42  92  121 57  84  125 59  70  118 58  56  103 61  52  97  64  58  98  63  64  98  63  47  74  41  17  40  11  72  90  66  83  101 75  1   23  0   0   24  0   11  43  0   69  107 30  
79  29  32  80  31  35  77  30  40  65  19  32  57  16  32  59  17  31  62  12  24  73  8   16  89  3   6   112 6   6   140 17  12  162 27  21  178 35  27  189 36  30  196 34  32  195 33  31  195 42  37  187 42  37  179 41  39  166 38  39  148 32  35  131 24  32  115 17  30  105 13  28  103 16  33  100 17  35  97  18  37  96  19  35  94  20  33  93  21  32  90  23  30  92  22  30  91  20  28  93  22  28  94  25  28  92  26  28  90  24  26  91  22  25  90  21  26  95  18  26  112 19  29  147 31  40  197 51  62  215 48  58  222 36  47  232 41  49  229 43  48  224 40  40  228 43  40  211 53  41  197 91  65  255 225 188 255 229 185 248 236 188 243 236 190 251 238 194 236 204 166 178 143 105 251 226 185 252 234 188 252 235 191 249 232 186 251 228 186 255 231 188 147 119 72  255 228 183 251 228 186 248 231 187 249 235 188 251 229 182 255 215 175 132 69  36  119 49  24  253 196 169 255 235 197 252 235 191 252 231 186 254 233 190 252 233 193 255 226 196 195 108 91  131 35  19  181 117 92  255 223 188 255 235 189 254 240 191 242 229 184 250 235 192 251 232 190 233 190 155 121 37  11  174 93  66  255 227 191 252 240 198 249 241 195 247 241 193 246 238 191 255 234 195 196 131 109 128 60  39  252 211 181 255 239 198 253 236 190 251 239 189 249 239 190 248 235 190 253 235 197 255 225 195 255 205 184 133 44  28  150 24  12  175 33  23  211 73  62  205 94  74  255 204 171 255 235 196 255 238 203 255 235 200 253 241 203 255 237 202 255 228 196 171 105 79  136 40  24  170 85  65  255 226 192 251 239 199 254 245 206 246 236 200 249 241 202 255 238 200 240 195 164 173 113 85  162 97  69  152 95  65  255 222 186 255 232 192 253 238 199 248 239 198 248 243 203 251 239 199 255 236 199 228 169 139 137 34  17  156 43  27  206 116 92  247 188 156 255 236 194 249 240 197 255 241 205 253 234 201 255 241 209 255 240 207 255 236 203 255 232 198 255 232 199 222 168 142 133 47  30  142 27  20  163 20  22  161 16  19  160 43  34  223 138 118 255 236 207 255 235 202 255 239 209 255 238 209 255 227 199 255 226 201 182 99  83  137 29  19  153 30  23  206 95  84  234 162 138 205 149 122 186 130 105 165 103 80  158 83  62  147 56  38  156 45  34  138 19  11  148 31  24  152 38  28  145 30  23  143 29  19  145 26  18  147 24  16  148 24  16  151 24  17  158 25  20  161 24  18  163 20  16  164 16  12  164 12  7   172 24  14  160 20  5   213 78  58  235 99  77  231 95  71  240 100 77  238 93  74  245 95  81  233 85  73  215 73  63  209 68  58  213 75  64  225 87  76  233 92  82  232 90  78  231 88  74  239 99  82  220 91  69  220 96  72  223 93  69  225 90  68  238 97  79  232 89  72  232 91  74  224 91  74  220 97  79  220 100 83  218 97  80  218 95  79  220 94  79  217 91  77  202 79  71  187 73  63  181 79  65  154 57  40  189 89  73  135 29  15  174 57  47  208 90  80  177 65  53  146 42  29  155 63  48  126 38  24  173 85  75  113 26  17  139 59  50  106 22  12  170 69  61  200 97  88  115 18  9   131 43  33  168 84  74  106 15  10  185 75  76  179 64  67  134 35  30  106 9   3   157 54  49  155 52  47  116 19  13  153 49  46  145 24  29  168 37  42  198 64  63  166 24  22  210 58  53  218 64  56  209 57  44  236 83  69  229 69  55  217 61  48  221 78  62  196 80  57  140 66  31  131 79  39  118 71  29  142 91  48  169 107 68  129 66  25  126 69  24  158 94  50  171 87  53  154 79  47  100 65  25  57  59  10  65  98  41  83  127 66  90  121 62  94  119 61  87  106 50  77  95  37  81  101 42  85  114 50  82  125 54  78  126 64  66  111 72  58  101 74  60  99  72  65  101 73  59  92  65  63  91  66  47  71  47  34  59  29  2   29  0   52  82  28  116 152 80  134 173 92  
78  25  31  78  29  35  70  27  36  56  19  27  48  16  27  51  19  30  56  18  31  57  14  24  64  14  23  70  13  19  75  10  14  81  6   10  99  10  14  126 23  27  155 35  44  180 41  48  196 36  36  206 34  32  204 34  34  202 36  36  203 40  41  200 41  45  193 40  45  182 37  44  162 25  33  151 24  33  137 20  28  126 16  25  115 14  20  108 16  21  106 17  23  105 18  24  106 17  21  103 17  18  103 18  21  104 20  20  103 17  18  107 15  16  125 21  22  146 27  29  184 49  53  202 49  52  219 49  52  227 47  50  228 42  45  228 39  43  225 42  46  227 44  46  228 40  41  208 51  44  212 122 95  255 224 185 255 230 189 249 236 192 247 233 194 253 229 193 224 181 149 177 134 102 253 234 192 247 236 190 252 235 192 255 236 193 251 228 187 237 213 169 142 115 68  255 231 182 255 232 187 250 229 184 248 237 191 254 231 189 255 202 172 123 51  26  130 63  37  255 213 182 255 236 196 252 237 194 250 231 188 255 238 196 255 236 196 255 221 189 164 73  55  137 40  24  202 142 116 255 227 193 255 231 192 251 229 188 254 239 196 252 237 196 255 236 198 197 151 118 124 39  18  203 125 102 255 231 191 249 243 195 251 245 195 246 240 192 250 246 201 255 230 196 179 102 84  133 50  34  253 206 176 255 231 191 255 237 194 254 237 193 252 235 192 253 236 193 255 237 198 255 227 193 242 181 153 130 37  19  149 18  8   189 45  37  209 68  61  195 85  70  255 218 185 255 239 199 255 233 199 255 237 204 249 239 203 255 235 202 255 218 193 160 89  69  114 28  13  214 142 120 255 233 200 255 244 204 253 239 202 249 239 203 244 240 203 255 235 205 204 125 108 132 26  13  140 37  20  152 71  44  255 225 188 255 235 192 254 239 200 251 242 203 247 243 205 248 238 202 255 233 200 228 166 141 143 29  18  171 38  29  217 101 78  216 125 94  241 185 150 255 231 196 255 238 209 255 237 213 255 238 214 255 234 210 255 236 208 255 231 202 228 166 141 127 38  20  149 28  19  162 23  20  165 17  17  177 38  35  215 102 86  246 155 134 255 214 190 255 205 185 245 179 163 234 162 150 215 135 126 204 111 103 156 45  38  150 29  20  146 19  10  205 83  70  173 63  46  139 36  17  127 24  7   150 40  27  144 25  17  155 28  22  155 21  18  159 24  20  147 14  7   205 72  63  195 63  51  157 25  12  155 23  8   158 26  11  159 26  11  160 27  12  173 37  23  184 47  31  192 52  37  204 63  46  217 76  58  227 86  66  228 89  68  233 97  73  235 96  73  232 93  70  237 98  77  233 92  72  239 96  80  232 90  76  231 91  76  237 97  84  231 91  78  236 95  85  230 89  79  232 94  81  227 94  77  229 102 83  220 98  77  221 100 79  184 65  45  210 90  73  218 101 84  207 91  76  209 97  83  175 67  55  196 94  82  171 73  62  137 40  31  135 41  31  150 56  46  147 53  45  129 35  33  174 86  82  125 45  38  146 68  58  184 104 93  106 19  10  171 74  67  207 106 98  193 95  86  113 19  9   131 48  34  130 51  36  161 82  69  108 29  16  167 87  76  149 63  50  110 15  0   201 100 82  126 22  9   181 72  65  196 82  81  142 22  23  164 36  37  167 39  36  182 61  50  171 54  36  172 53  33  195 74  53  197 74  56  198 68  55  200 57  51  212 62  61  211 57  59  221 58  61  216 44  44  221 49  45  224 64  50  212 50  35  231 54  44  229 57  47  218 66  53  182 70  46  125 72  32  117 79  34  142 74  39  188 110 74  170 96  57  134 65  23  133 64  22  187 112 70  187 99  61  161 86  47  103 66  24  76  74  26  86  111 56  86  124 63  90  125 59  75  106 39  59  88  22  90  116 55  93  118 60  91  123 60  78  124 51  75  125 56  62  101 56  34  69  37  67  104 73  67  106 79  60  98  73  58  96  71  55  94  63  64  102 63  95  133 82  127 166 103 132 172 99  111 152 73  
84  28  39  80  29  38  68  26  36  56  20  30  49  19  29  49  21  33  53  22  37  52  20  33  50  18  31  51  19  30  50  17  24  53  12  18  65  8   17  84  11  22  107 15  28  129 15  25  169 29  32  187 32  30  198 38  38  204 38  38  209 36  38  212 36  38  214 38  41  215 41  43  214 45  48  205 45  47  196 46  48  192 49  51  187 54  57  180 54  57  169 49  51  162 43  47  158 39  43  157 38  42  159 40  42  163 44  46  167 47  46  176 48  47  190 52  50  206 56  55  211 48  49  220 46  47  226 43  45  227 41  42  227 39  38  225 40  38  226 42  40  228 44  42  230 44  45  207 56  49  226 147 117 255 230 190 253 234 192 250 237 195 249 234 195 255 227 193 205 154 127 184 135 105 255 233 192 248 237 192 251 234 191 254 231 190 255 225 187 202 170 129 158 131 84  254 231 181 255 231 186 254 233 188 249 236 192 252 227 187 243 177 153 121 43  23  147 83  56  255 224 191 255 235 194 255 240 197 255 242 200 255 239 199 250 235 194 255 224 191 146 59  40  127 36  18  216 165 136 255 229 192 255 241 203 255 238 198 249 231 191 255 234 195 255 230 195 177 123 95  127 45  24  221 146 123 255 232 192 247 241 193 251 243 196 247 240 194 246 239 197 255 224 191 160 74  59  135 43  28  244 195 163 255 236 196 255 234 193 253 236 193 255 237 197 255 237 197 255 237 196 255 232 195 215 148 119 138 39  18  155 23  11  195 51  43  204 66  56  207 104 85  255 227 191 255 243 199 255 237 200 255 240 204 249 244 206 255 237 204 255 214 190 131 58  41  123 48  29  255 200 176 255 236 202 251 237 198 253 239 202 254 241 206 248 242 206 255 228 200 172 74  63  157 33  25  144 28  15  159 71  47  255 234 197 255 236 193 255 241 203 254 240 205 247 237 202 253 237 203 255 232 201 233 167 141 157 35  24  173 31  21  232 100 77  215 104 74  202 119 87  248 187 158 255 227 200 255 238 214 255 233 211 255 238 216 255 229 205 213 148 126 131 40  21  149 33  18  156 20  8   165 18  10  177 33  24  225 89  75  215 96  74  216 110 84  144 45  22  138 45  27  132 38  26  139 38  30  137 25  21  143 21  16  155 27  18  152 20  8   156 25  7   222 91  71  232 103 84  183 54  35  162 32  18  143 9   0   162 23  16  166 25  18  170 29  20  172 31  21  199 59  46  226 86  71  231 91  74  217 78  59  210 73  54  213 77  55  225 88  69  240 103 84  225 88  70  233 98  79  236 99  81  237 102 83  231 96  76  229 94  72  242 107 87  235 103 82  225 93  72  231 100 80  232 101 81  228 99  80  222 92  76  226 99  82  233 106 91  219 93  78  224 98  84  219 96  81  219 95  83  217 97  83  206 93  79  185 75  60  187 77  62  189 81  68  151 45  31  172 70  56  200 99  87  118 22  10  197 103 93  102 9   1   134 45  37  166 79  70  145 60  53  156 73  65  149 69  62  130 50  43  113 30  26  109 28  24  167 92  86  106 32  23  119 41  31  116 32  22  164 69  63  202 100 95  207 104 97  149 48  38  141 49  36  165 76  62  138 49  35  134 42  29  172 74  63  157 53  40  158 49  29  194 79  60  176 52  42  206 74  69  205 67  67  200 57  59  214 75  72  225 88  80  217 85  70  217 87  65  216 86  60  224 92  67  225 86  65  230 87  70  230 79  68  237 80  75  228 64  63  226 56  57  224 42  41  235 56  51  207 44  29  222 59  44  232 51  42  225 48  40  218 66  53  182 70  48  124 71  31  117 72  30  184 99  68  198 100 71  176 92  55  141 64  22  152 70  32  189 104 65  188 96  57  154 76  37  117 75  35  85  76  33  95  113 65  83  116 61  60  95  29  58  90  23  68  98  34  89  117 56  94  119 62  84  115 55  79  122 51  81  126 59  58  91  44  11  43  6   57  90  59  58  97  70  72  112 88  61  105 80  67  112 81  76  121 82  105 147 97  92  133 75  63  103 40  38  79  11  
83  25  40  75  21  35  63  16  32  55  14  30  50  16  32  50  19  34  51  18  35  51  18  35  51  20  35  52  22  34  52  22  30  55  20  26  64  17  25  78  17  25  97  17  28  104 17  26  98  9   11  115 19  20  140 30  31  164 38  39  186 41  44  201 40  45  210 37  39  212 33  36  219 36  38  222 40  39  221 43  41  219 45  44  216 44  44  213 45  45  212 46  48  213 48  54  215 50  57  212 45  53  211 44  51  216 47  50  218 48  48  216 47  44  218 46  44  221 47  46  223 47  49  224 45  48  223 43  46  226 42  42  227 42  39  231 44  37  233 45  34  233 46  37  225 46  41  200 58  46  245 174 142 255 233 191 254 237 194 250 238 196 251 237 198 255 232 197 176 120 95  198 142 115 255 232 194 253 236 192 253 236 192 255 231 190 255 227 192 164 120 83  188 159 115 255 233 186 255 232 188 255 236 193 252 235 192 255 224 189 218 147 125 120 42  22  167 107 79  255 232 197 255 234 193 254 237 194 255 231 194 255 236 199 248 239 200 236 210 175 111 39  17  117 41  18  247 207 172 255 242 199 241 233 187 249 238 193 255 244 202 255 226 189 255 218 189 151 85  61  128 47  28  250 179 157 255 238 203 252 237 196 250 237 195 252 240 198 255 244 202 255 220 184 145 54  36  131 36  18  234 185 152 255 238 195 255 239 196 253 238 195 255 240 199 255 237 197 255 233 192 255 229 193 193 119 92  144 37  19  161 24  14  214 72  62  205 78  61  226 137 107 255 233 187 249 241 192 255 238 197 254 236 196 245 244 200 253 241 203 255 205 179 121 50  30  145 83  60  255 225 197 255 234 201 255 242 205 249 236 201 255 243 205 255 241 205 255 217 188 148 52  36  144 27  17  136 30  14  200 120 95  255 226 190 255 241 202 255 233 199 255 235 204 255 233 203 255 238 207 255 225 192 232 157 128 165 42  24  166 25  7   233 98  76  227 106 79  224 119 90  209 122 94  250 181 152 255 204 176 240 183 156 230 164 140 199 117 96  138 39  20  152 35  17  148 21  2   156 24  3   177 42  20  235 101 76  239 105 76  234 104 72  227 100 67  206 87  55  148 34  7   136 24  2   147 30  12  155 28  13  164 28  14  158 17  0   173 31  9   169 29  4   234 96  68  228 92  66  225 91  66  212 77  57  217 82  62  215 80  58  229 95  70  227 93  66  238 104 77  230 96  69  234 98  72  231 95  69  237 101 75  238 102 78  240 104 80  232 97  75  235 100 81  237 101 85  230 97  82  232 96  82  226 92  80  235 105 91  219 92  77  225 99  85  213 90  75  225 103 88  215 97  83  208 95  79  206 94  80  195 88  72  209 106 91  155 53  39  185 88  72  165 69  55  125 32  17  171 79  64  139 49  38  174 87  80  94  6   2   144 56  52  152 64  60  126 38  34  184 97  90  162 74  70  105 18  11  166 79  72  135 48  41  103 16  9   147 60  51  159 72  63  129 42  33  174 87  78  126 37  29  186 96  87  137 47  38  151 63  53  164 76  64  128 36  23  134 33  21  157 46  37  190 71  63  217 94  86  205 82  74  193 75  65  215 97  87  200 82  72  210 87  79  224 95  89  225 88  80  218 74  65  210 62  52  222 69  63  231 76  72  229 71  70  245 90  88  238 86  81  233 89  80  230 90  75  227 92  73  221 86  66  223 88  68  224 84  67  229 88  71  228 80  68  228 74  64  221 60  52  224 55  48  232 50  46  226 47  40  235 73  60  220 60  46  210 42  33  218 54  45  217 69  57  191 72  52  137 58  25  154 81  46  203 102 74  208 98  71  182 90  53  149 61  23  180 87  54  198 101 69  201 103 68  171 89  52  125 75  40  93  75  39  92  104 64  61  88  43  41  70  16  56  84  26  86  110 52  96  117 61  95  115 64  78  103 48  84  119 55  86  122 61  54  83  37  15  45  9   42  73  42  41  77  49  44  82  59  60  102 78  62  105 78  71  114 84  60  102 66  60  101 59  55  96  52  57  96  51  
88  29  51  76  21  42  63  16  36  58  17  35  56  18  39  52  19  38  50  17  36  50  17  36  49  18  34  48  17  32  47  17  27  51  18  25  64  21  30  79  23  32  92  22  32  96  23  34  94  29  37  92  26  30  93  16  22  101 10  15  120 14  18  150 27  30  182 42  45  206 50  53  212 44  44  218 40  40  224 38  39  228 38  38  231 39  38  231 39  38  230 38  37  227 37  37  228 42  45  225 40  45  227 39  40  230 40  40  234 42  39  232 40  37  231 39  38  228 40  38  227 41  42  225 41  41  225 43  42  229 45  43  233 50  44  236 52  40  237 50  35  232 49  35  220 47  40  193 61  46  255 197 162 255 235 191 254 239 196 247 235 193 250 238 198 255 232 197 151 94  67  215 155 127 255 232 195 253 234 191 251 238 193 255 234 191 255 219 186 130 80  47  218 189 147 254 236 190 253 232 189 255 233 192 253 231 192 255 226 194 197 120 100 125 44  25  193 136 107 255 230 194 252 233 191 255 243 202 255 232 197 255 238 204 250 240 204 210 190 157 106 50  25  124 64  36  248 220 181 248 240 194 242 240 192 255 245 200 255 229 191 255 219 188 205 134 112 117 39  19  124 47  27  255 203 180 255 234 202 255 238 203 253 239 204 255 241 204 250 235 192 239 196 161 134 39  21  124 29  11  226 180 146 252 233 190 255 244 200 251 239 197 248 234 195 254 239 198 255 239 199 255 226 192 175 93  69  139 26  10  162 24  14  235 97  86  213 96  76  249 170 137 255 236 189 250 242 193 255 242 201 255 235 196 245 242 199 255 240 204 230 172 150 117 46  28  195 137 115 255 229 202 255 234 203 255 244 212 255 235 202 255 234 202 255 232 199 238 178 150 137 35  20  154 33  22  144 32  18  232 140 119 255 216 189 255 207 178 242 186 163 229 168 149 196 134 113 180 112 89  167 93  66  156 62  36  150 26  2   176 37  14  234 98  74  233 103 77  223 102 75  218 109 80  212 117 87  144 57  27  128 43  14  133 39  14  142 33  13  146 25  8   155 24  6   155 23  2   178 48  22  222 95  63  223 96  61  231 101 65  245 105 69  235 95  59  234 104 68  209 84  52  182 58  32  181 55  32  198 63  41  209 69  46  229 85  59  228 83  56  236 95  65  241 104 72  243 110 79  233 102 74  230 98  75  233 101 78  237 106 76  232 102 70  233 103 71  231 101 69  235 105 73  227 96  66  236 107 78  228 98  72  225 97  72  226 100 77  223 101 80  226 105 86  217 97  81  217 99  85  214 98  85  202 85  75  215 98  88  192 78  67  161 47  36  212 100 88  156 48  36  196 90  77  152 50  38  129 31  18  155 62  47  197 108 94  133 47  32  111 28  14  130 48  34  154 75  60  140 63  47  100 22  10  173 94  90  129 49  48  82  1   0   149 68  65  107 23  21  178 93  90  154 65  61  136 45  40  123 30  23  157 63  55  168 71  62  138 40  29  193 92  82  137 35  23  190 88  76  154 50  37  172 64  52  163 53  40  199 93  79  187 81  65  207 97  82  207 91  76  227 101 89  219 87  75  225 88  78  235 99  87  227 93  81  225 91  79  233 96  86  226 85  75  227 80  73  227 74  68  230 69  61  234 70  61  238 73  67  239 76  69  237 74  67  231 73  64  227 73  63  229 78  67  235 89  76  228 86  72  227 85  71  230 88  74  231 88  74  230 84  71  229 78  67  232 78  66  239 79  67  228 60  49  227 48  43  228 55  48  214 60  48  213 67  54  217 69  59  220 76  67  219 85  73  199 79  62  161 61  37  194 96  69  212 93  71  225 105 81  207 102 72  157 60  27  186 87  56  199 100 69  189 92  59  166 83  49  111 61  28  79  59  26  54  64  29  34  60  21  41  70  22  76  103 50  99  120 64  100 117 63  85  103 53  67  90  38  91  119 61  89  118 64  51  76  34  22  48  13  10  39  9   10  43  16  19  54  30  52  90  67  51  91  67  55  95  69  71  111 84  73  114 82  69  108 77  59  99  65  
96  42  68  86  33  59  74  29  52  72  30  52  69  31  56  63  28  52  59  24  48  59  24  46  57  22  44  53  20  37  52  20  33  59  23  33  70  27  37  80  27  37  88  22  34  89  18  32  86  17  35  90  23  40  87  27  39  76  19  26  69  10  16  75  9   11  97  15  17  122 19  22  172 43  48  197 44  49  218 45  49  229 43  46  232 38  38  233 36  30  237 40  32  238 48  36  221 43  31  218 44  33  222 44  34  226 43  35  231 42  36  233 41  36  234 40  38  235 41  39  232 40  37  229 40  36  229 42  37  231 47  39  235 51  41  235 53  40  233 51  38  224 51  37  214 51  42  197 74  58  255 210 176 255 236 193 254 241 197 242 233 190 247 235 195 252 223 189 132 72  46  228 167 139 255 231 194 249 235 190 245 241 193 249 235 190 240 190 157 113 58  27  238 210 170 253 236 193 251 232 190 252 230 191 255 229 192 255 227 198 176 95  76  126 40  23  219 159 131 255 236 200 253 235 195 255 243 201 255 235 201 255 237 205 255 243 212 234 215 183 236 199 170 249 213 179 251 236 195 250 246 199 245 243 195 254 235 192 255 231 198 209 135 110 137 44  27  115 26  10  140 74  50  255 223 195 255 228 199 255 240 208 255 243 211 251 238 203 254 236 196 224 178 144 137 42  24  135 40  22  218 172 138 253 236 193 255 243 203 247 240 198 254 245 206 255 241 204 255 235 200 255 222 191 153 65  45  147 26  15  164 26  16  213 81  68  192 87  66  252 183 152 255 236 196 252 239 197 255 240 207 255 236 206 255 240 207 255 232 203 215 150 132 128 52  38  255 194 175 255 230 207 255 225 200 255 226 201 255 235 209 255 227 202 255 207 183 203 121 100 146 28  18  153 18  12  173 39  30  208 80  69  153 41  27  149 41  29  143 26  19  151 29  26  146 24  19  150 32  22  144 31  13  142 26  3   153 25  0   174 40  13  240 104 78  236 102 73  231 100 70  232 105 73  223 102 71  226 107 75  168 50  22  145 25  0   146 19  0   158 27  9   155 22  3   169 39  17  235 107 80  227 102 70  236 114 77  232 104 65  240 98  60  240 96  59  235 101 64  233 104 72  230 105 75  232 104 77  234 100 75  240 102 76  240 101 72  240 103 71  235 102 71  228 101 68  220 97  66  223 102 75  224 102 79  224 99  77  227 97  73  238 106 81  228 96  71  227 97  71  231 103 76  218 94  68  207 85  61  216 100 77  217 107 84  161 56  35  208 109 90  157 64  47  134 46  32  131 48  34  155 76  63  130 46  35  199 105 93  135 37  24  196 98  85  205 109 95  130 34  20  130 37  22  160 68  55  118 29  15  118 30  16  192 106 93  158 75  61  136 54  42  90  11  0   200 121 108 128 49  36  111 29  18  142 53  49  158 67  66  150 56  56  159 64  62  113 16  10  166 64  59  160 55  49  197 88  81  166 54  43  191 74  64  219 101 89  215 93  78  217 91  77  223 96  81  219 92  75  222 92  76  227 94  79  227 91  77  228 96  81  220 90  74  220 88  73  230 97  80  221 81  66  241 98  82  233 87  72  233 90  74  229 89  72  234 94  77  229 89  74  235 92  76  240 92  80  238 84  72  233 75  64  235 75  63  218 58  44  223 66  49  232 77  59  220 67  49  232 81  64  237 87  72  232 82  68  235 84  73  240 89  82  241 90  83  240 87  79  235 81  71  238 82  70  241 83  71  236 74  59  235 67  56  235 61  54  230 62  59  210 69  60  194 70  60  209 91  81  197 83  72  208 94  83  196 83  69  192 74  60  213 90  75  219 86  71  218 87  69  214 95  71  171 63  35  195 96  67  199 106 75  177 89  51  156 84  44  124 76  40  85  65  30  45  56  22  46  74  36  42  73  29  92  122 70  96  117 61  98  117 61  65  85  32  51  75  23  88  115 64  88  114 67  39  61  23  40  61  30  37  60  32  26  52  25  21  53  29  15  49  25  38  73  49  60  98  73  61  99  74  63  102 75  69  108 81  75  114 87  
90  42  68  83  37  63  78  36  60  76  38  63  75  39  65  73  37  63  74  34  60  74  34  60  73  33  57  73  34  55  78  37  55  87  43  58  98  48  60  103 45  59  107 39  54  105 34  50  100 31  52  96  33  54  85  30  49  69  22  38  54  13  27  51  9   19  60  10  21  74  8   18  88  0   12  125 14  23  168 34  41  201 48  51  218 50  50  223 44  40  223 39  31  219 37  24  220 47  31  219 48  31  224 46  34  225 44  35  227 40  35  227 38  34  230 36  36  231 37  35  236 43  38  233 42  34  230 42  33  230 43  34  230 46  36  229 46  38  227 46  39  219 48  40  205 51  43  209 94  76  255 218 184 254 237 193 254 242 200 246 237 196 250 236 197 242 209 176 115 53  30  235 171 146 255 230 194 251 237 192 248 244 196 252 235 191 201 146 115 127 67  39  251 223 184 251 238 196 253 238 197 253 233 196 255 234 198 255 223 195 156 70  53  129 33  17  187 111 88  255 217 186 255 241 203 255 239 201 254 236 200 254 235 203 255 240 210 255 243 213 255 237 205 255 235 198 255 247 207 245 236 193 255 240 197 255 225 188 202 128 103 128 28  12  140 28  16  135 35  20  156 96  70  255 233 201 255 234 204 255 238 206 251 240 208 254 239 206 255 233 196 204 147 117 132 30  16  138 38  23  196 143 112 255 234 196 252 238 201 251 241 205 250 237 202 253 237 203 255 235 202 255 215 189 135 38  22  157 29  18  187 46  36  211 77  65  209 104 85  255 199 175 255 234 203 255 230 198 255 225 201 255 223 201 255 219 196 255 203 184 182 95  85  146 52  42  238 157 140 210 137 118 193 120 101 169 98  80  147 79  60  131 56  37  122 33  15  148 41  25  152 21  11  162 20  10  185 41  30  218 78  63  215 83  68  163 31  18  162 21  12  168 20  16  164 17  10  164 20  11  159 23  9   156 25  5   166 34  11  179 45  18  230 95  65  247 110 78  237 100 66  245 108 74  237 100 66  241 107 72  232 97  67  204 70  43  201 66  44  208 73  53  214 82  61  228 99  77  228 103 75  227 104 73  233 110 76  228 101 66  237 102 70  237 102 70  243 116 84  219 98  69  222 104 76  229 111 85  230 108 84  227 101 76  231 106 78  230 107 76  225 107 77  218 107 77  217 109 81  208 102 78  210 103 83  182 71  52  179 60  40  209 87  66  218 97  76  161 40  19  221 102 82  156 41  20  157 46  26  200 93  75  200 99  81  120 27  9   168 80  66  131 49  35  130 54  40  135 65  53  131 65  53  92  23  8   195 112 96  110 19  1   203 112 94  195 104 86  134 43  25  109 18  0   163 71  56  180 88  73  101 9   0   204 111 96  157 63  51  190 96  84  139 45  33  200 106 94  152 58  46  193 95  84  164 61  52  188 81  73  206 99  91  195 87  77  202 90  79  210 94  81  221 103 89  220 98  83  226 100 85  221 91  75  226 93  76  228 91  73  230 91  72  228 87  67  240 98  78  233 91  71  233 86  70  239 92  76  227 84  67  234 93  75  238 97  79  234 93  73  239 94  77  231 84  66  238 91  73  238 93  74  230 89  71  231 90  72  233 92  74  233 90  73  232 85  69  238 86  72  243 87  74  223 67  52  211 58  40  225 74  53  235 86  62  234 88  63  238 91  71  231 84  66  229 77  64  232 80  69  236 81  76  233 76  71  239 82  75  240 83  74  237 81  68  225 69  54  220 63  46  224 62  49  235 68  62  217 65  62  187 70  63  108 16  5   101 19  7   86  8   0   92  9   0   163 67  53  204 86  76  185 54  44  182 45  35  225 91  79  228 105 87  193 84  63  192 98  73  152 69  39  153 78  39  149 87  46  125 81  42  83  65  29  57  67  33  39  67  29  46  77  33  94  122 73  89  108 52  100 118 60  57  78  22  39  63  13  71  94  52  75  95  58  37  53  24  47  61  35  38  56  30  36  59  33  26  52  27  23  53  29  19  51  27  16  50  26  47  81  57  57  91  67  69  102 81  72  105 84  
74  36  61  72  37  61  72  37  61  72  38  63  74  38  64  77  38  65  80  37  64  83  37  65  82  34  60  87  38  60  99  45  68  111 54  73  120 57  76  125 54  72  127 50  68  124 49  69  123 59  76  110 51  71  97  39  63  86  32  56  84  31  59  83  34  63  79  35  60  75  31  54  75  30  50  75  21  35  86  14  25  113 22  29  153 38  41  186 52  53  208 56  55  217 52  50  216 43  37  222 43  38  225 43  40  226 42  42  227 41  42  230 42  43  231 43  42  232 45  40  231 44  37  230 44  32  229 43  31  227 43  31  226 42  34  226 41  38  225 41  43  218 46  46  197 53  45  223 120 101 255 224 190 251 238 194 250 243 201 251 242 203 255 233 199 226 185 155 110 42  21  239 173 149 255 231 195 255 238 196 255 242 198 255 228 190 164 97  71  157 91  67  255 230 196 250 238 198 255 242 203 253 238 199 255 237 199 255 214 182 142 51  33  141 29  17  150 40  27  225 137 117 255 206 177 255 239 204 255 244 208 254 241 207 251 234 206 252 237 208 249 239 204 255 247 211 251 237 200 255 233 198 255 227 194 207 137 111 141 38  21  156 34  23  154 26  17  140 34  18  173 118 88  255 230 193 255 239 205 255 237 205 253 240 208 255 242 211 255 228 200 189 113 90  139 28  19  145 38  28  197 129 108 255 236 207 255 238 206 254 239 206 255 240 207 255 237 206 255 230 201 252 186 164 146 36  23  154 17  7   205 57  47  235 93  81  225 107 95  245 148 132 213 132 113 188 113 94  171 92  77  156 73  59  142 52  41  140 37  28  145 26  20  145 20  14  158 40  30  145 32  18  140 27  13  147 34  20  142 29  15  147 29  15  153 29  17  154 22  9   155 13  0   166 23  6   221 83  57  234 103 73  221 98  65  209 89  55  179 51  22  190 56  31  204 62  42  217 72  55  225 84  66  231 92  73  233 97  75  235 101 74  242 108 73  238 102 62  248 110 71  235 97  58  243 105 66  245 107 70  240 106 71  234 101 68  238 104 75  237 105 80  234 106 79  232 106 81  229 105 79  232 108 80  221 97  69  237 116 89  228 109 85  218 106 84  209 104 82  211 111 88  208 112 90  190 94  72  174 74  51  170 65  44  216 111 89  179 77  54  157 63  38  145 55  31  141 54  34  170 84  67  154 66  54  129 37  26  177 79  66  214 112 98  203 101 87  122 20  6   202 99  84  153 51  36  143 41  27  203 103 88  206 110 96  165 73  60  106 18  6   154 70  59  120 42  30  155 81  68  130 60  48  107 31  15  188 102 79  137 43  18  163 69  44  172 76  52  164 65  42  152 52  29  161 59  37  195 90  69  194 85  65  215 104 85  215 99  84  217 99  85  217 97  83  222 100 87  222 100 87  224 101 86  218 95  77  227 105 82  218 96  73  231 106 84  220 94  71  227 98  76  227 97  73  224 92  69  236 101 79  233 97  73  233 93  68  233 91  67  234 90  66  241 97  71  231 87  61  235 91  67  242 97  76  231 86  67  238 96  76  232 91  71  229 90  69  226 87  64  233 92  72  236 96  73  228 88  65  234 94  71  231 92  71  225 86  65  241 102 81  233 92  72  227 85  65  238 91  73  234 84  67  227 76  57  233 86  66  240 95  74  230 90  65  229 89  66  226 84  62  229 84  65  238 88  74  237 85  74  237 83  73  234 77  68  243 86  77  241 87  75  235 83  69  221 71  54  222 71  54  206 54  41  215 63  58  215 85  83  114 31  23  65  13  0   55  18  2   43  7   0   47  0   0   101 34  17  181 78  69  190 69  60  173 49  37  192 69  54  190 73  56  199 96  77  188 103 83  118 48  22  128 68  31  145 96  53  122 84  45  85  65  28  63  70  36  46  68  30  79  104 62  101 125 75  101 114 58  124 135 77  81  100 45  50  72  26  47  63  34  47  61  38  38  48  24  47  57  33  55  67  45  62  76  53  28  46  22  56  78  55  37  61  37  19  44  22  23  48  27  32  60  38  52  79  60  62  89  70  
72  38  62  73  39  63  74  40  64  73  38  62  73  35  60  77  34  61  82  33  62  85  32  60  89  33  60  100 37  64  112 47  71  125 53  77  128 53  74  131 49  71  132 47  68  131 52  73  122 54  75  109 50  72  98  38  64  90  31  61  85  29  64  83  33  68  75  35  69  68  35  64  66  38  63  70  41  61  80  39  55  89  33  46  105 28  38  131 31  43  161 43  55  190 53  61  209 50  55  219 46  50  220 43  49  223 42  49  227 41  46  229 40  44  229 39  39  228 39  35  226 39  30  226 42  30  228 44  34  227 45  34  227 42  39  226 41  39  229 40  46  219 46  48  199 58  51  240 143 124 255 229 196 251 238 196 245 240 200 254 242 204 255 224 195 211 159 135 115 44  26  244 178 156 255 234 200 255 237 196 255 234 193 255 219 183 133 62  40  174 106 85  255 232 199 248 234 197 255 241 204 250 236 197 250 235 196 246 201 170 136 36  21  156 25  17  180 41  36  183 56  47  220 132 112 255 216 186 255 238 203 254 241 206 255 242 210 255 241 212 250 239 207 254 239 206 255 235 205 255 221 193 202 130 106 132 33  14  156 30  18  160 19  10  158 17  8   161 48  32  225 162 131 255 232 196 255 234 202 255 234 203 255 238 209 255 227 201 255 216 192 173 80  63  146 27  19  144 23  15  202 106 92  255 196 177 243 187 164 218 171 145 199 149 124 175 117 95  161 90  68  151 58  40  152 30  15  159 19  6   212 65  49  239 98  80  217 92  74  193 80  62  143 36  18  139 36  19  139 36  21  135 27  14  141 20  9   158 27  19  161 23  13  167 26  16  153 17  1   203 68  49  162 27  8   160 23  5   160 20  3   166 25  8   169 26  12  177 34  18  187 45  25  198 58  31  231 96  64  231 105 65  227 108 66  229 112 69  228 109 69  234 107 74  240 106 77  239 100 77  241 102 81  240 105 85  234 105 83  233 107 82  231 107 73  235 109 71  231 103 66  234 107 72  236 114 77  226 108 72  223 106 71  229 112 79  230 106 78  230 104 79  230 106 80  222 102 77  222 106 81  206 92  68  223 108 87  191 80  61  200 97  82  170 74  58  192 103 87  106 20  3   168 85  67  164 81  63  131 42  24  168 77  58  204 111 93  135 47  27  180 98  76  107 29  7   137 62  43  148 72  58  147 69  59  134 52  41  135 49  34  189 100 84  205 113 98  117 24  7   201 104 88  166 66  51  157 55  41  206 104 90  210 108 94  209 109 94  117 17  2   207 109 96  148 55  40  148 56  41  190 101 85  152 61  42  171 71  45  201 96  67  198 93  64  207 99  71  214 104 77  220 109 82  224 108 83  220 100 76  225 103 80  221 95  73  227 96  78  229 96  79  236 100 84  231 94  78  234 94  79  234 94  77  235 99  75  229 95  66  236 102 73  225 91  62  234 99  70  232 97  68  229 94  65  234 96  70  230 92  66  232 92  67  233 93  66  236 95  68  234 93  66  233 91  67  237 95  71  234 92  68  234 92  70  232 90  68  233 92  72  233 93  70  234 95  74  235 96  75  234 95  74  229 90  69  234 95  74  228 89  68  228 92  70  235 99  77  225 86  67  234 93  73  233 92  74  234 92  72  235 90  71  241 96  77  232 91  71  229 92  73  223 90  71  222 89  70  216 83  64  227 90  72  230 89  72  232 86  71  241 91  77  237 85  71  236 83  69  221 70  53  227 76  59  232 82  65  226 79  61  226 80  67  227 84  78  177 62  57  79  17  6   50  23  6   44  28  12  34  21  2   40  12  0   63  10  0   179 90  76  179 69  56  191 75  62  205 88  71  208 95  77  189 90  71  184 109 88  128 71  42  111 64  22  131 91  42  127 93  47  95  74  27  60  59  15  85  98  52  127 144 92  120 135 76  126 131 65  154 159 93  122 133 73  76  90  41  35  45  18  26  33  15  55  58  39  28  31  12  58  63  43  60  68  47  34  43  22  60  72  50  45  60  39  22  39  20  35  52  34  12  30  14  17  35  19  41  59  43  
74  39  61  77  39  62  79  39  63  80  38  62  80  34  60  82  32  57  88  32  59  92  32  58  107 41  68  123 50  77  128 50  76  128 44  70  136 48  73  138 48  73  137 45  68  134 50  73  123 50  77  104 41  68  90  30  58  86  29  61  84  33  64  80  35  68  75  35  69  73  38  70  71  38  67  72  38  65  76  36  62  84  34  59  91  31  56  100 28  52  110 27  53  128 26  50  176 44  65  198 45  63  208 43  57  222 46  57  225 38  45  235 41  42  235 37  36  235 40  36  234 42  37  228 41  34  225 42  36  226 44  40  228 44  42  226 41  39  229 39  41  221 47  46  190 53  47  255 169 153 255 231 203 255 237 201 245 237 200 255 241 207 255 226 203 184 121 103 119 46  29  243 181 158 255 238 202 253 235 195 255 235 198 229 184 153 109 41  20  201 136 114 255 227 195 255 242 205 255 238 200 255 239 201 255 235 198 217 166 135 142 30  18  166 16  15  206 36  39  209 46  47  192 64  53  221 133 113 255 223 191 255 245 209 247 239 202 251 243 207 255 240 211 255 231 207 255 223 201 200 124 108 139 37  23  151 27  17  155 14  5   167 18  11  188 40  30  197 71  56  255 175 147 255 226 193 255 225 197 255 218 192 255 202 177 244 180 155 237 152 131 155 49  33  151 24  15  158 21  15  193 56  50  167 38  32  139 25  14  142 34  22  143 35  23  141 27  16  148 26  13  153 23  9   161 24  6   161 22  0   222 84  56  239 106 75  228 103 71  233 112 81  208 87  58  155 35  8   140 22  0   153 31  7   164 29  9   174 33  13  181 39  17  198 58  33  203 68  39  238 103 73  216 77  48  219 78  48  224 79  52  216 70  45  212 68  44  233 91  67  230 92  63  221 86  54  223 91  53  229 102 61  233 110 68  231 112 69  227 109 69  229 111 73  233 108 76  231 103 76  231 105 80  229 109 84  223 113 86  219 114 85  217 112 83  220 114 88  220 111 88  206 104 81  189 103 78  164 87  59  168 93  64  157 71  44  166 60  38  209 92  72  223 106 86  187 78  57  157 61  39  149 58  39  163 67  55  160 66  56  177 87  78  97  13  2   184 106 93  115 39  25  98  25  8   161 84  68  154 71  55  153 67  50  197 110 93  137 52  32  162 81  60  110 33  13  141 65  49  129 53  39  157 77  68  143 61  49  137 52  31  177 89  65  203 111 86  139 43  19  153 53  30  173 67  45  161 50  30  183 68  47  221 104 84  224 103 84  223 102 83  225 102 84  226 103 85  225 104 85  225 104 83  225 105 81  227 103 77  228 103 75  228 103 75  230 102 75  230 102 75  231 101 75  232 100 75  234 100 75  235 99  75  236 97  74  237 97  74  238 96  74  239 94  73  239 94  73  241 94  74  240 96  72  237 96  69  236 96  69  236 96  69  235 95  68  234 96  70  233 95  69  233 95  69  233 94  71  233 94  71  230 94  70  230 94  72  230 94  72  230 94  72  231 94  75  231 94  75  230 93  74  232 93  74  232 93  72  233 92  74  233 92  72  232 93  74  232 93  74  230 93  74  230 93  74  231 94  75  228 91  72  234 95  76  232 93  74  231 90  73  232 91  73  231 90  73  232 91  73  234 93  75  227 88  69  226 90  74  228 98  84  220 94  82  222 100 89  211 89  76  221 98  83  222 95  78  226 93  74  229 90  69  230 88  64  230 81  59  234 82  61  222 67  49  212 59  41  222 75  55  236 95  77  226 88  78  172 64  54  101 48  32  91  70  49  36  23  4   44  32  10  61  33  12  80  29  8   168 85  67  170 67  50  184 74  57  210 98  78  203 94  73  179 85  60  142 77  49  125 79  43  94  58  8   129 97  40  120 86  25  100 74  13  101 91  30  82  82  18  146 152 82  168 171 94  172 167 85  202 197 115 160 162 87  105 109 50  47  47  13  31  29  8   52  49  30  60  57  38  58  55  36  55  54  34  39  41  20  42  45  26  54  58  41  31  38  22  31  39  26  28  36  25  40  48  37  18  26  15  
79  34  57  80  35  58  82  32  57  85  31  57  87  31  56  94  34  60  102 38  64  110 41  69  119 45  72  131 51  78  134 48  75  133 43  69  138 46  71  138 46  69  136 44  67  133 49  72  117 47  73  101 38  67  87  31  58  84  31  59  81  35  64  76  35  65  73  36  67  73  38  70  74  37  70  75  36  67  78  35  65  80  34  63  83  32  63  85  30  61  90  31  61  103 30  57  117 17  41  151 32  51  186 51  66  206 54  66  216 47  52  221 38  40  230 38  37  234 40  38  233 41  38  230 43  38  228 45  41  227 45  41  226 42  40  225 40  38  229 41  39  219 50  45  191 64  55  255 192 174 255 232 203 254 238 202 244 240 203 255 240 207 255 226 204 165 98  81  119 48  30  247 189 165 255 235 197 255 238 198 255 230 195 191 140 111 117 51  29  222 162 138 255 232 197 255 239 199 251 232 192 255 236 198 255 229 193 196 135 107 146 28  16  176 18  17  219 38  43  228 48  51  203 45  42  180 58  45  214 136 113 255 220 187 255 235 202 255 237 206 255 223 200 255 221 203 202 124 111 136 38  27  151 28  20  158 19  12  169 20  13  201 48  40  237 85  74  230 93  77  217 108 85  178 84  58  157 61  39  141 49  28  131 43  23  135 43  22  140 33  13  148 28  11  155 23  10  174 30  21  213 54  50  201 44  39  179 35  27  153 16  6   154 16  6   169 28  18  165 19  6   164 19  2   165 25  0   179 44  14  227 97  61  233 105 66  239 113 72  223 96  55  237 109 70  222 94  57  224 95  63  228 98  66  233 95  67  244 103 76  243 102 74  244 107 75  233 103 67  244 114 78  242 108 73  238 99  66  242 101 71  243 102 72  240 102 74  233 102 72  233 106 74  235 112 78  227 107 73  235 116 82  222 108 72  224 116 80  217 114 79  220 120 86  217 112 83  222 114 88  210 101 78  187 83  58  164 70  44  174 87  60  154 68  45  144 57  38  185 96  82  126 44  32  94  31  14  146 91  71  96  39  19  102 34  11  181 86  68  222 112 95  221 112 92  168 68  45  108 21  1   167 89  69  113 31  20  146 64  53  160 73  63  129 46  32  157 78  63  141 64  46  129 52  34  142 61  40  161 72  54  155 62  44  214 122 101 180 88  67  138 50  28  100 14  0   184 97  78  159 72  55  148 56  41  199 104 86  184 86  59  201 102 71  221 118 87  206 98  69  221 110 80  229 111 83  223 102 75  235 109 84  232 102 76  232 100 75  235 99  75  235 99  75  236 100 76  236 100 76  236 100 74  236 100 74  237 99  71  237 99  71  237 99  71  237 99  71  237 99  71  238 98  71  238 98  71  239 98  71  239 98  71  240 96  70  240 96  70  240 96  70  240 94  69  240 94  69  240 94  69  240 94  69  240 94  69  239 95  71  239 95  71  236 94  70  236 94  72  234 94  71  234 93  73  234 93  73  234 95  74  233 94  73  230 93  74  230 93  74  230 93  75  229 94  75  229 94  75  229 92  74  232 92  75  233 92  74  234 91  74  236 91  74  234 91  75  234 91  75  233 92  75  232 92  75  231 91  74  232 91  74  233 92  75  232 89  73  233 90  74  234 93  76  234 93  76  233 93  76  230 89  72  228 92  78  219 97  84  211 100 89  201 103 94  200 108 97  198 106 93  202 105 89  213 106 86  211 92  70  223 95  68  239 104 75  238 98  71  221 80  53  207 65  41  224 88  62  219 92  59  216 95  64  211 95  72  189 98  77  135 91  64  94  79  48  30  21  0   34  23  0   65  41  13  82  41  13  130 63  37  158 74  48  174 84  57  194 103 74  189 100 70  173 98  66  146 96  59  121 88  45  82  57  1   126 102 38  114 85  17  112 88  16  141 125 50  166 159 79  174 172 87  184 180 89  199 189 92  226 216 121 178 172 88  127 122 56  60  53  11  57  47  20  60  49  29  58  50  31  58  47  29  36  28  9   33  26  7   27  22  3   54  51  32  57  56  38  37  38  22  71  74  57  37  40  23  27  30  13  
107 47  72  106 46  71  108 44  70  110 41  69  112 42  68  115 45  71  123 50  77  128 54  79  129 49  76  135 51  77  137 47  73  137 43  69  138 46  71  136 47  69  131 46  67  129 52  72  106 43  64  93  38  61  83  34  56  79  35  58  76  38  63  72  38  63  70  37  66  73  38  68  74  37  68  75  34  66  78  33  64  82  33  63  83  32  63  82  32  61  82  32  59  86  32  55  92  32  44  108 35  44  137 47  56  158 47  53  190 57  62  205 52  54  220 50  51  221 41  40  226 41  38  230 43  38  232 45  40  229 44  39  227 44  38  229 46  40  230 47  41  212 56  44  194 88  72  255 217 192 255 234 200 255 246 207 248 250 211 248 238 203 255 221 197 140 75  57  110 43  24  255 214 187 255 236 197 255 239 197 255 226 194 136 79  52  113 45  24  255 202 175 255 236 197 255 241 198 255 236 195 255 241 203 255 224 191 187 111 87  155 31  19  167 12  8   213 41  39  222 44  44  216 42  41  210 53  48  196 70  56  234 129 110 249 161 139 231 149 128 210 122 108 183 89  79  132 28  19  142 23  15  158 25  16  160 18  8   194 48  35  200 52  38  227 75  61  224 74  59  204 64  47  170 37  20  164 28  14  153 21  8   149 23  9   150 23  8   158 22  6   162 25  7   154 19  0   173 30  13  212 50  37  222 60  47  223 78  61  186 49  30  193 58  38  209 70  51  221 79  57  235 95  70  229 99  65  239 113 73  233 110 68  233 111 64  234 106 59  236 105 59  239 108 66  239 107 68  236 99  65  244 109 77  239 106 75  234 103 73  238 103 74  229 100 68  234 116 80  221 105 68  231 106 74  236 109 77  238 109 80  231 106 76  226 105 76  230 115 86  216 108 79  192 91  61  187 87  63  197 101 77  156 64  43  150 65  45  162 85  65  105 33  11  126 49  29  148 67  48  112 27  7   184 99  79  105 29  5   175 103 79  124 52  37  152 82  70  122 51  45  94  29  23  116 61  54  107 54  46  96  40  27  118 51  34  148 61  42  207 108 87  210 110 86  154 58  33  114 33  6   156 82  57  117 44  27  155 76  61  152 59  42  156 59  40  126 34  11  165 73  48  193 99  74  190 92  65  212 106 82  189 79  54  223 112 85  220 110 83  219 111 82  198 93  64  210 105 76  219 109 84  225 111 87  228 110 84  227 107 73  226 102 66  227 100 65  237 109 74  239 109 75  233 100 67  236 101 69  236 99  67  240 101 70  239 100 69  239 100 69  239 100 71  240 101 72  239 101 72  238 100 71  238 100 71  238 99  70  238 99  70  238 99  70  238 99  70  238 98  71  238 98  71  238 98  71  238 98  71  238 98  71  237 97  70  237 97  70  237 97  70  236 96  69  236 96  69  236 96  69  236 96  71  239 94  75  240 93  77  240 93  77  238 93  76  238 93  76  235 92  75  235 92  75  235 92  75  235 92  75  234 91  74  233 90  73  232 91  73  233 92  74  233 92  74  233 92  74  232 91  74  234 91  75  237 89  75  239 89  75  240 88  75  241 87  77  240 88  77  237 89  77  236 90  77  233 87  74  237 91  78  237 89  77  236 88  76  238 90  76  236 90  75  229 88  71  228 86  72  230 86  75  225 94  84  205 101 90  185 109 96  175 123 109 172 133 116 174 131 114 173 116 97  163 82  61  209 107 84  220 98  74  216 87  58  219 92  60  212 92  58  210 100 63  206 107 65  197 110 57  195 114 59  188 107 60  168 105 61  132 101 55  91  80  34  49  42  0   46  39  0   69  54  13  87  62  21  131 89  49  167 115 75  178 120 80  179 122 79  181 127 81  182 138 91  169 138 94  149 128 81  142 129 74  147 133 70  158 140 68  163 144 67  197 182 99  200 190 101 204 201 104 224 221 118 229 221 114 219 210 105 193 184 91  171 162 87  86  74  26  68  55  23  57  42  19  62  47  28  70  53  35  47  32  13  44  29  10  26  13  0   44  33  11  72  65  39  80  76  47  56  55  24  69  69  35  119 119 85  
123 53  77  125 53  77  127 51  77  128 50  76  127 49  75  127 49  73  128 50  74  129 51  75  132 49  75  134 48  73  138 46  71  139 45  71  139 47  72  133 48  69  128 49  70  122 53  72  95  38  57  85  38  58  79  36  56  76  37  58  73  38  62  70  38  62  70  37  66  73  38  68  75  36  67  77  33  66  79  32  64  81  35  64  84  36  62  81  36  59  79  36  56  81  37  54  88  41  51  105 50  56  126 56  64  130 47  55  143 39  48  157 36  43  186 47  52  207 52  56  216 50  50  222 49  45  224 45  41  224 41  35  226 43  37  231 48  40  232 51  44  210 60  46  190 99  78  255 227 197 255 235 200 251 242 203 249 247 208 253 239 204 255 208 186 128 57  39  117 46  26  255 206 180 255 225 189 255 240 202 255 209 181 119 43  20  134 47  30  255 206 183 255 220 187 255 226 187 255 213 178 250 189 158 224 148 122 160 61  42  159 27  15  177 24  18  211 48  41  219 50  43  233 58  53  216 49  41  206 55  44  225 89  75  168 45  29  150 33  16  140 23  13  145 27  17  153 29  19  158 25  16  160 22  11  182 40  26  211 70  52  216 71  52  212 62  45  217 64  48  232 75  60  221 63  51  193 35  24  170 13  4   180 29  20  182 31  20  191 33  21  187 34  18  197 57  34  207 65  43  228 65  48  227 64  47  231 84  64  227 91  67  229 94  72  234 98  74  240 101 78  238 104 77  236 111 79  223 105 67  224 108 67  226 109 65  230 111 68  232 113 70  225 106 64  237 115 78  236 107 76  228 100 71  224 106 78  229 114 85  231 113 85  237 124 94  209 106 73  206 106 72  220 111 82  185 71  44  168 54  28  214 103 76  205 96  67  137 34  3   155 60  32  146 56  30  160 73  54  191 108 92  106 26  15  166 93  84  111 49  36  92  33  19  135 72  57  124 57  41  105 29  13  196 119 101 95  23  1   172 101 79  114 43  25  165 96  80  121 53  40  93  26  17  128 61  53  139 71  60  94  21  6   144 63  42  140 48  23  186 88  59  218 118 84  162 64  29  189 96  63  152 66  33  179 98  69  189 102 75  202 98  73  231 121 94  211 106 77  220 115 85  224 115 84  215 102 70  228 109 77  231 108 77  222 97  65  238 113 81  231 111 76  228 110 74  233 113 78  233 109 75  230 101 69  238 105 72  244 110 73  247 111 73  238 100 63  245 107 70  238 100 63  238 100 64  245 105 70  241 101 68  242 102 69  240 101 68  240 101 70  240 101 70  240 101 70  239 101 72  238 100 71  238 100 71  237 99  70  237 99  70  237 99  70  237 99  70  238 98  71  237 99  71  237 99  71  237 99  71  237 99  71  237 99  71  236 98  70  235 97  69  235 97  71  235 97  69  233 97  71  235 97  71  237 95  75  237 94  77  239 94  77  236 93  76  236 93  76  235 92  75  235 92  75  235 92  75  234 92  72  234 92  72  233 91  71  233 91  71  234 92  72  235 93  73  235 93  73  235 93  73  234 91  74  236 90  75  239 89  75  241 87  75  243 86  77  241 87  75  239 89  75  237 89  75  236 90  75  239 91  77  235 85  71  236 86  71  239 89  74  233 88  71  232 93  74  232 99  80  229 99  86  206 94  83  173 91  79  147 94  80  128 102 87  124 111 94  106 90  74  97  70  49  120 68  46  156 84  59  203 112 83  214 114 80  213 115 76  214 125 81  208 130 81  194 128 70  187 130 61  192 140 67  186 133 67  174 128 66  168 138 78  151 130 73  148 135 82  149 139 88  154 142 92  144 128 79  138 111 66  123 90  45  143 109 63  143 109 61  133 101 52  122 96  47  141 122 79  129 116 74  130 124 76  142 135 81  151 140 78  180 166 95  170 157 78  178 168 81  172 169 74  184 185 83  195 191 84  210 203 99  227 216 124 180 166 93  75  61  12  58  42  9   65  45  20  62  41  20  59  38  19  47  26  7   43  22  3   38  20  0   40  26  0   80  70  35  133 128 88  91  90  42  156 156 104 92  95  38  
127 47  72  130 47  73  133 47  74  133 47  74  133 47  74  131 47  71  128 49  71  127 48  70  131 49  72  132 47  70  137 45  70  138 46  71  137 47  72  132 50  72  124 51  71  112 51  67  84  37  53  76  39  56  75  38  56  73  38  58  73  38  62  72  36  62  72  35  66  75  35  69  78  34  67  78  33  64  79  34  63  80  36  61  79  37  57  76  37  55  73  40  51  81  39  49  94  34  46  119 51  64  130 59  75  123 50  67  104 27  45  107 23  39  128 30  43  155 41  51  185 54  59  200 54  54  214 52  50  217 45  41  220 41  36  226 43  37  230 45  42  208 57  46  211 130 103 255 234 200 255 239 202 254 234 197 255 243 204 255 242 208 249 187 164 124 41  23  141 54  35  255 193 171 255 222 192 255 191 162 212 121 102 141 33  20  162 41  33  197 80  70  168 73  51  146 56  30  143 38  19  145 32  16  156 34  21  157 25  13  166 19  11  179 26  18  212 62  48  210 57  43  218 58  44  239 82  65  224 79  60  228 89  68  210 73  54  193 58  39  155 23  8   158 26  13  160 22  9   160 23  7   195 60  40  232 97  75  230 94  70  226 86  63  229 84  63  226 73  55  236 74  59  238 70  59  228 60  51  214 50  41  217 59  50  211 48  41  223 49  42  225 54  44  216 69  49  225 80  59  234 73  55  236 73  56  216 67  47  218 79  58  225 88  69  241 109 88  231 100 80  231 106 84  226 106 82  220 106 79  231 120 90  224 117 83  215 115 79  214 117 82  208 114 80  204 106 77  191 87  62  177 72  51  180 86  61  146 56  30  139 47  22  189 99  72  184 101 71  126 43  13  212 122 95  123 29  3   198 104 79  214 116 91  220 119 89  165 66  35  149 59  32  149 65  41  127 46  29  184 104 93  103 26  20  103 32  26  135 72  63  85  25  14  118 54  42  142 70  56  109 30  15  197 114 96  119 39  16  189 108 81  131 44  16  160 73  43  166 82  54  141 55  30  185 89  67  192 90  68  197 87  62  198 87  57  205 99  60  223 118 73  221 113 67  230 119 73  225 108 65  232 119 75  218 111 69  234 126 87  232 113 79  235 112 78  234 116 80  224 106 68  232 113 73  240 116 78  235 106 67  238 104 67  247 113 76  238 104 67  228 99  60  238 111 70  236 107 67  235 104 62  244 106 67  244 105 66  233 95  58  244 108 70  239 103 65  239 103 65  235 98  62  244 107 71  235 101 66  238 103 71  238 103 71  238 103 71  237 102 72  237 102 72  237 102 72  237 102 73  237 102 73  236 101 72  232 101 71  232 101 71  232 101 71  232 101 71  234 100 71  234 100 71  234 100 73  234 100 73  235 99  73  235 99  73  234 98  72  233 97  71  235 96  73  235 97  71  235 96  73  235 96  73  235 96  73  233 97  75  235 96  75  234 95  74  234 95  74  233 94  73  233 94  71  233 94  71  234 94  71  233 93  70  233 93  68  233 93  68  233 93  68  234 94  69  234 94  69  232 93  70  229 94  72  229 94  74  234 91  74  237 90  74  239 89  75  239 89  74  236 91  74  234 91  74  235 93  73  239 94  75  236 89  69  244 95  75  241 96  75  228 88  63  224 93  65  215 97  71  203 106 87  170 92  79  145 86  72  130 88  76  114 90  78  118 106 94  90  80  68  88  76  60  96  76  52  110 80  52  189 149 113 202 155 111 188 141 89  207 158 100 191 145 85  197 157 87  190 157 76  186 156 70  182 149 68  189 151 76  194 149 82  163 122 60  174 145 87  186 167 111 193 180 128 138 124 77  75  54  11  70  47  5   68  45  3   73  52  7   75  57  11  67  52  9   51  36  5   43  31  5   44  37  11  33  28  0   48  40  1   146 139 87  153 143 82  152 145 73  150 151 71  141 145 58  132 136 42  128 124 33  138 122 44  98  78  15  69  50  8   75  56  26  76  55  28  65  41  17  74  47  26  68  41  22  54  29  9   46  24  0   42  26  0   70  62  16  109 106 51  156 159 92  164 171 94  154 163 82  
133 49  73  134 48  73  137 47  73  137 47  73  136 48  73  134 48  73  133 51  73  131 52  73  131 49  71  132 47  70  138 46  71  139 47  72  135 47  72  130 51  73  119 50  69  101 44  63  79  36  56  73  38  58  73  38  60  75  37  62  75  37  62  75  36  63  76  35  65  76  35  65  78  35  65  78  35  63  78  35  62  79  37  61  77  35  57  74  35  53  75  39  53  85  38  54  112 43  64  125 50  71  117 47  71  110 46  70  92  34  58  93  35  57  92  27  47  101 23  39  130 32  45  159 42  50  192 53  58  211 55  56  219 49  49  223 44  40  226 41  38  208 50  39  241 142 119 255 212 184 255 225 196 255 215 186 233 186 156 214 154 128 189 102 85  136 30  17  147 35  23  162 52  37  137 41  19  138 39  18  146 33  17  147 19  8   166 21  18  175 30  25  160 33  18  146 19  4   160 18  8   167 18  12  161 12  6   170 17  11  173 16  9   198 40  31  227 71  58  224 68  53  237 78  59  244 89  67  239 98  71  232 94  66  208 66  42  246 104 82  217 81  59  216 79  60  224 82  62  234 93  73  233 101 76  230 101 72  232 96  70  230 90  65  232 92  67  240 94  71  246 86  70  227 64  49  226 59  50  216 54  43  211 55  43  213 52  42  230 52  48  231 60  52  213 72  54  237 105 82  220 73  55  232 85  67  213 78  58  218 92  70  223 100 82  215 98  80  201 91  74  214 111 92  172 71  53  212 113 92  150 55  33  165 77  53  125 45  18  126 49  21  151 75  51  144 66  44  121 35  18  185 99  82  174 96  76  119 44  21  119 45  20  168 92  66  201 124 96  116 37  7   199 118 89  125 41  13  148 61  34  204 110 82  214 114 80  195 97  62  149 59  25  163 78  49  148 63  42  198 115 97  119 37  23  166 87  74  110 37  22  122 49  32  173 96  76  142 60  38  160 70  46  198 104 78  176 82  54  213 116 84  221 117 82  205 101 62  219 121 82  226 124 86  223 110 76  236 116 82  237 110 77  242 118 82  234 119 75  228 116 70  227 111 64  234 113 66  236 108 63  243 115 70  231 108 64  230 109 64  241 113 74  229 101 62  241 115 74  232 109 65  237 112 68  239 110 68  241 105 65  244 106 67  235 97  60  246 110 72  240 111 71  233 106 63  235 107 62  241 110 64  247 110 66  240 101 60  240 104 66  243 109 72  239 105 68  236 102 65  238 105 70  242 112 76  226 96  62  235 105 71  234 105 73  234 104 72  234 104 72  236 103 72  237 102 72  237 102 72  237 102 73  235 101 72  232 101 71  231 102 70  232 101 71  232 101 71  232 101 71  232 101 71  234 100 71  234 100 73  235 99  73  235 99  73  234 98  72  235 96  73  235 96  73  234 95  72  234 95  72  234 95  72  235 97  71  233 97  71  233 97  71  232 96  70  234 96  70  233 95  69  233 95  69  233 95  69  234 96  70  233 95  69  233 93  68  233 93  68  233 93  68  233 93  68  233 93  70  231 92  69  227 95  70  227 95  70  233 92  72  236 91  72  239 89  72  237 90  72  233 93  70  230 94  70  229 95  68  228 94  67  223 88  59  230 95  65  226 97  65  220 98  61  221 109 69  198 106 69  165 101 74  137 92  73  126 91  72  124 96  82  120 102 90  127 117 107 118 111 101 125 121 109 136 129 111 151 141 116 148 134 99  141 124 80  155 134 79  187 163 101 185 161 91  190 167 89  185 168 80  184 167 75  189 168 77  199 164 82  202 142 72  166 105 42  192 152 90  221 199 141 162 149 97  82  71  25  71  53  15  64  44  11  69  50  17  70  54  18  154 138 102 97  83  48  120 104 78  46  31  12  40  28  14  29  20  3   19  12  0   113 105 66  172 162 109 163 155 92  152 154 81  144 151 71  141 147 59  126 124 39  132 114 38  138 112 51  151 126 85  105 80  49  142 117 86  81  54  25  83  55  31  80  52  30  83  55  34  83  59  33  94  78  42  94  86  37  123 123 59  110 117 40  123 135 49  123 136 44  
133 51  73  133 49  72  135 47  71  135 45  70  134 46  70  131 47  70  128 49  70  127 50  70  129 50  71  131 47  70  138 48  74  138 45  72  133 44  72  131 51  76  119 50  71  95  37  61  83  34  64  79  35  70  78  34  67  78  33  64  79  34  63  79  36  63  79  37  61  76  37  58  75  37  58  75  37  58  77  37  61  77  37  61  78  34  61  78  32  60  84  35  65  96  37  69  122 47  80  128 51  83  116 49  80  98  42  71  80  34  62  78  35  62  78  35  62  84  32  55  89  21  44  115 28  47  150 39  56  184 50  61  207 52  58  220 48  48  226 41  38  217 44  37  221 85  73  186 70  57  149 37  25  142 34  22  136 34  20  143 35  23  152 25  19  159 20  17  161 18  12  171 30  21  166 36  23  152 26  12  158 28  15  160 19  10  174 11  12  198 34  33  190 39  30  174 23  12  183 20  15  189 24  22  185 26  22  194 35  31  196 31  27  214 45  38  231 57  48  240 63  53  245 69  54  252 90  69  240 101 70  236 106 72  243 104 73  231 92  63  225 94  64  242 108 79  245 101 75  239 98  71  237 108 76  236 109 76  238 100 71  233 92  65  232 94  66  219 81  55  221 74  54  209 60  40  223 71  57  232 85  69  225 84  67  222 76  63  223 60  55  214 60  52  187 66  47  195 87  61  214 95  73  210 94  71  139 33  9   142 43  20  174 79  59  131 45  28  146 73  56  128 59  43  100 28  14  151 79  65  94  28  12  135 74  56  85  24  6   127 64  47  98  32  16  124 56  43  104 34  22  137 65  53  177 104 89  95  24  4   91  27  0   187 118 89  200 116 88  117 30  0   203 119 85  150 64  29  157 62  30  198 95  62  223 116 74  194 89  44  157 60  17  195 102 61  150 56  20  177 83  49  194 97  65  214 115 84  202 105 73  221 123 88  218 115 80  230 124 85  227 118 79  228 115 75  240 127 87  227 111 70  238 120 80  231 114 71  235 122 78  224 111 67  230 113 69  233 112 69  241 115 75  237 113 75  230 111 71  237 117 80  233 109 73  241 113 76  243 110 75  240 106 69  245 116 77  237 110 69  244 117 76  231 105 64  236 113 69  237 114 70  237 112 68  234 107 64  241 108 67  239 105 67  243 109 72  236 107 68  229 106 65  226 107 65  232 113 70  236 113 69  236 108 63  239 108 66  240 107 72  238 105 72  231 101 67  232 102 68  235 107 72  237 110 75  230 103 68  235 111 75  232 105 70  232 105 70  232 104 69  234 104 70  236 103 68  238 104 69  239 102 68  237 102 70  235 100 68  235 100 68  235 100 70  235 100 70  235 100 70  235 100 70  237 99  70  237 99  71  237 99  71  237 99  71  236 98  70  236 96  71  236 96  71  235 95  70  235 95  70  235 95  70  237 96  69  237 96  68  237 96  69  236 95  68  236 95  68  235 93  69  235 93  69  235 93  69  233 91  69  232 91  71  232 90  70  232 90  70  233 90  73  234 91  74  234 91  75  233 92  74  230 94  70  232 94  68  236 92  68  239 90  68  239 90  68  236 92  68  229 95  66  223 98  66  222 102 67  220 104 67  214 98  59  215 106 63  214 114 65  222 132 79  228 152 94  189 134 80  129 103 66  112 102 75  105 97  74  106 99  80  112 106 92  104 97  87  116 109 101 114 107 99  102 92  83  96  84  68  109 95  69  158 144 107 160 144 93  183 167 105 196 179 107 183 168 87  178 167 77  183 170 76  186 171 78  192 156 70  199 122 54  176 96  35  203 153 92  232 206 149 106 92  43  62  53  12  50  31  1   75  53  30  82  61  40  146 126 102 150 130 106 74  52  28  158 132 107 108 83  61  43  21  8   47  31  18  59  49  24  169 161 124 225 212 160 206 196 134 161 161 89  151 156 74  156 162 72  163 159 70  161 136 56  175 142 73  218 187 133 208 179 137 161 131 93  65  36  2   78  48  20  116 86  62  126 98  76  130 106 80  133 117 83  91  83  36  121 123 60  122 133 57  117 132 47  112 131 39  
132 48  71  132 48  71  135 47  71  136 48  72  134 49  72  133 49  72  129 50  71  128 49  70  130 48  70  131 47  70  138 48  74  135 45  71  130 44  71  131 53  77  120 51  72  94  34  59  84  35  67  79  35  71  79  33  69  78  33  64  79  34  63  80  36  63  80  36  61  78  36  58  76  37  56  76  39  57  77  39  62  79  37  61  81  32  61  85  31  63  95  35  71  107 39  76  128 48  87  125 48  84  113 49  83  85  34  65  74  33  63  67  32  62  73  40  67  74  38  64  86  38  64  91  27  53  106 22  46  137 31  51  173 45  58  200 51  57  218 48  49  220 48  46  206 48  45  189 40  34  167 18  14  164 19  14  158 19  12  164 22  18  168 14  14  179 16  17  178 12  12  194 31  26  219 61  52  189 35  25  177 26  15  186 32  24  205 35  35  217 45  45  221 56  50  213 49  40  220 45  42  219 44  41  216 48  45  218 53  49  217 48  43  220 47  41  224 45  40  219 40  33  227 53  42  237 78  59  226 90  64  216 88  59  227 91  65  233 99  72  235 110 82  220 95  67  238 102 78  237 103 78  220 99  70  225 106 76  230 104 79  231 105 80  225 107 81  194 75  51  211 89  68  203 78  60  185 59  44  181 60  43  174 57  39  163 41  26  193 56  48  220 89  79  185 82  63  124 32  7   211 115 91  209 113 89  107 19  0   175 90  69  112 31  10  99  26  7   173 110 92  95  36  18  120 54  38  86  23  8   115 53  38  115 54  36  98  33  13  142 74  53  159 88  70  102 29  12  132 56  40  164 87  69  179 98  77  114 37  11  149 76  44  150 72  36  215 122 88  154 56  21  164 71  30  197 101 61  185 81  42  219 110 69  230 118 70  229 117 67  226 120 70  227 122 74  223 118 71  226 121 76  226 117 76  230 119 76  230 119 76  231 118 74  229 114 69  234 118 71  237 116 69  240 118 71  230 108 61  238 115 71  235 110 66  239 116 72  231 110 63  239 118 71  235 115 65  242 120 73  239 114 70  237 111 70  234 110 72  238 114 78  237 110 77  237 107 73  240 107 74  242 108 73  239 107 69  244 115 75  242 115 74  236 111 67  236 113 69  236 113 69  233 108 62  239 112 69  242 111 69  239 107 68  238 109 70  237 111 71  235 113 72  231 112 70  228 109 66  232 111 66  229 104 60  237 110 69  234 106 69  234 106 71  233 104 72  236 108 73  233 104 72  232 104 69  233 106 71  228 104 68  229 105 69  231 104 69  232 104 67  233 103 67  236 103 68  238 104 69  239 102 68  239 102 68  237 100 68  237 100 68  237 100 68  237 100 68  237 99  70  237 99  70  238 99  70  238 99  70  238 98  71  238 98  71  237 97  70  236 96  69  236 96  71  235 95  70  235 95  70  235 95  68  235 97  68  236 97  68  237 96  68  238 94  68  239 93  68  238 92  67  238 92  69  237 93  69  232 87  68  231 86  67  232 87  68  231 88  71  233 90  73  233 92  74  233 94  75  231 95  73  230 94  70  230 94  68  233 93  66  233 94  65  230 95  63  225 99  61  218 103 58  212 106 56  212 112 60  225 132 75  233 147 86  242 164 98  234 167 96  231 173 99  213 163 90  144 111 44  117 106 52  112 113 69  107 107 69  112 111 80  134 132 109 112 106 90  140 134 122 123 114 105 135 123 111 87  74  58  207 192 169 243 229 194 112 99  47  158 147 83  230 217 147 243 232 153 196 184 100 189 175 86  189 173 85  205 170 88  219 151 80  200 126 65  212 166 107 232 204 154 101 86  43  63  50  16  70  50  25  114 92  71  217 196 177 199 178 159 84  62  39  74  50  26  94  68  41  179 153 130 106 83  69  32  13  0   31  18  0   33  22  0   115 100 57  212 202 143 188 186 112 159 161 77  146 150 56  184 178 84  202 178 92  193 160 83  183 149 86  176 145 91  130 102 55  53  25  0   91  62  28  147 118 88  106 79  52  96  72  44  110 92  56  76  68  21  133 133 71  131 139 64  131 145 60  127 143 54  
133 48  71  132 47  70  131 46  69  132 47  70  133 48  71  133 48  71  133 48  71  133 48  71  134 48  73  136 48  73  130 44  69  135 51  75  130 51  73  124 49  70  121 52  71  97  38  60  80  32  58  76  35  65  80  41  70  73  34  61  79  39  66  76  33  61  78  34  61  77  33  60  76  34  58  76  34  58  78  36  60  80  36  61  82  32  57  89  30  58  108 39  70  127 50  84  133 49  83  125 50  83  98  41  74  77  33  66  76  36  70  74  39  69  69  36  63  69  35  59  74  32  56  88  38  63  92  32  58  92  20  44  116 31  50  166 58  73  204 64  77  209 52  59  209 46  47  216 51  47  210 41  36  175 11  2   190 32  21  190 29  21  199 29  29  212 38  39  217 41  41  220 41  37  230 46  38  227 43  33  225 51  40  220 49  39  223 54  49  227 58  55  225 54  47  229 55  48  227 48  44  225 46  42  228 53  50  221 48  44  215 43  39  219 50  45  216 49  43  213 51  46  205 51  43  203 56  46  202 68  56  213 83  69  204 74  61  207 81  67  191 73  59  202 86  73  204 84  70  183 63  49  200 87  71  184 79  60  167 68  49  182 89  71  152 65  46  146 60  43  127 39  25  157 69  57  139 51  39  162 76  63  148 66  52  114 28  13  188 92  78  209 112 96  160 73  54  109 27  6   183 98  78  198 113 92  119 37  15  182 102 79  109 29  6   112 34  11  186 110 86  108 32  8   151 73  50  139 61  38  153 73  50  137 53  27  139 48  17  170 73  40  208 111 78  184 85  53  188 90  55  174 74  40  204 102 64  207 105 65  221 120 78  222 119 76  226 118 72  229 118 72  227 119 72  229 119 70  230 118 70  233 119 69  235 118 65  235 118 64  234 119 65  233 119 65  233 119 67  233 119 67  234 118 69  234 118 69  234 118 69  234 118 69  235 117 71  235 117 69  235 117 69  237 116 69  237 116 71  237 116 71  238 115 71  238 116 69  238 116 69  238 116 69  238 116 69  237 115 68  239 114 70  239 114 70  239 113 72  239 113 72  240 112 73  240 112 73  241 112 73  241 112 73  241 112 73  240 113 72  240 113 72  238 113 69  238 113 69  238 113 69  239 112 69  238 111 68  238 109 67  237 108 66  237 110 69  237 110 69  237 110 69  236 110 69  235 110 66  236 109 66  236 109 66  235 108 67  234 106 69  234 108 70  237 110 75  231 103 66  239 104 72  244 107 73  236 103 68  233 105 68  233 107 69  235 107 70  238 108 72  238 105 70  232 102 66  236 103 70  241 102 71  238 99  68  237 102 70  236 101 69  236 101 69  237 102 70  236 101 71  234 99  69  236 98  69  239 101 72  237 99  70  237 99  70  237 99  70  237 99  70  235 97  69  234 96  68  233 95  67  232 97  68  230 101 72  228 97  69  231 93  67  240 94  69  245 95  71  243 91  68  235 84  63  230 81  59  229 82  64  232 85  67  234 87  69  235 90  69  233 93  70  230 94  68  227 96  66  228 99  68  229 97  72  229 97  72  225 98  66  217 99  59  212 108 57  216 123 62  226 144 71  234 158 80  239 168 88  233 171 86  227 176 84  226 186 90  211 182 80  218 192 95  170 140 54  153 126 47  152 135 57  166 154 82  155 145 84  160 150 101 236 228 191 130 123 94  200 192 169 236 225 205 176 166 141 154 143 115 251 236 207 228 213 174 162 150 90  174 161 93  213 197 135 249 233 171 228 211 139 190 172 96  197 178 101 200 174 97  205 167 92  216 175 109 191 160 106 176 151 111 224 203 174 201 183 159 211 191 166 232 212 187 203 185 161 104 84  59  67  46  15  68  48  15  61  40  11  187 167 142 213 195 175 69  52  36  33  17  1   33  18  0   61  45  19  197 184 139 204 198 122 165 162 69  181 175 77  220 210 112 235 216 122 216 191 107 187 159 86  174 146 83  104 82  25  84  62  12  119 95  51  163 140 99  98  74  40  96  73  39  84  67  24  81  71  20  138 134 71  148 150 77  139 147 64  140 150 63  
135 47  71  136 48  72  134 49  72  134 49  72  133 48  71  132 47  70  134 46  70  135 47  71  138 48  74  136 48  73  129 43  68  128 46  69  130 52  74  131 58  78  121 52  71  94  35  55  83  38  59  70  35  57  66  32  56  71  39  62  72  38  62  70  35  59  85  45  71  79  36  63  82  40  64  81  41  65  77  39  60  75  33  55  83  35  57  99  44  67  117 48  76  125 49  77  128 48  77  117 44  74  90  40  69  76  35  65  76  35  67  75  36  67  75  40  64  79  44  66  78  40  63  75  33  57  76  32  59  86  36  61  90  35  56  105 31  48  146 38  54  188 54  65  221 65  68  233 65  62  230 57  51  226 52  45  217 49  38  212 44  35  222 47  44  220 42  42  216 42  41  229 51  47  230 41  37  231 43  34  233 55  45  226 55  47  223 58  54  209 47  44  232 73  69  208 49  43  227 65  62  212 50  47  206 44  41  209 50  46  207 49  46  201 49  46  196 51  48  189 50  45  175 43  38  164 39  33  182 60  55  147 29  25  143 28  25  160 49  42  125 21  12  175 73  61  195 88  78  136 30  17  185 81  68  208 112 96  101 16  0   149 72  52  136 65  45  149 78  60  130 57  42  141 65  51  122 44  31  161 85  71  170 97  80  155 78  58  111 25  2   211 121 97  148 60  36  131 43  19  127 40  13  202 115 88  134 47  19  141 54  26  158 69  39  185 96  64  152 61  30  186 93  60  195 102 69  202 108 74  227 130 98  200 100 66  219 111 72  226 115 72  236 125 82  225 114 71  235 122 78  228 115 71  236 124 78  233 118 71  231 116 69  233 117 68  233 117 66  234 117 64  234 117 64  235 118 64  235 118 65  237 117 64  237 118 62  237 118 62  237 118 62  237 118 62  237 117 64  237 117 64  237 117 65  237 117 65  237 117 67  237 117 67  235 117 69  235 117 69  235 117 69  235 117 69  235 117 71  235 117 71  237 116 71  238 116 69  238 115 71  238 116 69  238 115 71  238 115 71  239 114 70  239 114 70  240 114 73  240 114 73  240 113 72  240 113 72  240 112 73  240 112 73  240 112 73  240 112 73  239 113 72  238 113 69  239 112 71  239 112 69  239 112 71  238 111 68  237 110 67  237 110 67  238 111 68  238 111 68  238 109 67  238 109 67  237 108 66  237 108 66  237 108 66  236 109 68  236 108 69  231 105 67  235 109 71  236 106 70  243 104 71  247 107 74  240 103 67  236 104 66  235 107 70  233 105 68  238 105 70  238 105 70  232 104 69  234 104 70  241 102 73  238 97  69  238 103 71  235 102 69  236 101 69  237 102 70  237 102 72  234 99  69  236 98  69  237 99  70  238 100 71  237 99  70  235 97  68  235 97  68  235 97  69  236 98  70  236 98  70  234 99  70  226 97  68  232 101 73  238 96  72  241 91  67  241 85  63  234 78  56  224 72  49  220 71  49  223 76  56  235 90  69  240 95  74  234 94  69  229 95  66  225 98  63  217 99  59  215 102 60  214 101 61  218 109 66  227 126 74  234 144 84  235 161 90  237 172 90  234 178 85  232 180 81  232 180 79  227 183 78  218 186 75  212 191 76  203 191 73  199 186 74  219 195 97  214 188 95  211 188 92  204 184 95  199 181 107 222 208 147 245 233 183 169 160 119 207 197 162 245 235 200 204 192 154 237 225 185 236 220 184 206 189 143 218 203 134 194 180 105 182 166 104 255 236 177 234 213 146 194 171 101 190 167 97  200 176 104 202 179 103 142 117 50  127 100 53  80  54  21  139 112 91  194 172 151 186 166 141 144 124 97  80  60  36  71  51  26  60  41  9   65  46  14  50  30  5   62  44  22  193 174 157 222 205 189 132 114 100 77  59  45  86  69  51  224 210 173 190 182 109 172 166 72  192 182 84  227 215 115 231 215 120 221 201 114 183 157 80  173 149 77  146 126 63  139 120 62  139 118 65  150 128 81  140 119 76  127 108 65  144 127 81  141 130 76  154 149 85  160 158 84  148 152 68  146 152 64  
132 47  70  134 49  72  135 50  73  134 49  72  133 48  71  132 47  70  134 46  70  135 47  71  132 42  68  135 47  72  137 51  76  133 49  73  129 50  72  124 49  70  117 45  65  109 50  68  78  37  55  77  49  64  76  49  64  67  43  57  62  35  52  64  35  53  63  30  49  62  29  48  66  33  52  66  35  51  63  35  49  69  37  52  85  47  62  104 57  75  116 57  79  116 51  73  121 52  73  105 41  65  86  38  62  81  38  65  80  35  64  78  32  60  77  33  58  76  34  56  76  37  58  73  34  55  77  37  61  82  42  66  77  38  56  80  30  42  107 31  43  143 39  46  201 67  68  225 70  68  214 49  45  232 61  54  222 54  45  219 51  42  225 51  50  219 47  47  209 45  44  212 50  48  212 43  40  211 42  37  216 53  48  208 51  46  206 52  52  208 64  64  183 55  52  190 68  63  188 64  62  161 36  34  156 31  29  152 27  25  180 56  56  126 4   3   155 39  39  159 50  47  105 1   0   134 34  32  128 33  31  108 14  12  130 39  38  124 35  29  90  4   0   158 71  52  199 106 88  125 30  10  174 82  61  156 68  44  142 62  35  106 30  4   160 86  61  142 66  42  137 55  33  159 72  52  125 34  13  154 63  42  175 87  63  160 66  38  155 52  17  222 114 76  184 78  39  215 109 70  189 83  43  232 126 86  208 102 60  219 113 71  223 117 75  225 118 74  225 118 74  228 120 74  229 118 73  226 115 69  231 118 74  233 121 75  235 123 77  229 117 71  226 114 68  229 117 71  233 118 71  233 118 71  230 116 66  231 115 64  233 117 66  234 117 64  234 117 64  237 117 64  237 117 64  237 118 62  237 117 64  237 118 62  237 118 62  237 118 62  237 117 64  237 117 64  237 117 65  237 117 65  237 117 65  237 117 65  235 117 67  235 117 69  235 117 69  235 117 69  235 117 71  236 118 72  236 117 74  236 117 74  237 116 73  237 116 71  237 116 73  237 116 71  237 116 73  237 116 73  238 115 73  237 114 72  240 114 74  240 114 74  240 114 74  240 114 74  239 113 75  239 113 75  240 112 75  240 112 75  239 113 73  238 112 71  238 112 72  238 112 71  238 112 72  238 112 71  237 111 70  236 110 69  238 111 70  238 111 70  238 111 70  237 110 69  237 110 69  237 110 69  236 109 68  236 109 68  236 108 69  232 106 68  235 109 69  232 103 64  234 94  59  247 104 70  244 106 70  237 103 66  237 108 69  233 104 65  236 103 68  238 105 70  233 105 70  234 104 70  241 102 71  239 98  68  240 103 71  237 102 70  236 101 69  237 102 70  237 102 72  236 101 71  237 99  70  237 99  70  238 100 71  237 99  70  235 97  68  235 97  68  236 98  70  237 99  71  237 99  71  236 98  70  232 92  65  244 100 73  245 93  69  239 80  58  233 71  50  224 64  42  216 62  38  219 70  46  234 93  66  235 97  69  229 94  65  225 96  64  225 105 68  222 111 66  223 121 72  230 139 82  236 156 85  231 160 80  230 164 80  226 169 80  221 175 81  218 179 78  218 181 74  219 181 70  222 181 67  224 185 68  215 185 65  212 187 68  208 189 69  225 204 87  204 172 61  221 188 81  213 189 81  206 186 87  208 190 106 244 227 155 236 222 161 196 185 131 225 213 165 243 233 184 211 199 147 248 235 183 215 197 149 201 185 126 222 206 128 198 183 98  195 178 106 247 228 160 247 227 158 199 176 106 144 120 50  166 139 70  197 170 99  134 106 43  93  62  18  73  42  13  64  33  13  70  43  24  72  48  24  58  36  12  59  37  16  73  52  33  73  53  29  66  45  24  53  32  15  35  13  0   71  49  38  142 122 111 211 191 182 231 211 200 218 199 184 164 148 114 157 147 78  164 154 67  179 168 76  173 160 66  180 165 74  182 164 78  171 150 69  173 151 76  159 140 71  167 149 85  151 131 72  109 88  35  203 183 133 168 150 100 221 205 153 176 164 104 152 145 75  156 155 75  150 153 66  151 156 64  
132 47  70  133 48  71  132 47  70  131 46  69  132 47  70  133 48  71  135 47  71  135 47  71  138 48  74  134 44  70  138 50  75  132 48  72  126 47  69  122 47  68  131 59  79  158 99  117 175 139 151 173 150 160 198 178 187 202 185 193 194 177 187 202 182 193 184 160 173 189 163 176 172 148 161 155 134 143 140 120 129 134 113 120 133 106 115 131 95  105 131 85  98  132 79  95  117 63  77  93  45  59  72  35  52  68  33  53  74  32  54  81  37  60  84  41  61  79  38  56  77  40  57  78  41  59  73  38  60  68  33  55  68  37  55  79  41  56  89  36  46  102 21  28  156 40  43  207 65  64  210 52  49  232 67  61  244 77  68  241 74  65  221 53  50  209 50  47  183 40  36  170 35  31  193 54  49  171 34  28  196 65  57  139 12  5   144 19  15  145 25  24  115 10  6   162 63  58  133 29  26  125 20  17  126 16  15  142 32  31  176 66  65  119 11  9   113 9   8   136 36  34  110 15  13  155 61  59  117 26  25  91  1   1   94  6   5   152 63  59  109 17  4   169 74  56  163 62  44  117 15  0   197 95  72  204 104 80  192 98  70  146 57  27  205 118 90  155 64  37  164 66  39  226 122 97  203 95  67  200 91  62  217 110 78  222 114 76  230 115 71  230 112 64  231 113 65  235 117 69  226 108 60  226 110 59  228 110 60  234 118 67  229 111 61  229 112 59  239 122 69  237 117 65  235 115 62  243 122 69  235 114 61  239 119 67  234 116 66  232 116 67  232 116 67  238 122 73  235 119 68  236 118 68  235 118 65  240 123 70  235 118 65  237 117 64  237 117 64  237 118 62  238 119 63  239 118 61  239 118 63  239 118 63  238 119 63  238 119 63  238 118 65  238 118 65  238 118 66  238 118 66  238 118 66  238 118 68  236 118 70  236 118 70  236 118 70  236 118 72  236 118 72  236 117 74  236 117 74  236 117 74  238 116 75  238 116 75  238 116 75  238 116 75  238 116 75  238 116 75  238 114 76  238 114 76  238 114 76  240 114 76  240 113 78  240 113 78  240 113 78  240 113 78  241 112 80  240 113 78  239 113 75  239 113 75  238 112 74  239 113 75  239 113 75  239 113 73  238 112 72  237 111 71  239 111 72  239 112 71  238 111 70  238 111 70  238 111 70  237 110 69  237 110 69  237 110 69  235 107 68  237 109 72  237 109 70  225 93  55  216 73  39  238 94  60  245 105 70  239 105 68  237 108 69  233 104 65  236 103 68  239 106 71  234 106 71  234 104 70  241 102 71  242 101 71  240 103 71  236 101 69  235 100 68  236 101 69  237 102 72  237 102 72  239 101 72  239 101 72  235 97  68  237 99  70  237 99  70  237 99  70  237 99  71  236 98  70  235 97  69  234 95  66  242 94  68  247 93  67  241 81  57  232 66  42  226 60  38  220 55  33  220 64  39  231 83  55  235 96  67  235 102 71  230 101 69  229 110 70  239 128 83  238 138 86  233 144 86  233 156 86  221 161 73  218 170 70  220 175 74  217 178 75  208 180 73  206 182 72  211 188 74  219 193 74  224 192 69  219 187 64  215 189 68  215 192 76  215 195 82  206 183 71  223 190 77  220 187 72  210 184 71  211 190 85  207 186 95  237 218 139 242 228 157 201 187 124 237 225 165 240 228 168 213 199 136 252 236 174 228 209 150 207 188 120 217 200 112 196 179 87  202 183 104 248 229 153 230 208 132 204 181 105 137 111 37  150 122 49  206 176 104 112 81  17  104 70  24  90  54  22  93  59  34  67  35  10  72  45  15  84  59  29  67  42  20  71  48  30  69  48  31  73  52  35  59  37  23  56  34  21  52  28  16  58  34  22  48  25  11  67  44  28  59  36  18  42  22  0   152 137 70  168 156 72  170 158 72  169 158 69  178 164 76  167 151 64  150 132 48  144 127 47  158 140 64  170 153 81  132 113 47  87  67  6   127 108 50  180 161 103 131 115 56  93  82  16  149 143 67  155 153 70  161 162 69  166 167 73  
132 48  71  132 48  71  131 47  70  129 45  68  131 47  70  134 50  73  134 49  72  134 46  70  141 51  77  132 42  68  134 46  71  133 47  72  134 52  75  128 50  72  126 53  73  144 86  101 159 126 133 137 118 120 140 126 126 158 148 147 163 153 154 185 173 175 198 183 186 210 194 197 212 197 200 207 195 197 209 199 200 215 205 204 220 204 205 219 197 200 222 189 196 224 189 195 225 195 197 211 186 189 199 180 184 190 169 178 179 148 163 164 130 146 143 109 123 118 86  97  94  62  75  79  47  62  73  38  58  77  42  64  76  43  64  73  36  54  80  33  49  102 34  45  144 40  49  192 61  66  212 62  61  212 53  47  221 59  46  222 62  48  202 48  38  185 46  39  123 9   0   132 34  23  139 45  33  92  4   0   145 63  49  91  14  0   142 63  50  108 24  14  130 40  31  124 27  20  148 46  41  110 5   1   143 34  31  144 32  28  171 58  54  158 45  41  136 23  19  134 22  18  118 10  7   150 42  40  131 26  23  120 14  14  151 45  45  130 21  18  139 18  10  164 36  25  177 45  33  172 39  24  179 46  29  224 95  74  228 106 82  218 103 76  220 107 77  231 116 87  228 107 78  232 107 77  229 100 68  242 114 79  240 114 76  231 108 66  236 112 61  234 110 58  243 119 67  233 109 57  232 108 56  244 123 68  242 118 64  234 113 58  241 117 63  245 121 67  234 110 56  239 116 59  234 111 54  243 120 63  239 114 58  234 110 56  236 116 63  233 116 63  233 116 62  233 116 62  237 120 66  239 119 66  238 118 65  235 116 60  238 119 63  239 118 63  239 118 63  239 118 61  239 118 61  241 118 59  242 119 62  240 119 62  239 120 64  239 119 66  239 119 67  239 119 67  239 119 67  239 119 67  239 119 69  239 119 69  236 118 70  236 118 72  236 118 72  236 117 74  237 118 75  237 118 76  237 118 76  237 118 76  236 117 77  236 117 77  236 117 77  237 118 78  236 116 79  236 116 79  238 116 79  237 115 78  238 115 81  239 115 81  239 114 82  238 113 81  238 113 81  238 113 81  240 113 81  240 113 81  240 113 80  237 113 79  237 113 77  237 113 77  237 113 77  237 113 77  238 111 76  238 112 74  239 113 75  238 112 72  238 112 72  238 112 72  237 111 71  237 111 71  237 111 70  237 110 69  236 108 69  238 109 70  238 109 70  226 92  55  208 61  27  225 76  43  237 95  59  245 109 71  239 107 68  234 105 65  237 105 67  239 107 69  233 105 68  234 104 68  242 103 70  243 103 70  240 103 71  237 102 70  236 101 69  235 100 68  236 101 69  237 102 70  237 102 72  237 102 72  232 97  67  236 101 71  239 101 72  237 99  70  236 98  69  236 98  69  236 98  69  237 96  68  246 92  66  240 80  54  229 63  39  226 56  31  226 56  33  222 58  33  228 73  45  241 96  65  233 96  64  238 110 73  238 114 76  234 119 75  238 134 83  240 147 88  232 151 86  223 156 78  219 169 74  219 178 72  220 183 76  215 184 76  206 183 77  201 183 73  203 186 72  209 189 68  211 186 60  213 188 62  209 186 72  203 184 81  209 193 97  205 185 88  214 186 79  213 181 70  214 187 74  209 185 77  203 178 85  224 202 116 255 236 159 202 185 113 226 211 142 249 234 165 208 191 119 237 219 147 246 226 157 212 190 115 218 198 103 211 191 94  218 196 111 255 235 155 221 200 111 197 176 87  196 170 86  172 143 63  184 153 73  125 91  20  120 80  28  134 95  54  106 66  30  77  42  4   99  68  24  109 81  41  101 76  46  71  46  24  73  52  35  95  74  57  67  46  25  74  52  29  69  45  21  72  46  21  62  36  9   81  54  25  84  59  28  95  72  28  136 119 47  189 174 89  186 174 90  193 181 97  177 165 79  174 160 72  176 162 74  179 164 79  158 143 60  168 152 74  171 155 80  165 148 78  133 114 48  109 91  25  113 98  31  158 146 72  162 155 74  168 164 75  178 175 80  178 176 76  
132 48  71  133 49  72  133 49  72  131 47  70  132 48  71  134 50  73  135 50  73  132 47  70  135 45  71  135 45  71  137 49  74  135 49  74  133 51  74  128 49  71  116 41  62  108 47  63  137 106 111 165 151 148 140 131 126 137 132 128 151 146 142 144 139 135 150 140 138 151 141 139 171 161 160 181 176 172 193 189 186 200 197 192 207 199 196 216 202 201 222 200 202 220 199 198 209 198 194 207 202 196 207 203 200 208 199 200 211 194 200 219 198 205 220 199 204 214 194 196 216 195 200 220 194 203 181 147 164 109 70  91  70  28  50  79  35  58  90  43  63  92  28  45  134 42  55  171 54  62  227 87  88  234 81  73  224 64  50  222 62  46  214 62  51  182 48  37  113 6   0   112 24  14  132 50  39  108 32  19  115 43  29  102 33  18  100 24  11  111 27  17  161 63  54  109 2   0   171 60  53  118 3   0   158 36  31  137 12  6   165 36  31  163 31  26  197 65  60  165 33  28  166 37  32  169 40  35  186 57  52  185 55  53  187 57  55  201 66  63  199 51  47  208 55  49  209 50  44  209 48  38  219 61  49  223 72  53  234 92  70  234 98  72  237 106 76  238 109 77  238 105 72  245 108 74  246 108 71  243 107 65  237 106 60  243 115 66  239 112 61  240 115 61  235 110 56  241 116 62  236 112 58  238 114 60  236 112 58  236 112 58  239 115 61  230 106 52  247 123 69  236 113 56  242 118 64  239 116 59  240 116 62  249 125 71  241 120 65  240 121 65  241 122 66  234 115 57  239 120 64  238 119 61  243 122 67  238 117 60  240 119 62  240 119 62  240 119 62  240 119 62  242 119 60  242 119 60  242 119 60  240 119 62  239 120 64  239 119 66  239 119 67  239 119 67  239 119 67  239 119 67  239 119 69  239 118 71  236 118 72  237 119 73  237 118 75  237 118 75  237 118 76  237 118 76  238 119 77  238 119 79  237 117 80  237 117 82  237 117 82  237 117 82  237 117 83  237 117 83  238 115 82  238 115 82  238 115 84  238 115 84  239 114 86  239 114 86  239 114 86  239 114 86  240 112 85  238 113 83  238 113 83  238 113 81  237 112 80  238 113 81  238 113 81  238 114 80  239 112 79  238 111 76  239 112 77  239 113 75  239 113 75  238 112 72  238 112 72  238 112 72  237 111 70  237 111 70  240 111 72  237 108 69  237 108 69  237 101 63  212 63  30  212 62  29  221 77  42  245 107 70  240 106 68  238 106 67  240 106 69  238 106 68  233 105 68  235 105 69  242 103 70  239 99  66  238 101 69  238 103 71  238 103 71  236 101 69  235 100 68  236 101 69  236 101 71  235 100 70  235 100 70  237 102 72  239 101 72  236 98  69  235 97  68  238 100 71  239 101 72  242 99  69  238 82  57  229 65  40  222 54  28  224 54  29  226 56  31  228 64  37  235 82  51  242 99  65  237 103 68  233 105 68  236 114 73  238 123 78  230 126 73  220 130 68  222 143 76  226 159 80  221 168 76  214 171 69  211 172 69  209 176 71  206 181 78  206 187 82  209 191 79  212 193 73  212 189 61  215 191 67  212 191 86  168 151 61  137 123 48  198 180 106 206 183 90  214 187 82  217 190 75  216 189 76  214 187 84  216 192 96  247 226 135 225 205 118 218 200 116 254 236 152 225 205 118 216 196 109 250 225 145 217 193 107 205 182 78  211 188 82  217 192 99  221 196 104 208 186 85  222 200 99  222 195 104 213 183 97  216 181 99  185 147 74  155 113 55  176 132 83  164 120 75  140 100 51  169 134 80  168 138 88  151 122 88  42  18  0   43  22  5   99  80  63  188 166 142 99  76  45  88  63  33  88  62  29  91  62  28  96  66  30  95  67  30  84  57  10  187 167 98  197 180 102 185 171 98  191 177 106 197 185 111 180 169 90  190 179 99  183 171 87  195 180 95  173 158 73  184 169 88  180 164 86  175 157 83  179 161 89  168 152 77  169 156 77  167 160 72  176 169 78  195 189 91  199 194 92  
123 41  63  129 47  69  133 51  73  131 49  71  131 49  71  133 49  72  135 50  73  132 47  70  136 46  72  139 49  75  136 48  73  131 45  70  128 44  68  128 49  71  135 57  79  121 60  75  97  67  69  154 141 135 153 146 138 135 132 125 151 151 143 147 147 139 150 145 139 156 151 145 147 142 138 153 150 143 154 157 150 155 158 149 163 163 155 182 177 171 204 190 187 210 199 195 206 206 198 201 207 197 195 202 194 190 195 189 194 190 187 191 186 183 186 181 177 185 180 176 181 173 171 181 165 168 176 144 155 152 107 127 117 63  87  90  32  57  84  24  50  97  29  52  126 43  61  144 42  53  199 71  72  231 84  76  223 66  49  224 63  45  242 82  70  222 75  67  122 0   0   189 81  78  152 46  46  149 45  44  109 10  5   139 35  32  164 54  53  145 27  25  187 63  55  175 47  36  191 57  48  192 51  42  191 44  37  203 50  44  211 54  49  208 49  43  214 52  47  211 49  44  209 48  40  215 54  46  212 49  42  225 62  57  225 62  57  217 49  46  224 52  52  228 52  52  225 45  44  216 37  32  227 50  40  230 63  45  214 59  37  225 80  53  245 108 76  231 97  62  236 102 65  243 107 67  239 106 61  240 110 61  240 114 63  234 110 56  236 112 60  241 117 65  234 112 61  233 111 60  236 114 63  234 112 61  238 118 66  235 115 63  236 119 66  237 120 67  228 111 58  240 123 70  238 120 70  235 118 65  235 117 67  234 114 62  237 118 62  240 119 62  243 122 65  237 117 57  238 117 60  238 118 58  243 122 65  243 123 63  241 121 61  241 121 61  241 121 61  241 121 61  241 121 61  241 121 61  241 121 61  241 120 63  239 119 66  239 119 67  239 119 67  239 119 67  239 119 69  239 119 69  237 119 71  237 119 71  237 119 73  237 118 75  237 118 76  237 118 76  238 119 79  238 119 79  237 119 79  237 119 79  236 118 82  236 117 83  236 117 83  236 117 83  236 117 85  236 117 85  237 116 87  236 115 86  236 115 88  236 115 88  238 114 88  238 114 88  238 114 88  238 114 88  239 113 88  239 113 88  238 112 87  237 113 85  237 113 85  237 114 83  238 113 83  238 113 81  238 113 81  237 113 79  238 114 80  237 113 77  237 113 75  237 113 75  238 112 72  238 112 72  238 112 72  238 112 72  239 110 70  240 111 71  240 108 69  240 100 64  217 64  32  213 59  25  213 65  29  237 95  57  241 108 67  239 108 66  240 106 68  238 106 67  233 107 67  238 109 70  240 101 68  232 89  57  233 96  64  236 101 69  239 104 72  238 103 71  236 101 69  236 101 69  236 101 69  235 100 68  236 101 71  237 102 72  238 100 71  236 98  69  237 99  70  239 101 72  238 99  70  236 93  63  225 69  44  219 57  32  221 55  29  224 56  30  222 57  29  230 71  41  241 90  59  240 97  63  232 98  63  226 96  60  235 109 69  239 121 75  222 115 61  212 116 55  219 134 67  222 148 73  220 153 74  219 158 75  220 165 75  219 172 80  215 179 85  210 182 83  206 182 76  204 181 65  217 192 65  208 183 64  202 184 86  116 102 29  27  15  0   75  61  12  180 162 90  208 185 89  214 185 68  221 191 67  218 191 74  208 185 73  216 193 87  220 199 94  204 185 82  220 201 98  214 193 86  212 191 86  224 198 101 210 185 84  217 192 73  220 196 74  217 190 83  218 193 90  212 190 78  210 188 77  214 186 87  162 131 40  202 166 78  196 155 76  139 93  31  190 141 85  188 138 85  179 134 77  171 133 70  175 143 86  109 79  41  39  15  0   23  1   0   64  45  30  223 202 175 192 168 134 98  72  39  93  63  27  101 69  31  91  57  20  94  60  25  90  58  17  181 156 99  204 184 123 232 215 163 242 226 177 237 224 171 221 209 151 212 201 137 191 179 105 178 166 80  181 168 76  184 168 81  183 167 82  182 165 85  172 155 75  181 166 85  167 155 69  166 155 65  177 168 73  207 199 98  219 212 108 
114 32  54  124 42  64  132 50  72  132 50  72  130 48  70  131 49  71  134 49  72  134 49  72  135 45  71  135 45  71  132 44  69  139 53  78  134 50  74  126 47  69  132 53  75  112 50  65  90  60  60  95  85  76  155 148 140 154 154 144 147 147 137 153 153 143 155 152 145 156 151 145 157 154 147 153 153 145 149 155 145 150 156 146 149 152 143 150 147 140 157 148 143 164 157 151 145 151 141 134 146 134 123 136 126 125 137 127 140 142 137 141 142 136 136 139 132 140 143 134 142 141 136 149 139 138 165 134 142 168 121 139 148 88  113 117 51  79  98  33  63  100 31  59  127 50  70  141 48  59  178 55  57  227 84  76  233 78  60  219 56  37  230 66  56  219 66  60  183 55  52  205 89  90  205 89  92  200 84  87  183 68  71  198 79  81  219 90  94  226 92  93  226 89  81  233 92  82  224 77  67  215 62  54  221 63  54  220 55  49  222 51  44  223 50  44  222 45  39  226 49  43  223 46  38  221 44  36  230 51  44  237 58  51  223 41  37  238 56  53  229 45  45  232 46  47  240 50  50  230 41  37  226 42  32  225 50  33  239 79  57  224 75  45  224 84  51  225 89  51  225 89  51  217 84  41  228 96  48  232 105 52  230 109 54  234 115 59  240 119 66  235 113 62  237 117 67  237 117 67  238 118 68  240 120 70  231 113 63  234 116 66  234 118 67  238 122 71  236 120 71  235 119 70  231 115 66  235 119 70  237 121 72  237 120 67  239 120 64  238 118 58  236 116 56  239 119 59  241 121 61  242 122 62  240 120 60  239 119 59  241 121 61  241 121 61  241 121 61  241 121 61  241 121 61  241 121 61  241 121 61  241 120 63  240 120 67  240 120 68  240 120 68  240 120 68  240 120 70  240 120 70  238 120 72  238 120 72  237 118 75  237 118 75  237 118 76  237 118 76  238 119 79  238 119 79  237 119 79  237 119 81  236 118 82  236 117 83  237 118 86  237 118 86  237 118 88  236 117 87  237 116 89  237 116 89  237 115 91  236 114 90  238 114 90  238 114 90  238 114 90  238 114 90  239 113 90  239 113 90  237 113 87  237 113 87  237 113 85  237 113 85  239 114 84  239 114 84  238 113 81  237 112 80  238 114 80  238 114 78  237 113 77  237 113 75  239 113 73  238 112 72  238 112 72  238 112 72  236 107 67  246 117 77  243 109 71  234 94  58  214 60  26  219 62  29  211 61  26  225 83  45  243 107 67  240 109 67  240 106 68  237 105 66  234 108 68  239 111 72  238 98  65  224 81  49  227 90  58  232 97  65  239 104 72  240 105 73  238 103 71  238 103 71  237 102 70  236 101 69  235 100 70  236 101 71  238 100 71  237 99  70  239 101 72  240 102 73  232 93  64  225 82  52  216 60  35  216 54  29  224 58  32  224 58  32  220 55  27  234 75  45  246 97  65  237 97  62  236 99  65  236 107 68  235 107 68  211 90  45  192 82  29  212 114 53  230 143 76  215 137 65  218 144 71  221 152 75  223 160 80  221 167 81  212 171 83  209 176 81  212 183 81  215 189 76  210 182 56  220 198 78  205 186 94  120 106 41  26  13  0   19  6   0   51  35  0   178 157 66  218 189 71  222 192 62  219 191 68  224 199 81  214 191 75  213 192 77  216 196 83  214 194 79  214 193 78  216 194 82  214 187 82  221 195 85  221 196 69  216 191 62  220 193 80  216 190 79  213 190 74  222 199 83  218 191 88  186 153 58  189 152 63  195 152 73  135 87  21  194 144 85  190 140 81  185 139 77  183 142 76  172 138 77  79  50  10  39  15  0   38  16  3   32  13  0   184 163 136 232 208 172 194 165 131 101 69  31  97  63  25  105 70  32  103 67  33  87  53  15  189 164 110 255 236 181 219 200 158 126 111 72  77  62  21  221 209 161 248 237 181 211 201 130 197 185 99  187 174 80  191 176 85  180 164 77  191 175 90  188 171 89  175 160 75  179 165 77  170 159 67  175 165 68  200 191 88  207 198 93  
