P3
640 128
255
71  59  33  74  62  37  71  63  31  89  84  45  79  75  29  110 108 52  103 101 45  95  92  43  134 129 87  128 123 86  151 147 105 147 144 88  176 173 106 191 190 115 146 144 72  163 159 101 198 193 142 177 172 121 147 143 85  173 170 100 173 169 93  171 167 91  168 165 98  155 149 103 218 210 174 220 213 172 161 155 105 155 152 87  170 170 88  140 142 46  163 168 64  180 185 86  124 128 34  143 146 58  143 146 58  158 161 72  122 125 37  121 123 42  98  99  21  164 165 89  134 135 57  98  100 15  91  92  3   131 132 38  120 122 26  97  99  3   139 138 45  108 105 22  116 114 30  165 164 73  161 157 67  143 139 54  152 148 61  191 186 94  161 156 62  155 146 58  120 114 27  109 107 21  122 120 32  170 161 73  162 154 61  147 148 47  147 148 45  130 123 25  133 124 27  161 150 51  174 162 68  150 134 49  135 115 42  160 136 76  187 163 112 164 147 98  187 174 128 187 174 128 208 195 147 188 176 121 145 135 70  147 139 64  156 148 73  139 131 65  122 103 48  155 120 68  146 97  49  146 90  45  151 97  54  129 89  41  159 126 80  163 133 95  170 144 110 186 162 127 173 147 110 198 165 131 112 79  45  121 96  57  136 119 72  135 127 66  130 126 65  143 138 88  107 101 57  167 159 121 204 196 162 216 206 184 240 230 210 241 232 205 188 180 144 166 160 112 70  65  10  113 108 55  180 173 128 159 151 115 131 122 91  119 111 77  155 148 105 111 107 49  150 148 80  182 179 112 201 197 136 195 188 143 153 145 109 133 125 91  99  91  59  116 107 78  116 107 78  151 145 115 129 122 95  148 140 116 141 133 113 145 136 123 117 107 99  80  69  68  58  48  49  54  45  46  95  86  84  124 116 110 118 112 103 120 115 105 131 125 116 138 133 121 136 132 117 140 136 119 129 126 106 135 131 112 175 171 154 166 165 147 135 133 115 145 144 126 157 155 140 135 131 116 131 126 112 131 126 112 126 121 109 117 111 104 106 100 93  107 102 90  119 114 100 117 110 94  119 113 97  127 121 103 136 129 113 129 119 111 141 131 123 131 123 105 130 122 102 169 158 141 178 168 149 188 179 150 203 194 163 188 178 152 189 178 148 180 171 128 173 165 117 177 167 125 187 178 135 144 136 88  147 138 98  174 162 141 215 202 186 252 241 213 223 214 174 177 172 119 157 154 91  162 160 90  135 133 61  95  92  24  171 167 109 167 160 117 178 170 137 199 190 166 232 221 202 216 206 184 199 190 162 160 153 112 124 117 74  138 130 94  99  91  57  142 135 96  184 178 130 162 159 96  177 169 106 168 151 98  159 139 95  153 133 101 152 135 111 142 132 113 102 93  78  93  90  70  108 105 85  88  82  63  99  91  67  116 111 74  143 138 97  153 145 107 132 124 88  109 101 65  177 171 127 171 167 111 213 208 157 201 192 163 194 184 158 195 188 145 185 180 131 162 156 110 156 150 106 182 175 132 194 186 148 156 147 118 116 109 86  129 121 101 178 172 149 218 216 185 160 158 127 105 102 78  155 152 130 174 173 151 171 170 147 177 176 153 191 190 167 200 199 175 164 163 138 120 117 93  132 129 105 138 134 113 126 122 103 112 108 91  114 110 95  119 114 102 121 116 106 107 98  92  136 126 118 183 173 153 127 118 101 86  83  73  83  81  79  94  89  93  95  90  94  77  76  72  80  79  70  83  83  69  84  85  69  108 106 91  101 99  86  96  93  85  94  90  85  89  86  78  89  86  78  93  90  78  102 100 83  135 132 110 169 166 140 212 208 178 209 205 174 174 168 138 176 168 143 172 164 146 91  84  71  112 107 95  135 130 118 138 136 121 133 130 108 178 170 139 186 176 138 175 168 125 152 147 108 153 149 120 154 151 127 143 143 116 142 145 117 143 150 122 146 148 122 133 128 105 131 121 97  121 108 85  140 130 106 117 114 86  108 108 81  121 118 96  164 150 125 179 149 109 158 113 67  169 113 68  192 128 84  174 112 69  173 114 70  167 110 66  167 108 65  171 107 65  172 106 65  171 105 63  172 108 66  176 117 73  184 125 81  172 112 66  171 107 65  171 109 71  169 114 75  155 109 72  157 120 85  164 135 99  153 130 94  180 156 121 163 138 108 164 139 120 157 132 115 166 140 119 159 133 110 172 146 125 175 151 132 157 135 118 154 132 114 153 130 113 150 128 111 165 143 126 153 130 113 159 139 123 146 126 112 155 137 125 168 150 138 177 159 145 180 160 142 182 160 138 176 153 127 176 151 121 182 156 121 182 152 112 182 148 107 164 128 95  161 131 105 217 199 182 176 165 150 216 206 184 235 227 207 214 206 195 99  94  82  100 98  81  167 168 147 233 231 211 199 197 181 158 155 147 130 131 126 90  97  92  144 154 148 154 158 152 73  78  70  113 128 116 114 137 120 97  121 102 96  114 99  114 124 116 70  75  75  59  59  71  84  87  99  71  77  84  171 173 174 186 178 169 184 172 163 183 172 167 137 133 132 39  46  48  34  44  50  23  30  39  44  49  59  50  58  64  32  42  46  183 196 198 149 162 164 165 179 177 209 224 217 221 234 225 220 230 220 196 207 195 115 124 112 15  17  16  99  101 102 46  48  50  33  35  37  29  28  33  31  31  31  172 171 162 192 189 177 191 187 172 177 167 147 181 156 128 161 122 83  171 118 68  175 115 60  172 116 66  172 116 68  177 119 70  177 119 68  177 119 70  176 117 69  176 117 71  174 116 70  174 116 68  174 116 68  174 116 68  174 116 68  173 117 70  173 116 72  180 126 81  185 131 86  170 116 70  167 117 74  141 97  62  154 119 87  157 131 108 149 132 115 136 125 113 125 117 111 122 116 112 122 119 111 116 115 104 112 112 101 129 128 119 130 128 122 151 149 145 161 159 157 175 173 171 184 182 183 203 203 203 203 203 203 203 203 203 203 203 203 216 213 214 215 213 211 211 209 208 205 204 200 197 196 190 191 190 184 187 186 177 186 185 176 178 175 165 145 142 132 122 119 109 122 117 110 133 127 120 149 143 136 165 160 153 154 146 140 173 164 160 200 191 187 218 210 206 199 190 184 171 164 148 184 181 159 167 163 142 126 123 99  93  91  64  80  78  51  100 98  69  93  93  63  88  88  61  123 125 97  141 144 113 97  101 72  98  101 80  88  92  70  85  90  59  78  83  52  76  78  54  73  74  53  69  70  51  78  79  61  81  80  62  84  82  64  85  83  65  99  97  81  141 138 125 155 152 137 120 118 100 104 104 81  108 106 77  106 105 71  107 107 68  86  86  45  81  78  38  88  85  45  93  90  48  118 116 73  130 127 87  162 156 121 179 173 143 185 178 151 183 174 147 182 173 146 222 210 185 187 175 152 167 155 134 202 189 171 195 184 167 115 107 89  129 126 104 110 110 85  88  88  59  98  96  65  134 130 102 147 139 114 145 138 115 152 145 122 157 150 125 150 143 118 222 216 193 101 95  72  157 152 126 202 197 173 220 211 196 255 247 230 241 232 203 214 203 170 212 204 168 184 177 148 144 137 123 157 149 140 161 157 140 158 157 137 151 149 134 166 164 149 179 178 158 183 181 163 200 197 187 199 196 186 195 193 180 214 211 199 206 203 193 198 194 186 195 192 184 189 187 176 181 175 166 162 157 147 157 152 140 156 151 141 160 151 150 162 154 150 165 156 143 180 172 152 140 130 106 208 199 166 194 188 140 202 197 144 154 148 102 96  89  48  64  58  14  149 143 99  160 152 114 183 175 139 208 199 168 232 224 190 146 139 96  136 131 83  104 98  52  99  92  51  92  84  50  199 192 153 173 168 115 171 167 111 219 213 165 206 199 158 237 232 193 247 244 209 252 247 221 205 197 173 211 202 171 169 161 127 211 203 169 189 181 145 223 215 179 177 171 127 125 120 67  98  93  38  86  83  34  163 158 119 164 159 133 181 175 159 215 206 195 201 189 177 164 150 134 196 182 155 189 177 135 177 165 124 179 167 143 232 220 199 202 194 158 178 171 131 146 138 104 132 123 92  150 142 111 184 176 142 154 147 108 92  85  44  93  87  43  138 133 80  159 157 82  153 150 81  98  91  52  120 110 88  218 208 184 246 237 210 202 194 160 166 157 124 156 147 118 208 198 172 180 170 144 169 159 135 183 172 155 175 163 151 242 231 217 240 229 212 225 214 195 182 171 152 216 206 184 177 167 145 189 178 159 185 175 156 184 176 154 143 134 119 20  12  8   8   1   3   2   0   0   0   0   0   3   3   3   
92  84  48  117 110 67  103 100 49  140 138 79  129 130 66  146 148 81  127 128 69  167 165 122 119 115 87  189 183 167 214 207 191 158 153 127 206 200 168 250 244 212 201 195 161 188 183 146 207 202 161 170 167 115 155 153 92  166 167 94  171 169 97  190 186 126 166 164 110 178 175 122 188 185 134 186 183 132 172 170 114 164 163 98  152 153 78  157 160 70  183 190 94  103 109 18  100 104 19  144 147 71  119 123 46  115 119 38  109 113 34  100 102 31  105 107 38  133 136 64  144 146 75  117 119 48  106 106 35  102 103 30  107 108 32  108 109 32  88  86  9   126 124 50  78  77  2   104 103 24  121 117 39  147 143 74  158 151 83  189 182 109 156 148 75  129 117 50  130 120 53  145 143 68  148 147 68  162 152 73  178 168 87  193 190 109 150 151 66  172 168 81  162 156 69  173 164 81  177 165 87  143 126 61  146 123 69  166 139 96  169 144 104 161 142 103 175 161 120 156 142 104 156 143 100 170 160 111 136 127 69  156 149 81  152 145 77  106 102 44  163 153 102 134 109 65  142 108 65  146 105 65  145 101 59  134 96  52  120 84  39  108 74  33  151 122 79  164 142 95  132 108 59  166 135 88  128 94  49  126 97  52  127 105 56  143 135 74  125 121 61  121 116 67  140 133 90  209 202 157 174 167 126 216 207 178 212 203 176 149 140 111 156 149 108 143 139 81  131 126 69  162 155 112 126 119 80  112 105 64  81  74  31  83  76  35  117 110 65  96  91  34  161 158 93  218 215 150 178 175 114 194 188 138 154 147 108 97  88  59  54  44  20  131 124 101 137 129 109 108 100 82  110 104 87  131 124 110 96  89  78  102 95  83  66  58  49  102 93  89  123 114 112 135 129 126 153 146 144 185 180 172 175 169 162 195 189 182 205 199 192 212 207 197 211 206 194 233 230 215 235 233 216 228 226 209 234 232 214 234 232 216 217 215 200 223 221 206 236 234 221 235 232 220 223 221 208 233 230 217 222 219 209 220 216 211 207 203 200 196 193 187 195 189 182 184 179 167 160 155 141 139 134 120 136 128 117 109 101 94  117 109 103 103 96  85  101 91  81  95  85  79  102 92  86  119 109 96  145 136 121 157 148 135 194 183 164 233 225 191 202 194 156 233 225 189 210 202 166 188 180 144 196 188 152 216 207 174 235 227 196 254 246 214 246 238 204 188 180 142 128 121 80  134 128 80  96  90  40  96  90  42  164 158 115 211 203 169 230 221 192 246 237 210 249 240 212 241 233 197 226 219 180 125 117 79  140 132 96  155 147 113 99  91  57  163 158 119 165 161 117 158 155 106 167 161 113 160 152 107 163 153 115 136 127 101 98  90  69  90  83  70  90  83  70  112 108 91  111 106 92  90  83  74  102 95  81  133 126 98  150 143 114 166 159 136 161 152 132 94  86  66  127 119 95  180 175 140 208 202 170 169 164 141 178 172 149 212 206 171 218 213 173 251 246 211 229 223 191 229 223 189 172 166 132 166 160 130 181 176 148 150 145 119 167 162 136 195 192 166 198 196 169 155 154 129 174 173 151 189 189 166 184 183 160 162 161 138 173 172 150 180 180 155 169 168 143 133 130 106 135 132 108 136 133 111 134 130 111 133 129 112 128 124 109 121 116 104 119 114 102 127 120 111 150 141 128 173 162 143 135 126 109 103 100 90  94  92  86  96  92  89  92  88  82  95  94  85  97  97  83  99  100 82  102 103 82  111 110 90  103 102 84  103 101 88  111 109 98  111 108 100 109 106 98  111 109 98  120 118 102 139 138 118 163 160 136 195 192 164 192 187 157 171 166 136 166 161 135 166 160 141 122 115 101 135 130 120 174 168 159 171 169 154 168 164 145 165 157 137 176 168 143 173 167 137 157 152 124 164 160 143 171 169 154 163 166 147 171 177 154 165 176 152 174 180 158 136 133 111 132 122 100 117 105 82  132 122 98  112 110 81  111 112 82  128 125 103 169 155 130 180 150 110 157 112 65  170 114 69  192 128 86  174 112 69  173 114 70  170 114 69  167 108 65  171 107 65  172 106 65  172 106 65  172 108 66  172 113 69  180 121 77  177 116 73  173 109 69  169 107 71  164 108 75  163 118 86  170 137 105 179 157 123 163 148 115 154 141 109 128 114 87  113 97  82  105 89  76  102 89  73  97  84  66  114 100 84  121 107 93  147 133 122 142 130 121 145 133 123 145 133 123 159 146 137 143 131 122 148 136 126 131 121 113 129 120 116 143 134 130 153 145 137 157 148 135 178 165 146 172 158 135 173 157 130 179 161 131 202 180 146 176 151 119 167 143 112 156 135 112 200 191 178 174 169 157 212 208 189 220 216 197 205 200 188 105 100 88  88  87  67  170 169 146 227 225 205 198 196 180 202 201 192 162 163 158 68  73  69  99  106 102 98  104 97  51  61  51  86  107 89  88  114 92  103 125 101 114 131 111 138 147 135 94  96  95  45  44  53  71  69  81  51  57  64  158 160 160 174 165 154 166 152 141 203 190 185 150 145 145 43  49  52  32  42  48  20  25  35  39  45  54  51  59  65  18  29  32  126 144 147 116 136 138 158 179 176 199 220 215 193 213 206 182 201 192 165 183 170 121 134 125 20  25  23  101 101 103 66  66  66  35  35  37  20  19  26  26  25  28  172 171 162 194 192 179 184 180 165 163 153 134 171 146 118 159 120 81  171 118 68  175 115 60  172 116 66  172 116 68  177 119 70  177 119 68  177 119 70  176 117 69  176 117 71  174 116 70  173 115 66  175 114 66  175 113 63  174 113 65  168 114 68  163 114 76  167 125 92  170 133 105 152 122 96  153 125 102 166 142 120 137 119 102 112 100 88  103 97  90  124 122 118 145 143 141 158 154 151 158 155 147 186 185 174 191 191 180 222 221 210 232 231 222 239 238 229 241 240 234 245 244 237 247 246 240 247 246 240 247 246 240 247 246 242 247 246 242 245 243 239 251 249 245 250 248 244 241 240 236 245 246 238 247 248 239 246 247 238 243 245 235 254 253 245 238 237 228 222 221 212 216 213 205 219 213 206 189 181 175 164 155 149 142 131 126 144 133 130 141 130 127 154 142 142 155 144 141 182 174 170 192 183 177 176 169 160 145 138 126 139 132 119 124 117 101 115 109 90  71  68  44  89  86  58  130 131 99  134 134 104 83  85  57  80  81  60  73  74  51  106 111 78  125 130 96  94  95  74  80  80  64  77  78  62  76  76  60  91  88  73  86  84  69  98  96  78  106 104 88  132 130 117 153 151 136 118 117 99  96  95  73  101 99  70  107 106 72  110 109 71  85  85  46  85  84  50  146 144 111 92  92  53  134 133 95  172 171 135 191 189 160 221 218 198 231 227 210 204 200 183 216 211 195 200 198 183 104 102 89  72  69  59  120 116 110 130 126 123 39  37  35  80  82  82  60  63  58  86  89  72  73  73  48  111 106 81  133 126 98  83  74  47  77  68  41  133 126 94  148 141 113 131 125 106 119 113 97  105 100 79  200 194 173 243 234 221 233 225 203 205 199 155 204 198 150 226 218 184 154 146 123 130 122 115 210 201 200 248 242 237 254 250 244 244 243 236 250 249 240 251 251 237 245 245 231 255 255 250 255 255 250 245 245 231 251 251 235 249 246 236 255 255 247 255 251 243 254 250 244 255 255 254 249 243 240 240 236 232 255 251 249 218 211 209 146 137 136 115 107 100 186 176 168 126 114 104 161 150 131 168 161 120 142 137 86  189 181 132 62  55  5   60  52  5   142 133 86  123 115 65  150 142 90  149 142 85  197 191 132 140 136 74  124 120 58  105 101 41  167 161 111 162 155 116 240 232 198 179 175 133 180 176 134 220 214 180 242 235 199 218 212 166 210 203 160 255 250 221 242 232 211 254 246 223 230 223 200 200 192 170 158 151 124 215 209 177 197 192 150 102 100 44  91  88  34  78  73  34  173 166 139 216 207 192 255 255 246 241 232 217 231 220 201 170 157 134 187 176 146 205 193 154 146 133 96  175 164 136 194 183 155 103 96  55  126 119 76  124 116 80  150 141 113 175 165 141 198 189 162 204 194 159 140 131 91  95  87  49  143 137 92  180 176 114 166 162 102 139 129 92  125 113 90  171 157 141 210 198 177 212 204 168 175 168 127 215 206 175 205 195 171 204 194 172 206 196 177 208 196 182 202 190 178 237 225 211 216 205 186 197 187 165 192 183 159 201 191 165 189 180 153 189 179 157 185 175 156 184 176 154 143 134 119 22  13  9   8   1   3   3   0   0   0   0   0   9   9   9   
137 131 97  123 119 75  166 165 113 153 153 96  175 176 114 154 155 95  151 153 102 174 172 139 186 183 163 235 230 222 225 219 214 228 223 211 224 217 204 203 196 185 196 189 176 152 147 123 178 173 143 185 182 142 154 153 103 127 125 66  144 142 86  164 159 118 138 133 94  127 123 78  162 158 111 180 178 131 172 170 123 169 169 117 152 152 93  185 186 120 160 162 93  132 134 65  125 126 62  98  99  42  87  86  32  131 133 73  122 125 65  105 107 54  110 111 60  142 144 89  138 140 84  108 107 57  119 118 69  104 103 53  118 117 67  154 154 99  155 152 96  170 168 111 136 134 78  171 169 111 141 138 82  148 142 94  176 170 122 176 171 120 184 176 126 141 130 84  145 137 90  164 161 108 152 150 92  162 153 95  161 152 93  156 152 94  143 141 83  159 156 91  176 173 108 177 170 111 182 172 118 145 129 87  169 149 115 167 146 117 164 146 118 177 164 134 170 159 128 158 147 116 150 137 105 173 162 122 128 117 71  127 117 64  107 99  47  126 121 79  163 156 117 148 131 93  148 124 89  160 131 100 162 131 98  149 117 78  167 135 93  149 120 75  142 115 69  123 104 53  167 148 97  139 113 63  110 84  36  113 89  42  168 149 101 182 173 116 157 153 97  195 188 143 175 168 127 217 211 165 181 174 133 197 188 157 209 200 171 139 130 99  118 111 70  124 119 64  98  93  40  126 119 80  58  51  15  78  72  26  99  93  45  125 118 77  119 113 67  121 117 61  156 152 92  192 188 128 159 154 99  198 192 148 180 171 138 142 132 111 142 131 115 138 130 112 114 105 90  98  91  80  109 101 92  112 104 98  129 121 112 147 140 129 186 178 169 219 211 205 220 214 209 230 227 221 240 236 230 231 228 220 230 227 219 234 228 221 240 234 227 240 235 225 234 229 217 233 230 217 229 227 212 222 220 205 237 235 220 226 224 208 251 249 236 230 228 215 228 225 213 242 239 227 237 235 222 237 235 222 233 230 219 242 238 233 254 250 244 252 248 245 240 236 230 254 249 239 246 241 229 236 232 220 232 227 215 201 193 186 187 178 174 174 166 158 147 140 131 93  82  81  85  74  73  86  76  70  108 98  90  79  69  63  99  89  77  129 122 97  186 180 150 198 189 162 209 199 173 224 214 188 202 193 164 198 190 156 167 159 125 189 180 149 209 200 169 181 172 141 119 110 79  121 114 77  104 96  58  147 139 103 202 194 160 248 239 210 237 227 201 230 220 194 227 219 187 216 209 168 217 210 169 184 176 140 188 179 148 190 181 152 189 180 151 216 210 178 199 193 159 187 182 145 203 200 162 161 158 121 183 182 148 161 158 134 158 155 136 171 167 152 179 175 161 167 163 146 167 162 148 147 140 131 147 140 129 165 159 138 163 155 135 147 138 122 169 162 151 144 137 123 154 148 132 162 157 134 154 149 126 174 170 151 150 147 125 171 166 138 168 164 134 143 138 112 160 155 131 160 155 129 152 147 119 159 154 128 159 154 128 152 147 123 158 152 131 149 146 124 147 144 122 143 142 120 142 141 118 153 152 130 145 144 122 137 136 114 148 147 124 153 153 128 159 159 134 156 154 127 155 152 126 155 152 126 155 152 130 142 138 119 142 138 121 143 139 124 147 142 130 131 124 112 139 132 119 148 139 122 140 134 118 131 128 118 127 126 118 135 132 124 135 132 121 126 126 112 132 133 114 141 142 122 147 149 125 151 150 128 142 140 120 148 146 128 162 159 146 162 159 148 158 155 145 157 154 142 162 160 142 151 150 130 157 156 134 172 170 145 160 157 131 180 175 147 159 154 128 162 156 138 155 149 135 131 125 116 150 145 135 138 136 121 156 152 135 144 138 119 159 151 131 160 155 131 147 142 121 160 154 138 164 161 149 163 165 151 170 177 161 157 167 150 178 186 168 135 131 112 135 125 106 136 123 102 148 138 114 129 127 98  136 134 107 134 129 106 174 158 131 182 152 112 157 111 67  169 113 68  190 129 86  172 113 69  173 114 70  172 115 70  169 110 66  169 108 65  171 107 65  171 107 65  170 109 66  171 112 68  178 119 75  179 118 75  172 111 70  169 107 69  160 107 72  167 127 95  180 150 122 189 173 144 170 161 134 151 144 119 140 131 111 141 131 121 155 145 137 172 164 153 165 157 146 179 169 161 184 174 166 188 180 174 192 183 179 201 192 188 207 198 194 209 201 197 192 183 179 193 187 183 176 170 165 180 176 175 171 166 166 151 147 142 132 126 119 152 143 132 152 140 126 158 145 125 169 155 130 193 177 148 158 142 111 172 153 128 162 147 127 204 194 184 174 168 159 213 209 194 224 220 203 199 194 182 96  91  77  65  62  40  170 169 144 226 225 202 134 132 114 155 154 146 129 130 123 48  52  46  50  56  50  31  40  30  51  65  51  78  101 82  83  109 87  104 126 102 103 117 96  142 149 137 118 116 112 57  52  56  75  72  77  47  49  53  161 161 159 181 171 163 173 161 149 192 182 174 134 130 124 50  55  56  32  39  43  17  19  30  45  47  60  48  51  59  9   20  26  103 125 131 95  123 129 136 167 170 163 195 195 167 195 192 181 205 199 175 194 187 141 155 150 43  47  51  104 103 108 90  90  90  28  30  31  17  20  26  24  26  30  167 168 160 188 188 174 187 185 172 163 152 136 172 149 122 155 116 79  164 111 61  171 112 57  174 118 69  179 123 73  177 119 70  178 118 70  178 118 70  177 117 69  177 116 71  173 115 68  173 115 66  172 114 67  171 112 66  167 112 69  162 113 75  154 114 82  154 124 100 157 135 118 140 126 115 143 131 122 126 114 104 127 120 111 137 133 128 149 149 147 173 175 175 198 198 198 226 225 221 247 243 237 253 252 243 241 241 230 247 246 238 243 242 233 247 246 240 247 246 240 248 247 241 248 247 241 254 253 245 244 243 234 244 243 234 254 253 247 246 245 238 248 247 241 250 248 242 248 247 241 243 242 233 252 251 242 254 253 245 251 250 241 250 249 240 253 252 243 255 254 248 253 252 245 253 247 240 254 246 240 252 244 238 230 222 215 202 194 190 166 157 153 146 137 136 133 124 123 144 135 133 144 135 133 156 145 142 172 162 156 190 183 174 171 163 152 172 165 151 151 145 126 108 103 75  144 140 109 135 133 104 93  93  65  89  88  68  66  67  44  102 108 76  126 130 102 88  88  70  70  70  57  76  76  62  70  70  57  95  93  80  81  79  64  92  90  74  91  88  73  132 130 115 153 151 136 111 110 90  81  81  56  82  79  53  115 114 80  151 151 110 146 145 105 136 135 99  175 173 140 98  97  63  143 142 108 191 189 160 160 159 137 186 184 169 216 215 204 184 184 175 133 134 127 77  78  73  55  58  55  43  45  44  64  65  69  58  59  65  38  41  49  60  68  76  73  80  80  78  82  67  76  78  54  127 123 97  130 123 96  111 102 73  68  59  28  85  79  45  155 148 118 150 143 125 153 147 131 124 119 95  134 129 106 218 209 191 215 208 183 182 175 132 187 180 137 188 182 152 94  85  70  141 133 129 235 228 229 253 246 246 243 239 238 255 253 252 237 235 231 250 249 238 243 242 231 250 248 242 247 246 240 255 255 243 251 251 237 255 252 241 255 255 248 248 244 236 255 255 249 255 252 250 255 249 249 241 236 236 254 249 248 255 253 251 183 177 172 131 123 117 166 158 151 212 201 198 123 111 99  185 177 144 153 147 101 130 122 74  163 154 107 160 152 107 190 183 133 194 187 130 199 193 131 179 174 107 165 160 93  79  76  15  92  88  30  127 124 61  167 162 107 148 141 100 235 229 195 142 136 102 190 187 152 255 250 223 226 220 187 181 174 131 167 158 118 168 156 133 142 131 115 222 213 198 236 229 213 206 199 183 168 163 142 176 174 145 167 164 126 124 123 73  102 99  50  95  90  55  161 153 128 218 209 191 249 240 225 255 249 229 205 195 171 114 102 76  149 138 107 102 90  55  114 101 67  175 164 134 158 148 112 117 110 65  112 106 60  135 128 91  161 152 123 159 149 125 168 157 131 167 156 126 129 119 83  117 109 75  147 140 99  152 146 96  141 135 87  187 176 144 210 198 177 223 209 200 178 164 150 196 187 156 176 169 130 169 161 129 209 199 173 208 197 176 199 189 170 212 201 184 211 200 183 194 183 164 199 189 168 201 191 167 191 182 155 189 180 151 195 185 159 189 179 157 185 175 156 183 175 152 143 134 119 22  13  9   8   1   3   3   0   0   0   0   0   13  13  13  
152 146 125 144 139 113 147 145 116 143 142 108 151 151 114 149 148 112 148 148 116 142 141 118 145 143 128 137 134 126 122 119 111 111 109 98  111 106 94  120 115 105 135 130 118 126 121 107 132 128 111 139 135 116 146 141 118 153 148 122 151 146 120 147 142 121 145 139 118 145 140 116 146 141 118 147 142 119 146 143 119 140 137 111 138 135 107 133 131 100 131 129 98  131 129 98  158 156 127 198 196 169 129 127 100 142 140 111 142 140 111 125 122 96  125 122 98  126 123 97  122 120 93  126 123 99  134 131 107 142 139 115 132 129 105 117 114 88  108 103 77  114 109 83  119 114 89  127 123 95  132 127 102 127 124 100 127 124 100 121 119 92  125 120 95  138 133 109 154 149 126 156 154 127 146 141 116 134 130 104 136 131 105 138 133 107 129 124 98  133 129 101 133 129 101 141 137 111 153 148 125 136 128 108 119 110 92  115 106 91  125 119 103 107 104 84  125 121 102 104 98  82  80  72  54  145 133 108 112 101 71  120 106 77  90  79  53  84  73  56  98  87  70  118 104 77  114 98  72  97  77  63  107 87  71  87  70  37  171 155 112 148 130 86  132 117 72  135 122 81  175 161 120 191 175 130 116 101 56  155 142 99  225 214 170 213 204 159 164 158 112 183 176 135 197 190 151 245 237 199 199 192 155 134 126 94  170 162 130 130 121 90  70  62  26  133 126 85  123 116 73  145 138 97  99  92  51  67  60  15  125 119 73  155 148 109 178 171 131 202 196 146 185 180 127 197 192 141 183 176 135 177 170 143 158 150 132 136 127 112 142 133 120 141 131 119 151 141 131 160 152 144 175 168 159 196 188 180 211 204 195 236 232 220 236 232 220 235 230 220 234 229 219 231 229 218 230 227 217 230 227 217 230 227 217 233 228 218 233 228 218 234 229 217 234 229 217 235 230 218 235 230 218 236 232 220 236 232 220 235 232 220 235 232 222 236 233 223 236 233 223 237 234 224 237 234 224 238 236 225 238 236 225 238 235 227 238 235 227 241 237 229 241 237 229 241 238 227 240 237 226 241 238 227 241 236 226 241 236 226 240 234 227 240 235 225 240 233 224 224 216 210 194 186 179 152 144 135 123 115 106 79  71  62  55  48  37  49  43  29  53  44  29  102 93  78  157 148 133 184 175 158 202 194 174 190 182 157 191 184 157 194 188 158 187 181 149 183 175 141 162 154 120 168 160 124 140 132 96  162 154 120 192 184 153 227 218 189 212 203 176 162 155 125 174 168 136 172 166 132 191 185 151 183 177 142 234 227 198 239 232 204 178 170 148 165 157 137 157 149 127 137 132 106 156 154 125 146 144 115 148 148 118 130 130 105 103 102 80  92  90  70  98  96  76  85  83  63  65  61  44  61  57  40  62  58  41  64  60  41  63  57  39  59  52  38  64  60  45  70  66  51  75  71  54  83  79  60  86  83  63  83  79  62  82  78  59  80  77  56  79  76  54  79  76  56  78  74  57  77  73  54  79  76  56  78  74  57  78  74  57  65  58  42  61  54  41  64  60  45  66  62  46  69  65  46  66  63  44  65  64  42  66  65  43  68  67  45  71  70  47  86  85  62  111 111 84  120 119 85  122 121 85  107 106 74  83  81  52  65  62  38  77  74  52  75  71  54  62  57  43  65  57  46  63  56  45  68  61  50  66  58  47  71  68  57  64  64  53  68  66  55  66  64  51  69  70  51  76  78  54  87  88  65  92  94  69  117 118 95  124 125 102 133 134 113 140 141 120 152 153 134 147 148 129 140 141 120 137 138 117 120 118 98  121 119 99  138 137 115 156 153 131 158 155 134 136 133 111 140 136 117 132 127 113 118 112 105 135 132 124 141 139 123 146 142 123 150 144 123 135 127 105 145 140 116 143 135 113 173 162 141 179 173 152 161 163 149 182 188 177 175 181 172 179 181 171 143 139 124 140 129 112 163 150 129 147 137 115 131 126 102 132 127 104 139 129 107 172 153 128 183 150 116 166 120 79  169 112 70  195 134 88  167 109 63  174 116 70  170 114 69  168 112 67  167 108 65  167 108 65  167 108 65  167 108 65  172 115 70  181 124 80  178 119 77  173 114 72  171 110 69  147 95  56  173 137 108 180 156 132 158 145 125 177 168 153 235 227 216 236 228 219 239 231 227 244 235 231 251 242 238 252 244 240 253 245 241 254 246 242 255 248 244 250 241 239 246 237 236 250 241 239 253 244 243 251 242 240 249 240 238 246 237 236 245 238 236 245 238 236 209 202 198 140 131 130 123 112 113 176 164 164 147 135 125 132 121 102 193 181 153 186 175 144 152 138 113 165 150 132 192 178 164 178 167 155 216 204 192 231 219 207 202 195 181 123 116 100 79  76  54  165 165 140 233 232 209 145 146 127 146 145 136 125 126 119 104 109 96  132 139 123 86  96  79  54  68  50  58  79  61  106 129 110 114 135 117 107 121 105 127 128 119 117 114 108 76  70  65  85  81  77  82  80  76  149 148 142 178 173 165 176 171 161 186 184 169 142 142 129 47  47  45  38  37  44  23  21  33  56  54  68  48  46  58  12  20  31  93  118 130 110 147 160 82  127 141 100 144 154 122 155 162 138 163 166 169 185 187 175 184 188 18  21  27  52  53  60  57  59  60  4   8   11  21  32  37  16  25  26  163 166 158 201 200 189 182 181 172 155 149 135 167 143 122 158 121 86  173 117 70  173 111 59  168 113 61  173 117 68  177 117 69  178 114 70  173 110 65  176 113 68  179 115 71  172 112 66  171 112 66  163 109 65  158 110 72  150 108 74  154 118 89  166 137 115 152 132 118 127 115 108 114 108 105 118 114 113 123 119 114 163 159 153 207 205 201 232 231 227 239 239 237 243 241 239 247 242 239 245 241 238 245 244 237 245 244 237 245 243 239 245 243 239 246 244 240 246 244 240 246 244 240 246 244 240 247 246 238 247 247 236 247 247 236 247 246 238 249 246 238 249 246 238 249 246 238 249 246 238 248 244 236 248 244 236 248 244 236 248 244 236 251 248 242 251 248 242 251 248 242 251 248 242 252 246 241 252 246 241 252 246 241 252 246 241 255 249 244 245 239 234 223 216 212 203 195 191 165 156 152 153 145 141 145 137 130 145 137 130 162 154 148 173 165 156 179 169 161 177 168 155 177 169 145 170 163 134 140 133 105 95  90  64  77  75  55  69  70  51  94  98  76  101 104 85  91  93  79  64  66  54  62  62  50  73  72  61  82  80  67  94  92  79  93  90  78  100 98  83  128 124 107 146 142 123 107 104 82  135 132 108 196 193 167 167 165 134 174 174 128 198 199 149 155 156 108 155 155 114 132 130 97  117 114 88  171 170 150 187 185 170 103 103 89  85  87  77  54  54  52  50  52  53  46  48  52  42  46  51  49  52  60  68  70  83  59  61  76  33  40  54  64  76  83  71  83  79  102 110 89  102 104 76  143 138 110 147 140 110 117 111 79  112 105 73  76  69  37  157 151 119 151 144 117 142 135 108 141 137 107 100 95  65  183 179 151 180 173 146 205 198 171 185 178 153 116 108 90  87  78  65  201 193 186 245 239 234 249 243 238 255 255 252 250 246 241 250 247 239 251 248 238 251 248 238 252 249 241 252 249 241 254 251 240 254 251 240 255 251 243 255 251 243 255 251 243 255 251 245 254 250 244 254 249 246 254 249 246 254 249 246 255 255 249 228 223 213 174 168 150 210 204 186 219 209 201 153 141 131 155 146 119 190 180 145 155 148 109 91  84  45  123 115 75  190 184 136 203 199 137 169 166 101 170 166 106 170 165 114 134 127 88  128 121 82  123 117 65  107 102 49  119 114 72  218 212 175 174 169 130 148 142 107 179 174 146 172 165 140 171 163 132 221 209 183 233 222 207 176 164 156 224 217 206 170 166 151 183 179 162 193 190 170 227 226 201 198 198 168 101 101 62  59  56  16  135 128 91  149 141 107 169 160 131 204 195 168 219 209 185 155 146 119 107 95  67  90  79  49  87  76  43  119 109 76  114 103 70  91  84  45  141 136 85  145 139 89  146 139 98  114 106 73  139 129 96  172 161 130 160 148 123 54  44  18  63  57  22  88  83  44  113 109 64  141 136 96  148 139 110 230 217 201 249 233 229 199 183 179 174 163 144 191 182 155 185 176 148 201 192 163 208 198 172 204 194 170 209 199 175 206 197 173 206 197 173 209 199 175 206 197 171 202 192 166 196 187 160 189 180 153 190 180 158 184 174 154 183 175 152 129 120 105 9   0   0   7   0   2   4   0   1   2   0   0   9   9   9   
156 153 142 75  73  60  109 107 92  115 111 94  117 113 94  106 104 84  101 100 80  114 112 96  128 125 112 120 120 109 98  97  89  59  56  46  51  48  38  65  62  52  92  89  78  103 97  88  106 101 91  112 107 97  115 110 101 119 112 101 117 110 99  113 108 96  111 106 94  122 114 103 115 107 96  104 99  87  97  92  80  82  77  65  76  71  59  68  63  51  62  57  45  73  69  57  131 126 114 184 179 167 122 117 105 117 112 100 113 108 96  92  87  75  90  85  73  105 100 88  100 95  83  104 99  87  113 108 96  115 111 99  108 104 92  98  93  81  91  86  74  62  57  45  65  60  48  71  66  54  75  70  58  68  66  53  71  68  55  67  65  52  71  68  55  75  73  60  88  86  73  93  88  76  85  80  68  80  77  67  81  78  68  85  80  70  76  71  61  87  82  73  86  81  71  89  86  76  99  96  85  102 99  91  91  87  79  84  83  75  92  92  83  85  85  74  82  79  69  57  52  44  49  42  31  114 104 85  114 101 80  115 100 82  58  44  30  56  44  36  79  67  58  92  79  58  108 95  74  87  72  66  69  55  46  66  54  28  170 160 120 136 128 80  185 176 129 216 206 169 147 138 100 191 185 137 169 163 115 185 179 135 190 183 142 171 164 126 185 178 137 219 213 167 142 136 90  209 202 161 168 161 122 150 143 105 76  69  30  104 96  60  139 131 97  68  60  24  112 105 66  138 130 92  95  88  47  125 118 75  146 139 98  181 173 137 185 178 142 187 180 137 160 153 110 178 171 133 161 152 121 158 150 132 148 138 128 147 137 126 163 153 143 187 178 167 216 207 196 223 215 206 223 215 206 224 216 208 224 216 208 234 229 217 234 229 217 234 229 217 233 228 216 230 228 215 229 227 214 230 228 215 230 228 215 233 228 216 233 228 216 234 229 217 234 229 217 235 230 220 235 230 220 236 232 220 236 232 220 235 232 222 235 232 222 236 233 223 236 233 223 237 234 224 237 234 224 238 236 225 238 236 225 238 236 225 238 236 225 241 238 227 241 238 227 241 238 227 241 238 227 241 238 227 241 238 227 242 237 227 242 237 227 241 236 226 241 236 226 247 240 231 243 235 226 237 229 220 232 225 216 216 208 199 162 155 146 110 102 94  81  73  64  60  50  42  48  37  29  79  69  59  119 109 96  178 169 152 195 187 167 187 180 155 183 176 148 192 183 155 184 176 144 204 196 162 216 207 174 180 171 140 185 177 146 190 181 152 170 161 132 114 108 76  121 115 83  162 155 123 229 223 191 178 172 138 226 220 187 255 247 223 168 159 139 154 145 129 144 137 123 132 128 109 126 123 101 129 128 106 131 130 108 118 119 98  101 102 81  99  101 80  106 108 87  106 104 86  98  96  78  94  90  74  96  92  75  99  95  80  97  92  78  90  85  71  94  90  76  98  93  79  101 97  83  92  88  73  94  90  74  91  89  71  91  89  71  103 98  82  103 98  84  103 98  84  103 98  84  111 106 92  114 110 95  113 108 96  113 108 96  111 104 93  108 100 89  110 105 93  111 106 94  125 120 106 121 117 100 120 118 100 122 120 103 120 118 100 118 117 99  121 119 101 135 134 111 143 141 112 149 147 116 147 145 116 134 131 107 133 130 108 140 136 117 139 134 120 129 124 112 132 125 114 131 123 114 136 128 119 133 128 118 129 126 116 124 123 112 128 125 114 125 123 110 130 130 112 131 132 111 133 134 113 134 135 115 141 142 124 142 143 125 145 146 127 146 147 128 161 162 143 162 163 145 163 164 146 165 165 149 163 161 145 160 158 143 169 166 151 174 172 157 196 192 175 176 172 155 181 177 160 175 170 158 163 159 153 134 130 122 130 128 111 134 131 109 136 131 105 140 132 107 131 124 99  152 145 120 143 131 103 117 110 85  125 127 112 190 196 187 178 181 175 178 179 172 140 135 123 134 125 108 152 141 122 142 132 111 133 124 104 138 130 110 138 128 106 171 150 125 182 146 115 165 119 80  168 111 69  190 129 84  169 110 64  172 114 67  175 119 74  173 116 72  170 114 69  170 114 69  166 109 65  166 109 65  172 115 70  181 124 82  170 115 74  177 120 80  160 103 61  161 112 74  186 154 126 168 149 128 170 159 145 210 202 194 247 239 235 245 236 235 247 239 237 249 240 238 253 244 243 254 246 244 254 246 244 255 247 245 255 248 246 250 241 239 246 237 236 250 241 239 246 237 236 249 240 238 251 242 240 253 244 243 252 244 240 244 235 231 251 242 238 173 164 162 130 118 124 144 132 136 172 162 156 136 127 112 143 134 110 201 192 163 160 148 125 168 156 135 185 170 152 179 164 148 219 203 190 230 216 205 205 195 183 131 125 106 98  95  71  192 190 163 241 240 215 156 157 139 170 172 162 127 128 121 87  91  78  119 126 110 136 146 129 101 116 97  88  107 89  116 138 119 106 127 111 113 127 113 119 120 111 111 108 100 95  92  84  108 105 97  98  94  86  158 155 147 171 167 162 176 173 162 176 177 161 132 134 119 49  49  47  40  39  44  28  26  38  62  59  74  56  54  66  22  28  42  88  113 127 112 152 168 91  143 159 94  144 159 118 155 166 130 154 162 162 174 181 175 180 187 42  45  53  38  39  46  101 103 107 32  39  41  16  29  34  36  50  49  161 165 157 203 203 191 180 182 174 155 148 139 165 144 124 158 120 88  173 117 70  173 111 59  168 113 61  173 117 68  167 106 58  179 116 69  181 118 71  178 114 70  175 113 72  169 112 72  164 114 76  157 113 78  139 105 77  157 129 107 158 137 117 140 122 108 114 104 96  115 111 108 142 142 142 175 177 179 227 227 225 239 237 233 248 247 243 243 241 237 245 243 239 244 242 238 245 241 238 245 241 238 244 242 238 245 243 239 245 243 241 245 243 241 246 244 242 246 244 242 246 244 242 246 244 240 247 246 238 247 247 236 247 247 236 247 247 236 249 246 236 249 246 236 249 246 236 249 246 236 248 244 236 248 244 236 248 244 236 248 244 236 253 247 242 253 247 242 251 248 242 251 248 242 252 246 241 252 246 241 250 246 241 250 246 241 252 249 243 255 251 245 252 246 241 243 237 233 241 235 228 224 216 210 189 181 175 158 150 143 139 131 125 136 128 121 142 131 126 151 141 131 174 164 142 132 123 94  155 148 120 176 171 148 140 136 117 71  69  51  73  73  57  81  81  65  84  86  72  66  68  56  70  70  59  80  79  68  93  90  78  96  94  81  86  83  71  98  95  82  138 133 117 165 162 141 202 199 173 211 208 182 226 223 199 217 215 186 174 173 133 223 223 177 193 194 150 162 161 125 189 187 158 133 130 106 60  59  39  97  97  81  76  78  62  37  39  27  52  54  54  50  51  55  45  48  56  42  45  55  48  52  64  66  71  85  57  61  78  33  40  54  47  62  66  85  100 90  113 122 96  119 122 91  124 119 91  170 163 134 166 160 128 201 195 163 144 138 106 130 124 92  144 138 106 159 153 121 159 155 122 107 103 70  95  91  58  147 143 115 120 112 92  176 167 152 100 91  78  150 142 131 230 224 215 255 251 243 253 247 242 248 242 237 250 247 239 250 247 239 251 248 238 251 248 238 252 249 241 252 249 241 254 250 242 254 250 242 255 251 243 255 251 243 255 251 243 255 251 243 254 250 244 254 250 244 254 250 244 254 250 244 249 245 240 249 246 236 210 206 185 173 168 144 163 153 143 218 208 197 117 107 85  188 179 148 104 96  62  57  51  15  154 149 109 159 156 109 195 194 135 160 155 100 189 182 139 234 226 192 251 240 219 190 180 156 116 109 68  96  90  42  98  94  45  128 124 80  180 175 136 219 213 180 200 194 173 205 196 179 136 126 105 173 162 143 253 241 231 253 242 234 255 255 242 161 157 140 91  87  68  195 194 174 253 254 233 223 223 198 64  62  33  93  89  56  100 93  57  95  85  48  78  67  34  126 117 86  147 138 109 141 132 103 74  63  35  88  77  47  158 147 116 140 129 99  132 123 92  118 110 74  142 136 88  168 162 114 142 135 96  130 122 84  133 124 82  137 126 84  158 148 112 84  76  42  96  93  55  63  60  23  101 98  60  70  67  34  127 118 91  232 219 203 249 233 229 215 200 196 176 165 148 208 198 172 204 196 162 195 187 151 195 187 153 204 195 164 212 203 174 215 205 179 215 205 179 212 203 176 205 196 169 199 190 164 192 183 157 188 178 154 190 180 158 184 174 154 181 174 151 129 120 105 9   0   0   7   0   2   4   0   1   3   0   1   6   6   6   
141 139 138 54  52  48  108 106 100 165 162 152 149 146 133 139 137 124 152 152 138 142 142 129 151 150 139 149 149 140 138 137 128 130 127 117 127 124 113 136 133 123 153 151 140 150 145 135 150 145 135 153 147 138 155 150 140 157 149 138 155 148 137 150 145 133 149 144 132 151 147 135 154 149 137 157 152 140 158 156 143 160 155 143 156 151 139 151 147 135 148 143 131 153 148 136 179 175 163 199 194 182 148 143 131 164 156 145 169 162 151 161 154 143 166 159 147 166 159 147 162 155 144 166 159 147 174 167 156 170 165 153 168 163 151 165 161 149 163 158 146 164 159 147 165 161 149 167 162 150 168 163 151 160 158 145 165 163 150 165 163 150 172 170 157 162 159 146 166 164 151 170 167 154 170 167 154 170 167 156 171 168 158 175 170 160 165 160 151 177 174 163 173 170 160 174 171 161 181 178 168 184 180 172 178 175 167 173 172 163 174 173 164 169 169 158 172 169 159 121 116 108 73  65  54  94  86  66  119 107 86  119 107 88  66  53  37  59  44  36  89  75  64  80  67  46  117 105 84  96  81  75  43  28  19  48  38  14  168 162 123 183 180 128 193 190 139 221 218 176 210 208 163 145 143 87  106 104 47  121 117 71  168 162 125 207 201 169 162 157 117 150 149 88  128 127 61  145 140 85  210 204 154 132 127 74  98  93  42  148 142 98  163 156 117 95  87  49  117 109 73  150 143 107 162 154 120 189 181 145 181 173 137 190 184 149 199 193 159 192 186 152 149 143 111 169 162 134 148 140 118 152 144 126 155 145 133 193 184 171 207 198 185 229 221 210 240 233 222 235 227 218 229 221 212 221 213 204 215 207 198 231 226 214 231 226 214 231 226 214 231 226 214 231 226 214 231 226 214 232 227 215 232 227 215 233 228 216 233 228 216 234 229 217 234 229 217 235 230 220 235 230 220 236 231 222 236 231 222 236 231 222 236 231 222 238 232 223 238 232 223 239 234 224 239 234 224 240 235 225 240 235 225 240 235 225 240 235 225 242 237 227 242 237 227 242 237 227 242 237 227 242 237 227 242 237 227 242 237 227 242 237 227 242 237 227 243 238 229 245 239 230 246 241 231 247 242 232 246 241 231 242 237 227 246 241 231 234 229 219 210 202 194 157 149 140 103 95  87  62  55  46  56  49  38  72  62  52  112 102 90  177 168 153 201 193 175 188 178 156 168 158 134 184 175 148 202 193 164 211 202 171 210 201 170 205 197 165 174 165 134 135 129 95  124 119 84  135 129 95  148 142 107 152 147 110 185 179 145 186 179 154 130 122 104 151 144 130 180 173 161 224 220 203 220 216 199 215 213 198 215 213 200 210 210 196 208 208 194 212 209 196 215 213 200 217 215 202 219 216 203 221 218 206 223 221 208 226 223 210 224 222 209 228 223 211 232 227 215 232 227 215 232 227 215 233 229 214 234 230 215 232 227 213 232 227 213 233 229 214 234 229 217 235 230 218 235 230 218 235 230 218 239 234 222 238 233 221 239 234 222 239 234 224 236 231 222 241 236 226 243 238 229 245 239 230 241 236 226 242 237 227 242 237 227 241 236 226 240 235 225 235 230 220 235 230 218 234 230 215 236 232 218 240 235 223 240 235 223 243 238 229 245 239 232 243 238 231 242 237 229 241 235 228 241 236 226 246 241 231 243 238 229 238 235 227 234 230 222 236 233 225 234 230 222 243 242 231 241 241 230 241 241 230 240 240 229 241 241 232 241 240 234 240 239 233 239 238 231 223 222 215 226 225 219 230 229 222 233 232 226 236 234 230 233 232 228 234 233 229 233 229 223 243 241 228 226 224 208 235 233 218 231 229 216 224 221 215 139 136 128 142 140 122 139 136 112 143 136 109 134 125 98  116 109 84  119 112 84  161 150 120 103 96  69  133 135 119 173 179 168 179 182 176 177 178 171 136 131 119 127 118 101 147 136 117 139 129 107 129 121 101 141 133 113 134 124 102 169 148 123 180 144 113 161 115 76  166 109 67  183 122 77  169 110 64  166 110 63  175 119 74  173 116 72  170 114 69  170 114 69  167 110 66  166 109 65  172 115 70  179 125 82  168 116 74  173 120 81  153 102 63  179 137 103 187 159 134 161 144 125 191 181 169 235 230 220 247 241 236 242 236 231 243 237 233 247 241 236 253 247 242 254 248 243 254 248 243 254 248 243 255 249 244 248 242 237 245 239 234 248 242 237 245 239 234 247 241 236 249 243 238 252 246 241 242 236 231 245 239 232 249 244 236 235 226 224 137 127 130 119 110 113 169 161 155 180 171 156 137 129 107 199 190 164 162 153 126 151 139 116 166 153 133 168 155 137 211 198 182 221 207 193 191 182 167 119 114 93  91  88  62  188 185 159 237 237 212 139 140 121 172 174 164 115 116 111 103 107 99  96  102 91  130 139 127 108 122 108 92  111 94  107 128 110 84  105 87  110 126 112 111 117 106 89  88  81  85  84  78  82  81  74  89  86  80  162 158 152 166 163 155 169 168 160 180 183 168 133 137 127 67  70  67  55  57  61  41  42  51  72  72  83  61  62  73  22  32  42  90  116 128 112 151 163 106 153 169 104 149 166 150 182 194 157 181 189 175 190 198 175 183 192 49  52  60  48  50  56  116 120 123 52  58  63  53  66  71  65  79  79  163 166 158 195 194 185 180 182 174 155 148 139 165 144 124 160 122 89  173 117 70  173 111 59  170 112 61  173 117 68  184 126 75  165 106 53  177 117 67  169 110 66  161 108 72  168 121 91  146 109 87  150 123 105 162 146 131 126 119 106 113 108 96  121 118 108 153 152 145 191 193 190 227 229 226 238 241 240 248 248 246 246 246 244 245 243 239 243 241 237 243 241 237 243 241 237 244 242 238 244 242 238 245 243 239 245 243 239 245 243 241 245 243 241 246 244 242 246 244 242 246 244 242 246 244 240 247 246 238 247 247 236 247 247 236 247 247 236 249 246 236 249 246 236 249 246 236 249 246 236 248 244 236 248 244 236 248 244 236 248 244 236 253 247 242 253 247 242 251 248 242 251 248 242 250 246 241 250 246 241 250 246 241 248 247 241 248 244 238 255 252 247 255 255 251 255 255 249 254 250 242 253 247 240 242 237 229 228 223 215 196 190 183 169 161 155 139 131 125 126 116 105 144 136 116 165 158 133 177 169 147 180 172 152 183 177 159 138 133 117 101 97  81  82  80  65  96  96  80  78  78  65  73  73  59  69  69  55  90  90  78  96  95  84  89  88  77  94  91  81  130 128 113 160 159 139 213 213 183 215 216 184 216 216 191 247 246 221 208 208 181 250 250 223 238 237 217 180 179 159 141 140 115 100 100 72  53  53  26  77  80  51  87  92  65  51  54  35  52  56  48  50  52  51  45  49  52  42  45  53  48  53  62  66  71  85  57  61  78  33  40  52  72  88  83  78  98  78  107 117 86  109 112 79  74  70  39  135 126 98  170 163 134 180 174 142 190 183 151 106 100 68  162 155 123 188 182 150 159 155 122 103 99  66  55  52  19  86  81  53  108 102 81  159 152 136 141 135 121 175 168 157 255 253 244 255 253 246 254 248 243 246 240 235 252 246 239 252 246 239 253 248 238 253 248 238 254 248 241 254 248 241 255 249 242 255 249 242 255 251 243 255 251 243 255 251 243 255 251 243 254 250 244 254 250 244 252 251 244 252 251 244 248 247 243 255 255 247 243 240 221 155 149 131 94  86  75  183 173 163 162 152 132 171 162 134 169 164 124 84  82  40  118 116 73  167 165 122 194 192 147 223 218 181 240 232 210 255 255 245 228 219 206 133 124 106 137 130 103 113 108 66  99  97  38  122 120 62  183 178 138 253 245 222 243 234 221 199 189 179 207 199 181 156 147 130 232 222 209 230 223 209 228 225 203 125 122 96  93  93  65  164 163 138 225 226 205 151 150 130 46  43  19  83  76  48  64  53  18  73  61  24  68  58  25  140 129 101 178 169 141 152 143 114 113 104 75  160 151 122 198 189 160 180 171 142 153 144 115 184 176 144 131 123 87  152 144 106 180 171 138 176 169 130 153 146 94  135 128 69  175 169 110 171 167 111 124 123 75  111 111 70  163 162 128 179 175 144 194 185 156 195 183 160 238 226 214 217 206 191 166 156 130 164 157 121 209 202 159 190 184 138 190 183 140 209 201 163 201 192 161 210 200 174 210 200 174 201 191 165 197 188 161 197 188 161 197 188 161 191 181 157 190 180 158 184 174 154 181 174 151 129 120 105 9   0   0   7   0   2   6   1   2   4   2   2   2   2   2   
141 141 141 62  62  60  97  98  91  215 214 205 231 231 219 229 229 215 220 220 207 227 227 216 219 219 208 220 220 211 231 230 221 234 231 220 242 239 229 241 238 227 231 229 218 238 232 223 236 231 222 235 230 220 235 230 220 244 237 225 242 234 223 238 233 221 235 230 218 231 226 214 235 230 218 240 237 224 243 241 228 243 239 227 247 242 230 252 247 235 254 249 237 246 241 229 233 228 216 242 237 225 228 223 211 255 248 237 255 252 241 246 239 228 250 242 231 249 241 230 244 237 225 247 240 229 255 249 238 252 247 235 254 249 237 255 250 238 255 250 238 254 249 237 252 247 235 250 246 234 248 243 231 245 243 230 248 245 232 250 248 235 252 250 237 243 241 228 243 241 228 247 244 231 251 249 236 248 245 234 249 246 236 253 248 238 243 238 229 249 246 236 243 240 230 243 240 230 248 245 234 249 246 238 248 244 236 241 241 232 238 237 228 251 250 239 236 233 223 154 148 141 79  71  60  103 95  75  131 121 99  132 119 101 89  76  60  64  50  36  93  79  63  61  49  28  109 96  78  108 93  85  44  29  20  42  32  12  157 149 118 169 165 118 200 197 144 168 165 111 173 171 115 126 124 63  114 111 58  150 145 108 220 213 186 210 200 176 142 135 96  142 139 74  117 114 45  116 111 56  124 118 70  96  90  42  117 110 65  195 188 145 183 176 135 152 144 106 156 148 114 174 165 134 218 209 180 249 240 212 203 194 165 178 172 138 162 155 123 165 158 131 161 153 130 151 143 125 149 140 125 187 179 161 218 209 193 228 219 206 235 225 215 233 226 215 226 219 208 224 216 208 225 218 209 229 221 212 229 221 212 228 223 211 228 223 211 231 226 214 231 226 214 231 226 214 231 226 214 232 227 215 232 227 215 233 228 216 233 228 216 234 229 217 234 229 217 235 230 220 235 230 220 236 231 222 236 231 222 236 231 222 236 231 222 238 232 223 238 232 223 239 234 224 239 234 224 240 235 225 240 235 225 240 235 225 240 235 225 242 237 227 242 237 227 242 237 227 242 237 227 242 237 227 242 237 227 242 237 227 242 237 227 241 236 226 242 237 227 243 238 229 242 237 227 238 232 223 234 229 219 240 235 225 248 243 233 255 250 240 252 246 237 255 253 244 249 241 232 174 166 158 104 96  88  50  40  32  60  50  42  65  55  45  109 100 87  184 173 159 205 195 175 175 165 143 204 195 168 219 211 179 231 223 189 244 235 202 227 219 185 218 212 177 176 170 135 156 150 116 135 129 93  161 156 114 176 170 133 112 105 77  127 118 101 141 134 123 182 175 166 246 241 229 246 241 229 242 239 231 241 237 231 241 240 234 247 246 238 251 248 240 245 242 234 243 240 232 248 245 234 240 237 226 241 238 227 243 240 230 242 239 229 243 238 229 246 241 231 242 237 227 242 237 225 245 240 228 249 244 232 246 241 229 245 240 228 243 239 227 242 237 227 242 237 227 242 237 225 242 237 225 246 241 229 245 240 228 246 241 229 245 239 230 242 237 227 247 242 232 247 242 232 247 242 232 243 238 229 243 238 229 246 241 231 246 241 231 252 246 237 249 244 234 247 241 234 246 240 233 243 238 231 246 240 233 249 243 238 248 242 237 243 237 233 241 235 230 245 239 234 246 240 233 245 239 232 249 244 234 248 243 233 244 241 233 241 237 229 243 240 232 241 237 229 237 236 227 238 237 230 241 240 234 243 241 235 237 235 231 238 236 232 240 239 235 240 239 235 240 239 235 239 237 233 240 239 235 240 238 237 233 231 230 237 235 233 239 237 236 232 231 227 237 234 226 222 220 207 233 230 217 231 229 218 224 221 215 130 127 117 128 127 104 113 111 82  141 134 104 218 209 180 197 190 162 176 167 138 123 112 80  81  75  45  104 107 87  189 195 184 179 182 176 177 178 171 133 128 116 122 114 96  149 139 120 142 132 111 130 122 102 122 114 94  133 123 101 167 146 121 178 142 111 160 114 77  166 109 67  179 119 73  170 111 65  163 107 62  170 114 69  168 112 67  166 109 65  166 109 65  167 110 66  166 109 65  172 115 70  179 125 82  168 118 78  166 120 81  158 116 80  186 150 121 175 151 130 166 151 136 219 209 199 248 242 235 245 239 234 241 235 230 242 236 231 249 243 238 254 248 243 254 248 243 254 248 243 254 248 243 255 249 244 248 242 237 245 239 234 248 242 237 252 246 241 248 242 237 247 241 236 245 239 234 245 239 232 249 244 236 243 238 231 249 243 238 189 180 183 129 119 120 126 118 112 204 197 184 200 192 172 204 196 173 183 174 147 142 133 104 171 159 133 179 167 143 225 212 194 231 218 202 197 186 169 123 115 95  89  84  58  182 179 153 228 227 203 107 105 87  154 153 144 99  100 95  124 128 120 100 107 96  95  104 92  41  55  39  47  64  47  111 130 110 83  104 85  76  95  79  106 112 103 75  76  68  87  85  79  77  76  70  64  58  51  163 158 148 168 163 153 164 159 147 176 173 160 129 128 117 73  71  65  59  60  57  34  34  34  73  73  75  78  77  82  52  58  63  129 147 150 138 167 170 139 176 187 148 183 194 172 196 204 187 202 208 188 198 204 158 164 169 64  68  76  90  91  100 81  84  90  17  25  29  54  69  73  47  61  63  153 156 151 190 189 181 180 182 174 155 148 139 165 144 124 160 122 89  173 117 70  173 111 59  170 112 61  173 117 68  166 110 59  176 123 70  167 113 65  169 119 77  156 113 82  145 109 89  149 126 113 136 124 117 103 100 92  112 113 104 149 151 141 190 191 184 223 227 219 242 245 239 250 253 247 246 246 242 239 239 235 240 239 235 241 240 236 241 240 236 241 240 236 243 241 237 244 242 238 244 242 238 245 243 239 245 243 239 245 243 241 245 243 241 246 244 242 246 244 242 246 244 242 246 244 240 247 246 238 247 247 236 247 247 236 247 247 236 249 246 236 249 246 236 249 246 236 249 246 236 248 244 236 248 244 236 248 244 236 248 244 236 253 247 242 253 247 242 251 248 242 251 248 242 250 246 241 250 246 241 248 247 241 248 247 241 247 243 237 252 249 243 252 249 243 247 243 237 251 248 240 247 243 235 248 244 236 255 253 245 244 241 233 230 224 217 198 192 185 172 164 155 137 130 114 119 113 95  145 139 120 164 157 139 147 141 123 118 112 96  129 122 106 108 104 87  91  89  71  81  81  65  80  80  64  77  77  64  83  83  71  89  88  79  82  81  72  88  87  78  127 127 116 122 120 103 131 131 104 222 222 193 240 239 216 224 223 205 203 202 184 240 237 222 242 239 229 171 168 156 52  51  31  60  60  35  99  102 74  85  87  62  78  82  58  68  70  53  52  56  43  50  53  47  45  49  48  42  46  49  48  53  62  67  72  86  57  61  78  32  39  53  95  111 108 98  117 101 69  77  54  75  76  46  88  82  50  119 111 77  117 112 77  155 149 114 122 116 84  128 122 90  162 155 123 173 167 135 181 175 143 138 134 101 105 102 69  140 136 108 144 138 117 160 153 140 183 176 163 203 196 185 255 253 244 250 245 238 252 246 241 255 254 249 252 246 239 252 246 239 253 248 238 253 248 238 254 248 241 254 248 241 255 249 242 255 249 242 255 251 243 255 251 243 255 251 243 255 251 243 254 250 244 254 250 244 252 251 244 252 251 244 255 255 255 240 239 231 255 255 242 197 192 178 95  87  78  109 100 89  217 206 189 178 169 143 197 189 153 110 106 62  84  79  35  131 127 85  133 128 88  176 169 139 241 232 215 223 214 201 178 169 154 116 108 88  209 202 175 212 207 167 163 161 104 143 140 87  187 181 151 240 231 216 248 238 230 242 232 224 244 235 220 154 145 127 124 117 103 153 147 131 132 129 105 96  94  63  171 172 135 89  90  56  132 132 105 63  62  39  65  58  40  55  47  24  44  32  4   79  68  37  51  39  11  133 122 94  114 105 77  103 94  65  159 150 121 126 117 88  93  84  56  184 175 146 203 193 167 194 184 158 123 114 85  117 108 77  154 145 116 163 156 117 149 141 87  150 145 78  163 161 91  162 161 97  73  74  28  90  93  60  134 136 113 228 225 205 219 211 189 212 202 180 245 234 217 244 233 214 215 206 175 174 167 126 195 189 141 191 186 135 198 193 142 213 207 163 204 195 164 218 209 182 218 209 182 204 195 168 198 189 162 198 189 162 196 187 160 196 186 162 190 180 158 183 173 153 180 172 152 129 120 105 8   0   0   6   0   1   4   0   1   3   0   1   0   0   0   
82  85  80  61  62  54  65  67  55  199 201 187 224 224 208 222 222 206 226 227 211 227 227 214 227 227 216 227 227 218 227 227 218 229 226 216 229 226 216 230 227 217 230 227 217 232 227 217 232 227 217 234 229 219 234 229 219 235 230 220 235 230 220 236 232 220 236 232 220 238 233 221 238 233 221 236 234 221 236 234 221 236 232 220 236 232 220 236 232 220 236 232 220 243 239 227 231 226 214 241 236 224 240 235 223 246 241 229 238 233 221 236 232 220 241 236 224 241 236 224 241 236 224 241 236 224 241 236 224 240 235 223 240 235 223 240 235 223 240 235 223 241 236 224 241 236 224 242 237 225 242 237 225 241 238 225 241 238 225 242 239 227 242 239 227 245 243 230 237 235 222 237 235 222 245 243 230 242 239 229 242 239 229 242 239 229 242 239 229 242 239 229 242 239 229 242 239 229 242 239 229 241 237 229 241 237 229 239 238 229 239 238 229 237 236 225 241 238 227 148 142 135 53  46  34  103 95  75  127 117 95  97  84  66  110 97  79  94  81  62  122 109 90  71  58  37  116 103 85  123 107 96  72  55  47  53  40  24  179 167 143 232 219 185 212 202 153 184 179 108 157 153 79  198 189 133 226 214 177 204 192 173 177 162 151 159 146 128 150 140 104 145 139 79  101 95  35  125 116 76  87  76  45  168 159 132 173 164 135 182 172 139 200 190 154 225 217 183 223 214 183 204 195 168 228 219 195 218 210 185 213 206 179 181 176 141 136 130 98  144 136 114 161 152 134 156 147 134 195 186 173 243 237 218 236 230 211 231 224 213 231 223 215 231 223 215 230 224 215 231 225 216 231 225 216 231 225 216 231 225 216 231 226 214 231 226 214 231 226 214 231 226 214 231 226 214 231 226 214 233 228 216 233 228 216 234 229 217 234 229 217 235 230 218 235 230 218 235 230 220 235 230 220 235 230 220 235 230 220 236 231 222 236 231 222 236 231 222 236 231 222 238 232 223 238 232 223 239 234 224 239 234 224 239 234 224 239 234 224 241 236 226 241 236 226 241 236 226 241 236 226 242 237 227 242 237 227 242 237 227 242 237 227 241 236 226 241 236 226 242 237 227 243 238 229 245 239 230 242 237 227 241 236 226 242 237 227 241 236 226 236 231 222 236 228 219 239 232 223 242 234 227 240 232 226 205 194 189 116 106 100 73  63  57  74  64  56  135 124 112 218 207 192 180 169 152 147 137 113 141 133 101 134 126 90  134 126 90  141 133 97  152 147 110 123 118 81  145 140 103 164 159 120 134 130 85  159 155 113 145 138 111 152 144 126 151 143 132 193 185 178 249 244 234 251 248 240 241 237 231 241 237 233 239 237 233 241 240 234 244 241 235 238 235 229 238 235 229 247 243 235 242 239 231 242 239 231 242 239 229 242 239 229 243 238 229 243 238 231 243 238 231 243 238 229 245 239 230 245 239 230 245 239 230 245 239 230 246 241 231 246 240 233 246 240 233 246 241 231 247 242 232 247 242 232 247 242 232 247 242 232 246 241 231 246 241 231 246 241 229 246 241 229 246 241 229 246 241 229 247 242 230 247 242 230 247 242 230 247 242 230 248 243 231 248 243 233 247 242 232 247 242 232 247 242 232 246 241 231 246 241 231 245 240 228 245 240 228 243 238 229 242 237 227 241 236 226 242 237 229 242 237 229 242 239 229 242 239 229 244 241 231 244 241 231 244 241 231 244 241 233 245 242 234 245 242 234 239 238 229 239 238 231 239 238 231 239 238 231 234 233 227 234 233 227 234 233 227 234 233 227 236 234 230 236 234 230 236 234 230 236 234 228 231 230 223 245 244 235 235 232 222 237 234 224 234 230 224 145 143 130 129 126 102 133 129 99  112 105 73  184 176 144 157 151 119 133 124 93  85  74  39  117 111 79  109 113 91  185 192 179 175 179 173 172 173 166 135 130 118 114 105 88  134 124 104 141 131 109 130 122 102 115 107 87  125 115 93  165 144 120 179 143 112 158 111 75  172 114 74  182 120 77  174 115 72  165 108 63  166 109 67  167 110 68  172 115 72  179 122 79  167 110 68  163 107 64  172 115 72  184 129 88  163 115 74  145 103 67  176 142 113 172 146 123 156 136 118 194 180 169 239 231 225 255 250 245 252 246 241 245 239 232 245 239 232 252 246 239 247 241 234 248 242 235 250 245 238 254 248 241 255 251 243 248 242 235 247 241 234 249 244 236 248 242 235 248 242 235 247 241 234 248 242 235 255 249 242 241 236 226 252 246 237 241 235 230 249 239 240 145 136 137 97  90  81  153 146 133 207 198 183 174 166 146 184 175 148 164 156 125 170 159 126 171 159 131 201 188 168 221 208 189 189 178 161 140 131 111 88  83  57  165 163 136 223 223 198 110 109 91  152 151 142 127 128 121 185 189 174 90  98  77  53  64  42  61  76  55  78  95  73  61  81  58  55  76  55  90  109 93  120 126 117 83  82  75  94  90  85  118 112 105 57  47  37  174 162 150 166 154 140 173 162 145 178 167 151 164 154 137 152 144 126 159 150 135 156 147 134 165 155 145 156 146 138 129 124 117 162 169 157 161 174 165 174 195 193 178 196 197 134 141 139 158 161 157 165 166 161 130 131 128 109 111 115 129 130 138 106 110 116 38  46  50  62  77  81  52  65  68  170 173 167 207 206 197 182 183 176 166 158 149 184 162 142 160 122 89  165 109 61  172 110 58  171 113 62  170 117 66  168 120 68  157 110 62  159 115 73  148 110 77  147 119 96  171 150 137 127 116 111 100 96  93  111 110 103 176 175 167 227 227 218 243 242 231 244 241 231 247 244 233 247 244 233 244 241 233 252 249 243 248 247 243 245 243 239 243 241 237 243 241 237 244 242 238 244 242 238 244 242 238 245 243 241 245 243 241 245 243 241 245 243 241 246 244 242 246 244 242 246 244 242 246 244 240 249 246 238 249 246 236 249 246 236 249 246 236 249 246 236 249 246 236 249 246 236 249 246 236 249 246 238 249 246 238 249 246 238 249 246 238 250 246 241 250 246 241 250 246 241 250 246 241 250 246 241 250 246 241 248 247 241 248 247 241 248 247 241 248 247 241 248 247 241 248 247 241 247 246 240 247 246 240 247 246 240 246 245 238 248 248 239 250 247 239 244 241 233 227 224 213 183 178 166 154 149 135 122 118 103 126 119 106 169 163 149 148 139 124 145 136 121 160 154 136 135 133 113 100 98  81  73  73  55  77  78  62  106 106 95  90  89  80  83  81  77  98  97  93  97  95  91  104 104 92  77  78  58  167 168 145 195 195 179 188 187 176 186 185 174 167 166 155 144 143 132 83  83  69  53  54  35  61  62  43  76  76  60  59  58  47  38  39  34  59  60  55  51  55  42  50  54  41  46  52  43  48  53  51  57  63  70  72  77  89  60  64  83  33  39  58  72  86  97  60  76  77  67  73  64  96  95  75  106 100 66  106 100 56  126 121 77  154 149 107 155 147 113 180 171 140 188 179 148 170 162 130 157 151 119 147 140 108 144 138 106 147 143 115 165 159 140 168 163 149 178 173 161 249 244 232 253 248 238 253 247 240 253 247 240 254 248 241 252 246 239 252 246 239 253 248 238 253 248 238 254 248 241 255 249 242 255 251 243 255 251 243 255 251 243 255 251 243 255 251 243 255 251 243 255 251 245 255 251 245 253 251 247 253 251 247 254 253 249 251 250 243 255 255 246 252 246 237 151 143 136 126 115 108 159 147 133 218 206 185 172 159 129 197 185 148 93  82  38  165 154 110 158 147 105 105 93  56  201 190 160 132 121 93  118 107 81  145 136 107 221 214 178 223 219 177 184 179 140 132 128 95  205 196 181 240 230 222 241 230 225 253 242 234 222 213 198 205 196 179 215 208 194 101 94  78  54  51  27  94  95  61  145 148 104 95  98  52  129 130 93  86  84  57  124 116 98  160 148 134 89  77  63  58  44  28  69  57  34  122 110 82  78  67  36  64  52  24  138 127 99  159 147 122 160 149 121 112 101 75  164 155 131 105 95  73  120 111 84  173 163 137 154 145 118 117 109 75  143 138 85  184 181 118 184 183 119 157 156 102 105 108 75  84  87  70  127 128 123 113 111 110 144 135 131 229 220 209 242 233 218 226 218 194 178 173 136 155 151 104 124 119 66  191 187 131 175 170 117 181 175 129 183 174 143 190 180 156 201 191 167 208 198 174 206 197 173 198 188 164 189 179 155 182 172 148 183 173 151 181 170 151 180 172 152 130 121 108 8   0   0   6   0   3   4   0   1   3   0   1   1   1   1   
125 129 123 70  71  64  55  56  47  210 212 199 239 241 227 231 231 215 217 217 203 222 222 208 222 221 210 223 222 213 224 223 214 227 224 213 228 225 215 230 227 217 230 227 217 232 227 217 232 227 217 234 229 219 234 229 219 235 230 220 235 230 220 236 232 220 236 232 220 238 233 221 238 233 221 237 235 222 237 235 222 240 235 223 241 236 224 242 237 225 242 237 225 242 237 225 246 241 229 249 244 232 241 236 224 232 227 215 241 236 224 246 241 229 242 237 225 241 236 224 241 236 224 242 237 225 242 237 225 243 239 227 243 239 227 245 240 228 243 239 227 243 239 227 242 237 225 242 237 225 242 237 225 241 238 225 242 239 227 242 239 227 243 241 228 242 239 227 240 237 224 240 237 224 242 239 227 243 240 230 242 239 229 242 239 229 242 239 229 242 239 229 242 239 229 242 239 229 242 239 229 241 237 229 241 237 229 239 238 229 239 238 229 238 237 226 250 247 237 171 166 158 53  46  34  86  78  58  89  79  57  69  56  38  110 97  79  97  85  64  115 102 81  69  57  36  95  82  64  92  76  63  71  54  44  44  28  15  166 151 134 208 194 169 163 151 112 193 186 120 190 186 117 197 186 138 222 209 179 174 160 147 178 163 154 175 162 144 165 154 123 135 126 79  124 116 69  147 137 104 117 105 84  155 145 125 176 166 144 111 100 72  166 155 125 206 197 169 233 224 197 198 188 164 204 194 170 119 111 88  154 146 121 162 155 123 181 175 143 150 142 122 145 136 123 235 225 215 253 243 232 228 221 205 236 229 213 231 223 215 231 223 217 230 224 215 230 224 215 231 225 216 231 225 216 231 225 216 231 225 216 232 227 215 232 227 215 232 227 215 232 227 215 232 227 215 232 227 215 233 228 216 233 228 216 234 229 217 234 229 217 235 230 218 235 230 218 235 230 220 235 230 220 235 230 220 235 230 220 236 231 222 236 231 222 236 231 222 236 231 222 238 232 223 238 232 223 239 234 224 239 234 224 239 234 224 239 234 224 241 236 226 241 236 226 241 236 226 241 236 226 242 237 227 242 237 227 242 237 227 242 237 227 242 237 227 240 235 225 239 234 224 238 232 223 238 232 223 239 234 224 247 242 232 238 232 223 236 231 222 243 238 229 250 242 233 249 241 232 246 238 232 244 236 229 247 236 233 250 239 236 208 198 192 133 122 114 126 114 102 155 144 129 98  88  68  93  84  60  86  78  45  93  86  48  93  86  48  86  79  41  87  82  43  79  74  35  100 95  56  138 134 90  129 126 77  172 168 124 223 217 187 171 162 145 151 143 132 218 210 204 239 233 228 237 234 228 248 244 240 248 244 240 246 245 238 246 245 238 244 241 235 241 237 231 241 237 231 243 240 232 243 240 232 242 239 229 242 239 229 242 239 229 243 238 231 243 238 231 243 238 231 243 238 231 245 239 230 245 239 232 245 239 232 245 239 232 246 240 233 246 240 233 246 240 233 246 240 233 247 241 234 247 242 232 247 242 232 247 242 232 246 241 231 246 241 231 246 241 231 246 241 231 246 241 231 246 241 231 246 241 229 245 240 228 245 240 228 243 238 229 245 239 230 245 239 230 246 240 233 246 240 233 248 242 235 248 243 233 249 244 232 249 245 230 250 246 232 249 245 230 248 243 231 247 242 232 247 241 234 246 240 233 244 241 231 243 240 230 243 240 230 243 240 230 243 240 230 243 240 230 243 240 230 243 240 232 234 234 225 234 233 227 234 233 227 234 233 227 238 237 230 238 237 230 238 237 230 237 236 229 237 236 229 236 234 230 236 234 230 236 234 228 230 229 222 239 238 231 236 233 225 234 230 222 235 232 224 145 143 130 124 121 95  137 133 100 199 193 159 187 178 145 154 148 113 115 109 75  104 96  58  141 135 100 125 128 104 173 180 164 177 180 172 182 183 176 147 142 130 119 113 95  123 112 93  127 117 97  131 123 103 127 119 99  123 112 91  164 143 120 180 144 115 161 115 78  173 116 76  176 115 72  176 117 73  168 112 67  168 111 69  163 107 64  167 110 68  176 119 77  169 112 70  162 105 63  165 108 65  171 118 77  166 120 79  151 114 79  180 155 129 170 150 131 166 150 138 226 214 204 253 245 241 249 243 240 240 234 229 238 232 225 238 232 225 240 234 227 242 237 229 247 241 234 249 244 236 247 241 234 254 248 241 252 246 239 248 242 235 248 242 235 248 242 235 248 242 235 248 242 235 248 242 235 253 248 238 230 224 215 255 250 240 252 246 239 243 233 234 202 193 192 116 108 99  104 97  84  180 171 160 154 145 129 152 142 116 162 154 120 129 119 83  132 122 89  164 152 128 228 215 196 189 178 161 139 128 109 88  81  56  146 141 116 221 218 196 124 123 105 165 162 154 137 136 127 153 158 141 132 140 117 86  96  77  81  95  76  90  109 93  73  94  80  85  107 97  94  113 109 124 135 134 70  75  75  72  74  73  102 100 96  65  60  52  172 162 152 167 153 142 172 158 145 184 170 154 163 150 131 159 148 127 168 158 134 162 152 130 173 162 143 178 167 153 174 165 152 172 170 153 166 171 154 176 187 177 177 184 180 120 119 113 148 142 135 163 160 149 139 138 131 129 128 133 110 113 121 131 138 142 53  61  65  37  52  56  37  50  53  165 168 162 203 202 193 182 183 176 166 158 149 184 162 142 160 122 89  165 109 61  172 110 58  171 113 62  168 117 68  160 116 67  152 113 72  134 103 68  166 142 118 155 139 124 115 107 98  125 121 118 141 140 136 223 222 215 244 241 235 255 255 247 247 243 235 244 241 233 247 243 235 247 243 235 243 240 232 241 237 231 242 238 233 244 242 238 246 244 240 245 243 239 244 242 238 244 242 238 244 242 238 245 243 241 245 243 241 245 243 241 245 243 241 246 244 242 246 244 242 246 244 242 246 244 240 249 246 238 249 246 236 249 246 236 249 246 236 249 246 236 249 246 236 249 246 236 249 246 236 249 246 238 249 246 238 249 246 238 249 246 238 250 246 241 250 246 241 250 246 241 250 246 241 250 246 241 250 246 241 248 247 241 248 247 241 248 247 241 248 247 241 248 247 241 248 247 241 248 247 241 247 246 240 247 246 240 248 247 241 251 250 241 251 250 241 248 248 239 245 244 235 250 247 239 209 206 198 171 166 156 139 131 123 143 133 123 168 158 145 183 174 159 132 126 108 140 137 115 132 132 109 117 116 96  82  82  66  94  93  82  68  67  60  70  68  67  83  81  82  113 113 113 82  82  77  47  49  34  79  82  67  66  68  58  46  45  38  31  30  19  55  55  39  68  69  48  60  61  38  66  67  44  53  54  35  57  57  44  55  54  45  62  62  60  50  51  46  60  65  48  62  68  48  63  70  56  62  68  61  62  68  72  77  82  94  64  68  87  38  44  64  48  61  82  75  89  102 66  70  73  80  79  68  134 131 98  98  91  48  106 102 57  157 150 110 160 152 118 185 177 146 171 163 132 149 141 109 148 142 109 147 140 108 141 135 102 187 180 153 182 176 158 165 161 147 219 214 202 255 255 245 253 247 240 255 249 242 254 248 241 252 246 239 252 246 239 252 246 239 253 248 238 253 248 238 254 248 241 255 249 242 255 251 243 255 251 243 255 251 243 255 251 243 255 251 243 255 251 243 255 251 245 255 251 245 253 251 247 253 251 247 252 250 246 255 255 252 251 248 242 255 255 249 217 211 204 155 145 137 125 113 103 203 190 174 129 114 94  187 174 144 201 187 146 170 157 114 126 112 73  105 90  57  61  48  13  126 116 83  105 95  62  137 126 93  167 159 123 154 146 112 126 119 91  36  29  11  64  55  42  200 190 182 253 242 234 248 238 228 237 229 211 181 173 155 233 227 213 108 101 87  70  67  45  54  55  25  77  83  43  92  97  52  124 123 84  117 111 79  171 162 138 253 240 224 241 229 220 188 176 164 74  62  39  161 150 122 159 148 118 114 102 74  178 166 140 175 164 138 156 144 116 145 133 108 154 144 122 160 150 128 169 160 131 91  82  53  72  63  37  95  86  55  150 144 101 121 118 67  98  98  44  134 134 91  121 125 101 68  71  66  131 132 139 102 101 111 92  86  91  172 163 161 220 211 198 178 171 146 171 166 129 233 229 182 215 209 157 187 182 127 146 141 88  180 173 130 169 161 129 177 167 143 188 178 154 196 186 162 198 188 164 196 186 162 192 183 159 190 180 158 185 175 156 182 171 152 183 174 157 133 123 112 10  1   1   8   0   8   7   1   6   5   3   3   1   1   1   
121 121 123 54  54  54  72  72  72  210 208 204 223 222 215 212 211 203 217 216 207 231 230 221 231 230 221 231 230 221 230 229 220 230 227 217 229 226 216 230 227 217 230 227 217 232 227 217 232 227 217 234 229 219 234 229 219 235 230 220 235 230 220 236 232 220 236 232 220 238 233 221 238 233 221 236 234 221 235 232 220 235 230 218 234 229 217 234 229 217 234 229 217 233 228 216 241 236 224 238 233 221 234 229 217 242 237 225 246 241 229 241 236 224 232 227 215 241 236 224 241 236 224 242 237 225 242 237 225 243 239 227 243 239 227 245 240 228 243 239 227 243 239 227 242 237 225 242 237 225 242 237 225 241 238 225 242 239 227 242 239 227 241 238 225 241 238 225 243 241 228 243 241 228 241 238 225 241 238 227 241 238 227 241 238 227 241 238 227 241 238 227 241 238 227 241 238 227 241 238 227 240 236 228 240 236 228 238 237 228 238 237 228 247 247 236 235 232 222 168 162 155 42  35  26  87  79  59  93  83  62  79  66  47  114 101 80  107 94  71  117 105 82  93  80  59  96  83  65  81  67  54  93  79  67  43  28  17  153 139 128 220 206 192 215 203 180 160 153 112 163 157 111 192 185 149 197 188 159 141 131 107 168 158 136 217 207 185 216 206 182 208 199 168 178 170 137 184 175 146 109 99  75  81  70  49  121 112 88  126 115 89  151 139 113 63  53  29  99  89  65  107 98  74  106 96  72  126 118 93  154 146 121 154 150 120 123 118 90  159 153 132 235 228 212 245 238 227 236 228 217 233 226 215 232 225 214 228 220 211 228 220 213 227 222 212 227 222 212 228 223 213 230 224 215 231 225 216 231 225 216 232 227 215 232 227 215 232 227 215 232 227 215 232 227 215 232 227 215 233 228 216 233 228 216 234 229 217 234 229 217 235 230 218 235 230 218 235 230 220 235 230 220 235 230 220 235 230 220 236 231 222 236 231 222 236 231 222 236 231 222 238 232 223 238 232 223 239 234 224 239 234 224 239 234 224 239 234 224 241 236 226 241 236 226 241 236 226 241 236 226 242 237 227 242 237 227 242 237 227 242 237 227 242 237 227 243 238 229 245 239 230 245 239 230 245 239 230 245 239 230 228 223 213 242 237 227 250 245 236 248 243 233 242 234 225 239 232 223 236 228 219 236 228 221 228 217 214 237 227 221 248 238 230 148 138 128 111 100 85  135 125 106 91  81  57  83  74  45  93  86  50  100 93  52  100 93  52  93  86  46  91  86  44  101 97  55  84  79  37  102 98  52  114 111 60  161 157 110 202 196 164 149 141 121 143 135 124 219 211 207 238 231 229 247 242 239 238 235 229 238 235 227 237 236 227 237 236 227 241 237 229 244 241 233 244 241 233 242 239 231 241 238 227 242 239 227 242 239 227 242 239 229 243 238 231 243 238 231 243 238 231 243 238 231 243 238 231 243 238 231 245 239 234 245 239 234 245 239 234 245 239 234 246 240 235 246 240 235 246 240 233 246 240 233 246 240 233 246 240 233 246 240 233 246 240 233 246 240 233 246 240 233 245 239 232 245 239 232 247 241 236 247 241 236 248 242 237 249 243 240 249 243 240 249 243 240 248 242 239 248 242 239 246 240 235 245 239 232 243 239 227 242 238 223 243 239 225 243 239 225 245 240 228 246 241 231 247 241 234 246 240 233 244 241 233 243 240 232 241 237 229 242 239 231 242 239 231 242 239 231 242 239 231 242 239 231 240 239 233 240 239 235 241 240 236 240 239 235 240 239 235 239 237 233 239 237 233 239 237 233 236 234 230 236 234 232 234 232 231 234 233 229 229 227 223 231 230 223 237 234 226 228 225 217 236 233 225 146 144 129 115 113 86  141 138 103 213 208 171 187 179 143 133 127 90  128 123 86  98  91  50  129 126 88  103 105 79  173 178 163 177 183 174 180 182 174 148 145 132 129 123 104 124 113 94  117 106 87  120 111 94  129 121 101 119 109 87  163 142 119 181 145 116 165 118 82  174 117 77  168 107 63  178 119 75  173 116 72  172 115 72  160 103 61  160 103 59  173 116 72  175 119 74  169 113 68  165 108 65  165 112 71  167 123 83  163 130 96  181 162 141 158 144 131 192 177 168 253 240 233 249 240 238 245 238 236 242 238 233 245 242 234 245 242 234 242 239 231 251 248 240 254 250 242 247 243 235 233 229 221 237 234 226 244 241 233 248 244 236 245 242 234 247 243 235 247 243 235 247 243 235 247 243 235 242 239 229 245 243 232 242 239 229 254 248 241 245 238 236 252 245 243 165 160 151 112 105 94  126 119 110 143 134 121 150 143 116 204 196 160 176 169 130 139 131 95  131 121 95  181 170 151 204 193 176 140 129 112 98  90  67  157 151 128 213 210 188 129 125 108 145 142 134 99  99  90  92  94  80  96  101 86  62  70  58  75  87  83  101 116 118 65  84  91  78  96  110 102 122 138 92  113 126 57  75  87  52  66  75  62  72  78  75  79  80  165 163 161 164 155 151 167 154 147 192 182 172 161 152 136 172 164 142 184 176 152 173 166 141 166 159 136 168 159 143 173 166 150 167 166 144 158 162 140 162 169 157 159 162 157 143 137 133 158 153 146 168 167 158 147 147 143 157 158 162 120 123 131 133 139 143 35  46  49  13  29  33  29  42  44  168 172 166 209 208 199 182 183 176 166 158 149 184 162 142 161 123 90  165 109 61  172 110 58  171 113 62  168 117 70  153 112 72  151 120 87  170 151 127 148 137 122 114 111 103 104 105 98  162 161 153 240 239 231 247 243 237 244 240 237 245 241 240 249 244 244 251 248 249 237 234 235 237 234 235 251 249 247 245 243 239 247 246 242 251 249 245 252 250 246 250 248 244 245 243 239 244 242 238 245 243 239 245 243 241 245 243 241 245 243 241 245 243 241 245 245 242 245 245 242 245 245 242 246 244 240 249 246 238 249 246 236 249 246 236 249 246 236 249 246 236 249 246 236 249 246 236 249 246 236 249 246 238 249 245 240 249 245 240 249 245 240 250 246 241 250 246 241 250 246 241 250 246 241 250 246 241 250 246 241 248 247 241 248 247 241 247 248 241 247 248 241 247 248 241 247 248 241 247 248 241 247 248 241 247 248 241 243 245 237 241 243 233 243 245 235 248 249 242 254 253 247 254 253 247 255 255 249 241 235 230 196 188 182 180 171 160 156 147 134 162 153 138 164 158 137 117 114 90  176 173 149 185 184 161 134 132 116 117 114 104 70  66  62  75  73  73  83  82  87  87  87  91  88  90  92  66  69  66  50  53  47  50  52  49  48  49  44  48  50  34  72  76  50  75  81  42  82  88  47  63  66  33  57  59  34  66  70  48  71  74  55  83  86  67  64  68  46  71  77  50  69  76  51  66  73  55  62  70  60  59  66  68  73  80  91  62  65  85  36  41  64  72  84  107 65  75  95  76  80  92  92  90  89  148 143 120 135 127 93  127 118 89  132 123 94  161 150 120 133 122 92  157 146 115 146 137 106 107 101 69  148 142 109 155 149 116 176 169 141 189 183 165 176 171 157 254 249 237 247 242 232 255 249 242 254 248 241 252 246 239 252 246 239 252 246 239 252 246 239 252 246 237 252 246 237 254 248 241 255 249 242 255 249 242 255 249 242 255 251 243 255 251 243 255 251 243 255 251 243 255 251 245 255 251 245 253 252 245 253 251 247 252 250 246 255 255 254 251 247 246 255 253 250 249 244 236 167 159 151 156 144 137 169 157 147 170 155 144 179 166 145 208 198 162 104 94  57  105 94  64  115 103 77  48  37  9   136 125 94  52  41  10  116 105 75  142 133 107 38  27  6   22  13  0   26  19  6   23  15  0   96  88  70  242 235 217 239 233 215 255 247 225 255 255 235 220 210 200 124 116 108 56  50  36  67  66  48  78  84  59  60  67  37  110 109 73  176 169 130 227 214 180 212 198 171 213 199 183 190 177 163 85  72  49  150 138 110 167 156 126 103 92  64  129 117 91  194 182 157 115 103 75  76  65  39  133 123 99  152 142 116 114 106 73  78  70  34  69  60  31  76  67  40  95  86  55  94  88  54  69  66  29  116 117 85  107 110 93  55  60  56  112 116 121 123 124 133 98  92  98  87  77  78  183 176 167 200 194 173 220 214 182 199 194 153 189 183 135 143 138 88  195 189 141 199 192 151 210 201 172 208 198 174 203 193 169 199 190 166 198 188 164 196 186 162 192 183 159 190 180 158 185 175 156 182 171 152 183 174 157 133 123 112 10  1   1   8   0   8   7   1   6   5   3   3   1   1   1   
154 151 155 46  43  46  92  90  91  202 200 198 231 229 225 229 227 221 226 225 219 224 223 214 224 223 214 225 224 215 225 224 215 228 225 215 229 226 216 230 227 217 230 227 217 232 227 217 232 227 217 234 229 219 234 229 219 235 230 220 235 230 220 236 232 220 236 232 220 238 233 221 238 233 221 237 235 222 236 234 221 239 234 222 239 234 222 240 235 223 240 235 223 243 239 227 245 240 228 234 229 217 247 242 230 241 236 224 236 232 220 238 233 221 246 241 229 241 236 224 241 236 224 241 236 224 241 236 224 240 235 223 240 235 223 240 235 223 240 235 223 241 236 224 241 236 224 242 237 225 242 237 225 241 238 225 241 238 225 242 239 227 241 238 225 237 235 222 245 243 230 245 243 230 237 234 224 241 238 227 241 238 227 241 238 227 241 238 227 241 238 227 241 238 227 241 238 227 241 237 229 240 236 228 240 236 228 238 237 228 238 237 228 232 231 222 237 234 226 198 192 187 59  51  44  93  84  69  93  83  64  86  73  54  124 112 91  92  80  54  103 91  66  100 87  66  93  80  61  96  83  67  126 113 99  50  39  27  147 135 125 150 138 129 196 185 170 183 175 150 170 163 134 156 149 120 80  73  46  108 102 72  88  81  54  118 108 86  182 172 150 163 154 127 121 113 82  163 155 121 123 114 81  106 98  64  116 105 75  153 141 116 121 108 85  82  70  49  102 91  70  140 130 108 162 152 130 159 152 129 155 147 125 138 133 109 183 178 155 232 226 208 244 237 221 233 227 213 236 228 217 243 235 226 236 228 219 231 223 215 231 223 215 230 224 215 230 224 215 231 225 216 231 225 216 231 225 216 231 225 216 232 227 215 231 226 214 232 227 215 232 227 215 232 227 215 232 227 215 233 228 216 233 228 216 234 229 217 234 229 217 235 230 218 235 230 218 234 229 219 235 230 220 235 230 220 235 230 220 236 231 222 236 231 222 236 231 222 236 231 222 238 232 223 238 232 223 239 234 224 239 234 224 239 234 224 239 234 224 242 237 227 241 236 226 241 236 226 240 235 225 242 237 227 242 237 227 242 237 227 242 237 227 241 236 226 242 237 227 241 236 226 241 236 226 241 236 226 240 235 225 249 244 234 242 237 227 236 231 222 236 231 222 244 236 227 244 236 227 244 236 227 244 236 229 244 233 230 228 218 212 221 211 203 129 120 107 116 105 88  117 107 85  63  54  27  97  89  55  89  81  43  82  75  34  82  75  32  89  82  39  87  83  39  89  85  41  72  68  24  137 133 87  138 135 86  162 157 113 121 114 85  149 141 121 164 156 145 211 205 200 229 225 222 240 236 232 245 242 234 245 242 234 244 243 234 241 241 232 241 237 229 244 241 233 244 241 233 240 236 228 241 238 227 242 239 229 242 239 229 242 239 229 243 238 231 243 238 231 243 238 231 243 238 231 243 238 231 243 238 231 245 239 234 245 239 234 245 239 234 245 239 234 246 240 235 246 240 235 246 240 233 246 240 233 246 240 233 246 240 233 246 240 233 246 240 233 246 240 233 246 240 233 245 239 234 245 239 234 246 239 237 246 239 237 246 239 237 246 239 239 246 239 239 246 239 239 246 239 239 246 239 237 246 240 235 247 241 234 248 243 233 248 243 231 248 243 231 248 243 231 241 236 226 241 236 226 242 237 229 242 237 229 242 239 231 241 237 229 241 237 229 241 237 229 241 237 229 240 236 228 240 236 228 238 235 229 237 235 231 237 235 231 237 235 231 237 235 231 233 232 228 233 232 228 234 233 229 234 233 229 234 232 231 234 232 231 234 232 231 234 232 231 227 226 222 226 225 219 237 234 228 224 221 213 237 234 226 148 144 129 111 108 82  146 142 109 137 131 99  119 111 77  136 131 94  106 100 64  82  74  38  61  57  24  87  88  65  173 178 163 178 184 176 167 171 163 137 135 122 136 129 113 130 119 102 122 109 90  113 102 85  121 110 94  117 104 86  162 141 118 182 146 117 167 121 84  174 117 77  162 101 58  180 121 77  176 120 75  177 117 76  156 100 57  154 98  53  169 113 68  179 122 77  176 119 77  175 118 78  169 118 81  167 129 96  175 147 122 175 157 143 161 149 139 215 202 195 255 244 239 231 223 219 247 241 238 241 237 231 248 244 236 248 244 236 241 237 229 250 247 239 248 244 236 228 225 217 202 199 191 203 200 192 226 222 214 244 241 233 247 243 235 247 243 235 244 241 233 248 244 236 247 243 235 243 240 230 254 251 240 252 249 239 235 230 222 255 251 249 255 250 247 209 203 194 143 138 126 115 107 98  151 144 130 135 127 105 184 178 146 203 195 157 141 133 97  126 117 90  146 135 116 199 188 172 114 105 88  88  82  61  168 163 142 200 197 177 135 131 114 148 145 134 100 97  87  81  81  67  83  84  75  45  53  48  25  35  39  50  66  79  40  57  79  33  51  79  60  78  106 30  52  72  53  76  91  76  96  112 55  71  84  83  93  99  160 162 164 163 157 154 165 155 149 182 175 166 141 137 122 161 157 138 175 171 150 152 151 131 138 137 119 141 138 125 158 158 144 155 158 139 144 149 131 145 151 140 137 140 135 140 139 135 141 137 133 134 135 130 108 111 107 76  78  84  84  87  95  90  95  102 22  32  40  40  55  63  49  62  66  171 174 168 195 194 183 183 182 174 166 159 145 184 162 142 161 122 92  163 109 63  169 111 60  166 115 66  162 118 78  152 118 86  171 150 127 142 131 117 99  95  87  119 120 115 193 196 190 248 248 237 248 245 234 245 241 238 250 244 244 248 243 242 242 237 239 239 236 240 248 246 249 248 246 249 239 237 238 247 245 244 245 243 239 243 241 237 240 239 235 251 249 245 250 248 244 245 243 239 245 243 239 245 243 241 245 243 241 245 243 241 245 243 241 245 245 242 245 245 242 245 245 242 246 244 240 249 245 240 249 246 238 249 246 238 249 246 238 249 246 236 249 246 236 249 246 236 249 246 236 249 246 238 249 245 240 249 245 240 249 245 240 249 245 240 250 246 241 250 246 241 250 246 241 250 246 241 250 246 241 247 246 240 248 247 241 246 247 240 247 248 241 247 248 241 247 248 241 247 248 241 247 248 241 247 248 241 247 248 241 248 250 240 247 248 239 245 246 238 245 246 238 246 244 240 246 244 240 249 245 242 247 241 236 218 211 202 193 183 173 185 176 163 148 142 126 162 159 137 145 142 118 118 114 93  97  93  76  134 130 115 82  76  67  76  74  70  75  74  77  93  92  97  95  97  101 50  52  51  51  53  52  68  71  70  62  66  58  95  99  77  125 130 96  102 109 68  65  72  29  80  83  48  70  73  44  63  67  43  72  76  52  64  68  42  70  75  46  68  72  45  64  70  45  59  66  48  55  63  53  54  63  67  70  77  91  58  64  82  30  38  61  62  75  96  66  77  96  60  65  79  88  88  88  165 159 140 169 160 133 149 140 116 120 110 86  117 106 78  109 98  70  142 130 102 150 138 110 112 103 74  150 143 116 177 170 143 172 166 143 145 140 124 223 218 204 246 241 229 255 251 239 254 249 239 253 247 240 250 245 238 252 246 239 252 246 239 252 246 239 252 246 237 252 246 237 254 248 241 255 249 242 255 249 242 255 249 242 255 251 243 255 251 243 255 251 243 255 251 243 255 251 245 255 251 245 255 251 245 253 252 245 253 251 247 250 248 246 255 254 253 254 249 246 255 254 247 211 204 195 152 142 134 150 140 132 205 193 184 217 206 189 203 194 163 156 148 114 86  77  51  113 103 79  49  40  11  86  75  44  56  43  11  63  49  22  67  54  36  29  20  5   20  14  0   19  13  0   39  32  9   78  70  46  175 170 147 233 228 203 211 204 176 251 244 221 172 163 150 55  45  34  36  29  15  73  71  54  112 120 99  116 124 99  99  100 65  158 153 116 186 176 138 186 173 141 205 190 170 130 115 97  97  86  60  146 135 107 166 155 125 143 132 101 123 111 86  142 130 104 123 112 84  156 144 116 103 91  68  133 122 96  100 89  54  103 93  60  73  66  41  74  66  46  106 98  78  84  76  51  86  81  51  74  74  49  96  101 88  99  104 104 97  102 109 98  101 111 114 113 122 102 97  101 142 136 131 147 140 127 127 119 97  177 171 139 201 193 157 110 103 62  167 160 119 192 185 149 209 200 171 206 197 173 203 193 169 201 191 167 206 197 173 199 190 166 189 179 155 182 172 150 183 173 153 180 169 150 181 173 155 130 121 110 8   0   0   6   0   5   4   0   3   3   0   1   2   2   2   
178 173 173 71  67  63  72  68  65  201 197 194 231 228 222 229 225 220 224 221 213 226 222 214 226 222 214 226 222 214 226 222 214 230 227 219 229 226 218 230 227 219 230 227 219 231 228 220 231 228 220 233 229 221 233 229 221 234 229 219 234 229 219 234 231 220 234 231 220 235 232 222 235 232 222 236 234 221 236 234 221 236 234 221 236 234 221 237 235 222 237 235 222 237 234 224 237 234 224 237 234 224 237 234 224 240 235 225 240 235 225 240 235 225 240 235 225 241 236 226 241 236 226 241 236 226 241 236 226 240 237 226 240 237 226 240 237 226 240 237 226 240 237 226 240 237 226 240 237 226 240 237 226 241 238 227 241 238 227 241 238 227 241 238 227 240 237 226 238 236 225 238 236 225 238 236 225 240 236 228 240 236 228 240 236 228 240 236 228 240 236 228 240 236 228 240 236 228 240 236 228 238 235 229 238 235 229 237 236 229 237 236 229 226 225 217 241 237 229 192 186 181 75  67  63  87  77  71  77  65  55  119 106 92  132 119 101 97  85  62  95  83  60  96  84  63  95  82  64  89  76  58  133 120 104 60  48  34  110 98  86  149 138 126 70  58  46  116 108 90  98  90  69  82  77  53  88  83  57  131 124 97  137 130 103 72  63  39  113 104 77  135 127 93  88  81  40  127 121 73  132 126 76  112 105 55  74  65  23  129 116 86  142 127 105 156 143 122 149 139 120 161 150 133 169 160 143 154 145 127 145 139 120 186 180 161 233 227 211 246 240 224 231 224 211 238 231 220 236 228 217 232 227 215 230 225 213 230 225 213 230 224 215 230 224 215 230 224 215 231 226 214 231 226 214 231 226 214 232 227 215 232 227 217 231 225 216 227 222 212 225 220 210 236 231 222 236 231 222 236 231 222 238 232 223 240 235 225 240 235 225 236 231 222 234 229 219 235 230 220 235 230 220 235 230 220 235 230 220 236 231 222 236 231 222 238 232 223 238 232 223 239 234 224 239 234 224 240 235 225 240 235 225 248 243 233 246 241 231 243 238 229 242 237 227 240 235 225 241 236 226 242 237 227 242 237 227 241 236 226 240 235 225 241 236 226 240 235 225 241 236 226 241 236 226 241 236 226 241 236 226 241 236 226 241 236 226 241 236 226 241 236 226 242 234 225 242 234 225 242 234 227 242 233 229 238 230 226 244 236 229 185 177 168 95  86  73  120 112 92  91  83  58  62  55  25  66  60  26  67  62  23  88  84  42  65  61  17  72  68  24  78  74  30  80  76  32  60  53  10  105 98  57  133 126 87  147 138 107 173 166 139 163 154 137 159 152 140 213 207 202 238 234 231 231 227 224 238 237 230 238 237 230 240 236 230 240 236 230 241 237 231 242 239 231 242 239 231 241 237 229 242 237 229 243 238 231 243 238 231 243 238 231 243 238 231 243 238 231 243 238 231 243 238 231 243 237 233 243 237 233 243 237 233 243 237 233 245 239 234 245 239 234 245 239 234 245 239 234 245 239 234 245 239 234 245 239 234 245 239 234 245 239 234 245 239 234 245 239 234 245 239 234 245 239 234 245 239 234 243 237 233 243 237 233 245 239 234 245 238 236 245 238 236 245 238 236 245 238 236 245 239 234 245 239 234 243 237 233 243 238 231 243 238 231 243 238 231 243 238 231 242 237 229 242 237 229 242 237 229 242 237 229 240 236 230 240 236 230 241 237 231 240 236 230 240 236 230 240 236 230 240 236 230 238 235 229 237 235 231 236 234 230 236 234 230 236 234 230 232 231 227 232 231 227 232 231 227 232 231 227 232 230 229 232 230 229 232 232 230 232 232 228 226 225 219 233 232 226 234 233 227 228 224 219 238 235 227 154 149 135 116 111 87  127 123 95  134 126 102 159 149 123 67  62  27  78  72  38  96  90  62  36  30  7   60  61  42  178 186 170 169 177 165 169 176 164 141 142 126 133 127 111 121 110 94  116 103 87  112 99  85  131 117 104 130 117 99  157 136 113 165 129 100 169 123 86  166 109 69  168 107 63  180 121 77  180 121 77  164 103 62  167 108 65  151 98  50  163 109 61  176 117 73  163 103 62  172 117 81  170 125 95  180 147 129 178 155 145 175 156 149 187 172 166 249 237 230 236 226 218 237 229 222 247 241 236 236 233 225 235 232 224 249 246 238 249 246 238 238 235 227 238 235 227 157 154 146 117 114 106 107 104 96  157 154 146 243 240 232 241 237 229 251 248 240 241 237 229 249 246 238 237 234 226 243 238 231 234 228 221 246 240 233 248 242 235 243 234 232 251 242 238 239 232 223 176 169 156 139 133 117 154 148 132 158 151 135 180 173 150 183 176 144 131 126 91  130 123 96  159 152 129 154 145 127 119 110 92  61  55  35  164 158 137 203 199 180 138 133 117 135 133 117 111 109 96  100 97  87  94  92  86  45  52  52  42  54  61  45  61  78  48  67  92  46  63  96  69  85  116 82  97  112 56  74  86  67  89  109 49  69  89  94  108 117 163 168 167 155 148 139 164 155 142 174 172 159 145 144 133 148 150 136 154 156 144 144 148 137 119 125 116 115 123 116 129 139 133 142 155 148 121 131 123 131 139 132 117 122 118 126 132 134 68  71  77  76  78  80  41  40  45  41  39  49  62  63  74  92  97  109 41  50  63  51  62  81  51  60  76  162 167 163 193 192 179 174 175 156 169 160 143 192 170 152 161 124 100 155 107 64  166 117 67  144 103 62  160 131 100 183 166 147 143 133 123 113 108 98  142 138 133 217 216 209 251 250 243 243 240 232 247 243 237 245 241 238 245 241 238 245 241 238 245 241 240 245 241 240 245 241 240 245 241 240 244 242 240 244 242 238 244 242 238 247 242 239 247 242 239 245 243 239 245 243 239 246 244 240 245 243 239 245 245 242 245 245 242 245 245 242 245 245 242 245 245 242 245 245 242 245 245 242 246 244 242 249 244 244 249 244 244 249 245 242 249 245 240 249 246 238 249 246 236 249 246 236 249 246 236 250 247 239 250 246 241 249 245 240 248 244 238 249 245 240 250 246 241 251 250 243 252 251 244 252 251 244 248 247 241 247 246 240 246 245 238 247 246 240 248 247 241 248 247 241 248 247 241 248 248 239 248 248 239 248 248 239 250 249 240 248 248 239 248 248 239 248 247 241 248 247 243 246 244 242 255 255 253 251 247 246 249 243 240 254 246 242 233 225 219 183 175 169 153 145 137 143 141 126 146 145 125 157 150 132 116 108 88  165 158 133 172 166 143 102 100 87  77  76  70  99  99  97  80  80  80  58  59  54  66  67  62  76  79  76  60  64  52  91  95  69  142 148 114 114 120 86  71  76  45  76  80  51  86  90  64  70  74  48  56  60  34  75  77  51  71  73  50  61  62  43  64  66  52  54  61  47  57  65  58  60  68  74  62  71  84  54  67  83  25  38  54  60  73  89  63  72  85  66  72  79  71  71  69  158 152 133 163 151 125 162 152 128 163 154 127 144 132 107 155 141 116 160 148 125 160 148 125 138 128 106 152 144 124 174 168 150 144 137 121 182 177 163 240 235 223 255 254 242 255 250 238 247 244 233 252 249 239 247 243 235 250 247 239 249 246 236 249 246 236 250 247 237 250 247 237 252 249 239 252 249 239 254 251 240 254 251 240 255 249 242 255 249 242 255 249 242 255 249 242 255 251 243 255 251 243 255 251 243 255 251 245 254 250 244 255 253 248 255 253 248 252 249 243 255 252 245 252 246 239 194 186 179 140 133 124 179 170 157 218 209 189 206 198 167 197 188 157 69  60  33  100 91  65  41  33  0   57  46  11  88  73  39  117 101 74  89  75  64  16  6   0   55  50  25  52  48  17  63  59  31  73  68  40  144 137 110 194 187 160 162 158 128 158 153 125 69  64  41  39  33  12  46  40  19  84  83  58  67  76  48  83  94  63  54  64  31  48  53  22  113 111 82  127 118 91  190 174 150 146 129 105 156 142 117 154 143 115 163 152 121 157 146 115 189 178 152 160 148 123 186 174 146 197 186 158 167 155 130 129 115 90  119 103 77  158 144 121 73  65  54  101 98  90  102 95  83  62  53  33  171 170 138 155 158 129 96  100 90  78  82  86  98  102 117 93  99  115 104 112 123 106 110 118 113 107 111 114 105 103 130 122 113 157 148 133 183 173 151 184 175 148 189 178 150 190 179 151 210 200 174 213 204 180 210 200 176 203 193 169 203 193 169 198 188 164 194 184 160 189 179 157 190 180 160 180 169 150 184 175 158 130 121 110 11  2   3   5   0   4   4   0   3   9   6   7   2   2   4   
127 123 119 61  58  52  89  86  80  206 202 197 223 220 214 234 230 222 223 220 212 226 222 214 226 222 214 226 222 214 226 222 214 230 227 219 230 227 219 230 227 219 230 227 219 231 228 220 231 228 220 233 229 221 233 229 221 234 229 219 234 229 219 234 231 220 234 231 220 235 232 222 235 232 222 236 234 221 236 234 221 236 234 221 236 234 221 237 235 222 237 235 222 237 234 224 237 234 224 237 234 224 237 234 224 240 235 225 240 235 225 240 235 225 240 235 225 241 236 226 241 236 226 241 236 226 241 236 226 240 237 226 240 237 226 240 237 226 240 237 226 240 237 226 240 237 226 240 237 226 240 237 226 241 238 227 241 238 227 241 238 227 240 237 226 240 237 226 238 236 225 238 236 225 238 236 225 238 235 227 240 236 228 240 236 228 240 236 228 240 236 228 240 236 228 240 236 228 240 236 228 238 235 229 238 235 229 237 236 229 237 236 229 234 234 225 244 241 233 189 183 178 67  58  57  79  68  65  74  61  54  101 87  74  121 108 89  100 87  64  97  85  62  100 87  66  97  84  66  86  73  54  104 91  73  54  43  26  124 113 96  175 164 147 159 148 131 164 155 138 117 109 89  65  60  34  87  82  54  143 136 107 214 208 178 147 138 111 133 124 95  97  90  49  103 97  47  160 156 98  112 108 48  130 124 64  122 114 64  175 162 130 179 165 142 184 171 150 187 174 156 170 159 143 152 143 128 132 126 110 164 157 143 224 217 204 245 238 225 242 235 221 231 224 211 238 231 220 236 228 217 232 227 215 230 225 213 230 225 213 230 225 213 230 224 215 230 224 215 231 226 214 231 226 214 231 226 214 231 226 214 231 225 216 233 228 218 236 231 222 239 234 224 236 231 222 225 220 210 225 220 210 236 231 222 228 223 213 231 225 216 234 229 219 236 231 222 238 232 223 238 232 223 238 232 223 238 232 223 239 234 224 239 234 224 239 234 224 238 232 223 236 231 222 235 230 220 235 230 220 234 229 219 234 229 219 235 230 220 240 235 225 245 239 230 246 241 231 243 238 229 239 234 224 236 231 222 238 232 223 239 234 224 241 236 226 240 235 225 240 235 225 241 236 226 241 236 226 241 236 226 241 236 226 241 236 226 241 236 226 241 236 226 243 235 226 243 235 226 243 235 228 243 234 230 235 226 222 235 227 220 143 135 124 91  84  71  123 115 95  65  58  33  64  58  26  66  60  26  57  52  13  64  59  18  73  69  27  67  63  21  69  64  22  88  84  42  113 106 65  81  73  35  117 108 77  187 177 151 186 179 154 163 154 137 144 136 125 204 198 193 243 239 236 251 247 246 238 236 232 238 237 230 240 236 230 240 236 230 241 237 231 241 237 231 241 237 229 241 237 229 243 237 233 243 237 233 243 237 233 243 237 233 243 238 231 243 238 231 243 238 231 243 238 231 243 237 233 243 237 233 243 237 233 243 237 233 245 239 234 245 239 234 245 239 234 245 239 234 245 239 234 245 239 234 245 239 234 245 239 234 245 239 234 245 239 234 245 239 234 245 239 234 245 239 234 245 239 234 243 237 233 243 237 233 245 239 234 245 239 234 245 239 234 245 239 234 243 237 233 243 237 233 245 239 234 243 237 233 243 237 233 243 237 233 243 237 233 243 237 233 242 237 229 242 237 229 242 237 229 242 237 229 240 236 230 240 236 230 241 237 231 240 236 230 240 236 230 240 236 230 240 236 230 238 235 229 237 235 231 236 234 230 236 234 230 236 234 230 232 231 227 232 231 227 232 231 227 232 231 227 232 230 229 232 230 229 232 232 230 232 232 228 226 225 219 233 232 224 233 232 226 228 224 219 240 234 227 158 154 140 121 115 92  129 122 97  98  88  68  128 118 97  78  72  40  107 101 69  83  75  52  36  32  15  66  66  50  173 178 163 179 188 176 174 181 167 147 147 131 132 126 108 123 112 93  124 111 95  117 103 90  142 128 114 121 108 89  154 132 110 161 125 96  161 115 78  166 109 69  168 107 63  180 121 77  180 121 77  168 106 65  166 107 63  158 102 54  165 109 61  171 110 67  169 109 70  155 104 69  165 126 101 180 152 141 169 149 145 173 156 151 221 206 199 239 228 220 247 240 231 235 230 222 241 235 228 241 237 229 247 243 235 238 235 227 244 241 233 242 239 231 219 215 207 164 161 153 213 210 202 210 207 199 158 155 147 230 227 219 237 234 226 241 237 229 243 240 232 247 243 235 249 246 238 243 238 231 234 228 221 246 240 233 248 242 235 242 233 229 245 237 233 246 239 230 208 201 187 131 124 108 133 127 111 172 165 151 151 144 128 141 134 107 192 186 154 109 102 75  122 114 92  174 166 146 98  90  69  87  81  60  176 171 150 195 191 170 170 166 147 158 154 138 126 121 107 103 98  86  80  78  72  58  65  65  27  39  48  42  59  78  55  74  99  29  44  75  47  61  86  80  92  104 60  74  85  53  72  95  54  73  96  74  88  97  173 177 176 169 162 151 162 151 136 183 180 167 151 153 141 162 163 154 174 177 172 170 177 175 133 142 144 124 138 140 144 159 163 144 159 163 163 179 181 167 178 179 112 125 127 58  75  85  27  38  50  88  91  99  119 118 125 108 106 118 102 102 116 107 111 128 68  76  96  89  99  125 82  90  110 168 172 173 190 190 179 172 170 153 187 176 157 178 153 138 163 128 106 168 124 84  150 107 65  152 123 92  186 168 149 146 139 128 124 121 115 153 150 144 223 220 214 237 234 228 242 238 233 251 248 242 252 249 243 245 241 238 245 241 238 245 241 238 245 241 238 245 241 238 245 241 238 245 241 238 245 241 238 244 242 238 244 242 238 247 242 239 247 242 239 245 243 239 245 243 239 246 244 240 246 244 240 245 245 242 245 245 242 245 245 242 245 245 242 245 245 242 245 245 242 245 245 242 246 244 242 249 244 246 249 244 246 249 244 244 249 245 242 249 245 240 249 246 238 249 246 236 249 246 236 244 241 233 247 243 237 251 248 242 254 250 244 251 248 242 249 245 240 244 243 236 240 239 233 245 244 237 247 246 240 250 248 242 251 250 243 250 248 242 248 247 241 248 247 241 248 247 241 248 248 239 248 248 239 248 248 239 248 248 239 248 248 239 248 248 239 248 248 239 248 247 241 252 250 246 251 249 247 245 241 240 254 249 246 254 248 245 245 236 235 249 240 238 166 158 151 142 137 125 134 128 110 184 174 152 145 135 109 148 141 111 183 180 154 73  73  59  82  83  75  94  94  94  92  92  92  70  70  68  62  62  58  62  62  60  54  55  45  75  79  52  106 111 80  95  99  75  72  76  54  80  84  62  92  96  74  68  71  49  55  56  35  62  63  42  59  59  41  55  55  41  61  61  49  51  55  44  54  59  55  60  68  74  60  72  84  52  69  81  23  39  52  60  74  87  61  73  85  65  72  81  69  72  71  154 147 134 158 145 125 155 145 123 154 144 120 157 145 121 149 134 112 154 142 121 133 122 103 136 128 110 168 159 143 171 164 150 159 152 138 218 213 201 249 244 232 254 249 237 247 242 230 249 246 236 251 248 238 244 241 233 251 248 240 249 246 236 249 246 236 250 247 237 250 247 237 252 249 239 252 249 239 254 251 240 254 251 240 255 249 242 255 249 242 255 249 242 255 249 242 255 251 243 255 251 243 255 251 243 255 251 243 252 249 243 255 253 248 255 254 246 252 249 241 255 252 245 255 252 245 218 212 205 164 156 147 165 156 143 197 188 168 189 180 151 190 181 152 148 138 114 82  72  46  53  45  9   66  54  15  77  60  20  135 117 86  86  72  58  43  34  19  84  81  48  68  67  27  46  43  7   56  49  19  81  74  47  134 126 102 155 150 125 121 115 92  47  42  19  33  28  5   48  43  20  29  28  3   29  35  12  75  83  60  37  44  16  44  44  15  42  36  4   116 103 71  181 164 129 173 156 123 116 103 75  143 131 103 173 162 132 187 176 146 216 204 179 188 176 151 193 181 153 197 183 154 201 184 158 181 164 140 180 161 140 167 154 138 84  80  74  94  92  88  103 96  85  39  33  12  137 137 108 130 134 110 96  99  94  75  78  86  106 110 127 101 107 125 99  108 121 101 106 116 118 115 120 124 116 119 141 133 131 164 154 146 184 173 161 188 177 158 195 183 160 199 186 163 210 200 176 213 204 180 210 200 176 203 193 169 203 193 169 198 188 164 194 184 160 189 179 157 189 178 159 181 170 151 184 175 158 123 114 103 15  5   6   6   0   5   3   0   2   6   4   5   1   1   3   
89  85  82  70  66  60  87  83  78  208 204 199 220 216 211 231 228 220 227 223 215 226 222 214 226 222 214 227 223 215 227 223 215 230 227 219 230 227 219 230 227 219 230 227 219 231 228 220 231 228 220 233 229 221 233 229 221 234 229 219 234 229 219 234 231 220 234 231 220 235 232 222 235 232 222 236 234 221 236 234 221 236 234 221 236 234 221 237 235 222 237 235 222 237 234 224 237 234 224 237 234 224 237 234 224 240 235 225 240 235 225 240 235 225 240 235 225 241 236 226 241 236 226 241 236 226 241 236 226 240 237 226 240 237 226 240 237 226 240 237 226 240 237 226 240 237 226 240 237 226 240 237 226 241 238 227 241 238 227 241 238 227 240 237 226 240 237 226 238 236 225 238 236 225 238 236 225 238 235 227 238 235 227 238 235 227 238 235 227 238 235 227 238 235 227 238 235 227 238 235 227 237 234 228 237 234 228 236 234 228 236 234 228 234 234 225 244 241 233 189 183 178 67  58  57  80  69  66  75  62  55  82  68  55  114 101 82  82  70  47  87  75  51  99  86  65  104 92  71  99  86  65  69  57  36  33  23  1   114 104 83  175 165 143 161 151 127 148 141 113 126 119 89  92  86  54  150 144 110 188 183 146 199 193 159 166 157 126 100 93  57  75  69  23  86  82  26  90  86  26  127 124 61  101 95  35  95  87  37  136 124 89  151 137 112 145 133 112 171 158 139 163 152 136 147 138 122 164 157 143 226 219 208 238 233 221 236 232 220 234 229 217 232 227 215 236 232 220 234 229 217 232 227 215 230 225 213 230 225 213 230 225 213 230 224 215 230 224 215 231 226 214 231 226 214 231 226 214 231 226 214 231 225 216 233 228 218 236 231 222 239 234 224 245 239 230 233 228 218 233 228 218 245 239 230 236 232 220 239 234 222 242 237 225 243 239 227 242 237 225 241 236 224 241 236 224 241 236 224 242 237 225 242 237 225 242 237 225 242 237 225 242 237 225 242 237 225 242 237 225 243 239 227 246 241 231 245 239 230 240 235 225 236 231 222 236 231 222 239 234 224 243 238 229 245 239 230 242 237 227 239 234 224 238 232 223 239 234 224 240 235 225 240 235 225 240 235 225 241 236 226 241 236 226 241 236 226 241 236 226 241 236 226 243 235 226 243 235 226 243 235 228 243 235 228 245 237 231 212 205 196 114 106 95  103 97  81  113 105 85  50  43  16  64  57  28  62  56  21  67  62  25  60  55  16  70  65  25  50  45  6   63  58  18  147 142 102 223 215 177 162 154 118 189 180 149 210 200 174 152 145 122 144 136 118 164 156 145 206 201 193 233 229 225 238 234 233 238 236 232 238 237 230 240 236 230 240 236 230 241 237 231 241 237 231 241 237 231 241 237 231 243 237 233 243 237 233 243 237 233 243 237 233 243 238 231 243 238 231 243 238 231 243 238 231 242 236 231 242 236 231 243 237 233 243 237 233 243 237 233 243 237 233 245 239 234 245 239 234 243 237 233 243 237 233 243 237 233 243 237 233 245 239 234 245 239 234 245 239 234 245 239 234 243 237 233 243 237 233 243 237 233 243 237 233 245 239 234 245 239 234 245 239 234 245 239 234 243 237 233 243 237 233 243 237 233 243 237 233 243 237 233 243 237 233 243 237 233 243 237 233 242 237 229 242 237 229 242 237 229 242 237 229 240 236 230 240 236 230 240 236 230 240 236 230 240 236 230 240 236 230 240 236 230 238 235 229 237 235 231 236 234 230 236 234 230 236 234 230 232 231 227 232 231 227 232 231 227 232 231 227 232 230 229 232 230 229 231 231 229 231 231 227 226 225 217 233 232 224 233 232 226 228 224 219 240 234 227 164 160 145 127 122 101 129 121 99  92  82  60  104 94  70  81  75  43  107 100 71  44  38  17  27  22  8   68  68  52  165 170 154 169 176 162 158 165 149 144 144 126 124 118 97  117 106 87  126 113 97  113 102 87  146 135 118 118 105 87  157 136 113 165 129 100 158 111 75  166 109 69  168 107 63  180 121 77  179 122 77  170 114 69  163 107 62  167 109 63  169 108 63  172 108 68  172 114 76  148 103 71  172 140 116 178 155 145 158 141 135 185 170 163 246 233 226 237 227 219 246 239 230 239 234 224 235 232 222 241 237 229 247 243 235 238 235 227 244 241 233 255 255 255 230 227 219 142 138 130 130 127 119 132 129 121 136 133 125 240 236 228 255 255 247 241 237 229 243 240 232 247 243 235 249 246 238 243 238 231 234 228 221 246 240 233 248 242 235 244 235 231 242 233 229 251 243 234 242 234 223 165 158 144 129 122 108 122 114 103 165 158 142 131 124 99  170 163 136 165 158 133 116 109 84  148 140 118 116 109 86  93  87  64  169 164 141 195 190 166 212 207 186 203 199 178 191 188 166 133 127 109 63  60  47  70  77  77  18  30  42  37  52  72  69  86  108 40  55  75  49  63  79  77  87  95  70  79  92  34  48  71  64  79  101 60  69  80  178 180 181 183 172 169 164 152 143 180 173 159 162 159 146 178 180 170 181 184 181 171 177 182 131 140 151 108 121 137 111 126 144 98  114 125 103 123 130 91  112 123 58  81  96  54  80  101 71  91  112 124 130 139 118 116 124 99  97  109 96  97  115 97  103 126 78  85  112 70  79  107 72  80  101 156 160 164 189 188 181 182 177 165 180 167 151 187 160 146 156 118 99  160 118 87  157 120 92  173 155 140 153 147 140 127 123 117 157 153 148 219 215 209 255 255 251 249 245 240 243 239 234 250 246 241 238 235 229 247 242 239 247 242 239 247 242 239 247 242 239 245 241 238 245 241 238 245 241 238 245 241 238 245 241 238 245 241 238 247 242 239 247 242 239 245 243 239 245 243 239 246 244 240 246 244 240 246 244 240 246 244 240 246 244 240 246 244 240 245 245 240 245 245 240 245 245 240 246 244 240 249 245 242 249 245 242 249 245 242 249 245 240 249 246 238 249 246 238 249 246 236 249 246 236 254 250 242 251 248 240 248 244 236 244 241 233 249 246 238 251 248 240 254 253 245 255 255 247 245 244 237 247 246 240 250 248 242 251 250 243 250 248 242 248 247 241 248 247 241 250 248 242 248 248 239 248 248 239 248 248 239 248 248 239 250 247 239 250 247 239 250 247 239 250 247 239 254 250 242 252 249 243 245 242 236 254 249 246 249 243 240 255 251 249 246 239 237 137 128 124 123 111 99  160 148 127 165 154 121 150 139 106 154 147 119 115 113 96  58  61  55  82  84  88  79  78  85  84  83  90  62  61  64  47  47  47  55  55  55  61  59  55  71  72  54  75  76  55  61  61  47  57  57  46  64  64  53  71  71  60  66  65  54  58  55  45  58  55  45  59  56  46  57  54  41  63  60  49  52  54  42  55  59  53  62  67  74  62  71  84  54  68  79  25  39  52  60  73  91  61  72  91  63  72  85  68  72  75  150 142 133 149 138 124 145 134 117 142 132 113 152 140 119 142 127 107 145 133 112 121 111 92  149 140 125 182 175 162 160 153 140 196 191 179 250 246 234 255 253 241 252 247 235 245 240 228 251 248 238 249 246 236 242 239 231 255 251 243 250 247 237 249 246 236 249 246 236 249 246 236 252 249 239 252 249 239 252 249 239 252 249 239 255 249 242 255 249 242 255 249 242 255 249 242 255 251 243 255 251 243 255 251 243 255 251 243 252 249 241 255 254 246 255 254 246 252 249 241 255 253 245 255 255 248 241 235 228 188 180 172 145 136 123 194 186 168 228 219 193 204 193 167 184 171 150 72  60  36  53  42  10  73  61  22  82  64  18  110 92  48  97  86  58  84  77  49  72  69  27  72  70  23  67  63  21  70  62  30  58  48  29  141 130 115 199 192 178 136 132 117 49  45  30  36  32  15  59  53  32  49  45  28  22  23  18  37  35  29  40  29  10  131 114 81  145 123 80  219 197 148 201 182 129 127 111 64  95  82  50  142 130 102 174 163 133 195 184 154 211 200 174 195 183 158 193 181 153 197 183 154 207 189 161 208 189 166 213 198 180 173 164 151 82  81  72  97  97  85  158 150 128 109 102 77  106 108 87  108 112 99  98  102 105 71  74  87  108 112 131 109 115 135 100 106 122 106 111 123 127 124 130 140 133 133 158 149 145 174 164 156 188 176 164 194 183 166 203 191 170 209 197 174 211 201 177 213 204 180 210 200 176 204 194 170 203 193 169 198 188 164 194 184 160 189 179 157 188 177 158 182 171 152 183 174 157 115 105 95  18  9   10  8   0   8   2   0   1   3   0   1   0   0   1   
89  85  82  93  89  84  65  61  56  208 204 199 224 221 215 222 219 211 231 228 220 226 222 214 226 222 214 227 223 215 227 223 215 229 226 218 229 226 218 230 227 219 230 227 219 231 228 220 231 228 220 233 229 221 233 229 221 234 229 219 234 229 219 234 231 220 234 231 220 235 232 222 235 232 222 236 234 221 236 234 221 236 234 221 236 234 221 237 235 222 237 235 222 236 233 223 236 233 223 236 233 223 236 233 223 240 235 225 240 235 225 240 235 225 240 235 225 241 236 226 241 236 226 241 236 226 241 236 226 240 237 226 240 237 226 238 236 225 238 236 225 240 237 226 240 237 226 240 237 226 240 237 226 241 238 227 241 238 227 241 238 227 240 237 226 238 236 225 238 236 225 238 236 225 238 236 225 237 234 226 237 234 226 237 234 226 237 234 226 238 235 227 238 235 227 238 235 227 238 235 227 237 234 228 237 234 228 236 234 228 236 235 226 226 226 215 241 238 227 191 185 180 75  67  63  95  85  79  77  65  55  71  57  41  117 105 84  116 104 81  111 99  76  108 95  74  103 91  70  104 92  71  51  38  17  38  28  4   138 128 104 203 193 167 182 173 146 180 174 144 170 164 132 117 111 79  188 183 148 218 212 177 208 202 168 148 140 106 63  56  17  79  74  25  98  93  38  99  95  35  98  94  34  152 145 88  128 119 72  142 129 95  155 141 116 133 121 98  165 152 134 145 134 117 138 129 116 202 195 184 240 233 222 236 232 220 233 228 216 232 227 215 231 226 214 236 232 220 234 229 217 232 227 215 230 225 213 230 225 213 230 225 213 230 224 215 230 224 215 231 226 214 231 226 214 231 226 214 232 227 215 232 227 217 231 225 216 227 222 212 225 220 210 233 228 218 233 228 218 233 228 218 234 229 219 236 231 222 236 231 222 233 228 218 231 225 216 243 238 229 243 238 229 243 238 229 243 238 229 245 239 230 245 239 230 245 239 230 245 239 230 238 232 223 238 232 223 238 232 223 235 230 220 233 228 218 234 229 219 235 230 220 236 231 222 243 238 229 242 237 227 240 235 225 240 235 225 240 235 225 240 235 225 240 235 225 239 234 224 239 234 224 239 234 224 240 235 225 240 235 225 239 234 224 241 236 226 241 236 226 239 234 224 242 234 225 240 233 224 242 234 225 242 234 225 240 233 222 175 168 155 121 114 98  126 120 102 94  86  64  56  49  22  62  55  25  55  48  16  52  46  12  58  52  18  63  57  22  56  50  15  66  60  26  181 176 141 216 207 174 154 146 112 152 143 112 190 181 154 151 143 121 141 132 115 148 141 130 197 191 184 237 233 230 255 254 253 237 235 231 238 235 229 238 235 229 238 235 229 240 236 230 240 236 230 241 237 231 241 237 231 242 236 231 242 236 231 242 236 231 242 236 231 243 238 231 243 238 231 243 238 231 242 237 229 242 236 231 241 235 230 242 236 231 242 236 231 242 236 231 242 236 231 243 237 233 243 237 233 243 237 233 243 237 233 242 236 231 242 236 231 245 239 234 245 239 234 245 239 234 245 239 234 243 237 233 243 237 233 242 236 231 242 236 231 245 239 234 245 239 234 243 237 233 243 237 233 243 237 233 243 237 233 243 237 233 243 237 233 243 237 233 242 236 231 242 236 231 242 236 231 242 237 229 242 237 229 242 237 229 242 237 229 240 236 230 240 236 230 240 236 230 240 236 230 238 235 229 238 235 229 238 235 229 237 234 228 236 234 230 234 233 229 234 233 229 236 234 230 232 231 227 232 231 227 232 231 227 232 231 227 232 230 229 232 230 229 231 231 229 231 231 227 226 225 217 232 231 222 233 232 226 227 223 218 240 234 227 171 163 152 132 126 108 129 121 99  95  84  63  113 103 79  93  86  57  92  85  58  33  27  11  23  19  5   55  55  39  132 134 117 142 146 131 132 137 120 134 132 112 115 109 86  106 96  74  120 110 90  103 95  77  143 133 116 122 109 90  165 144 122 173 137 108 161 115 80  163 106 66  167 105 62  179 120 76  179 122 77  172 118 73  163 107 62  173 115 68  170 109 66  175 111 73  170 114 81  160 121 91  181 156 132 167 148 136 159 144 138 224 211 204 240 230 222 239 232 223 233 228 218 241 238 227 234 231 220 236 233 225 235 232 224 249 246 238 249 246 238 243 240 232 250 247 239 207 204 196 156 152 144 157 154 146 212 208 200 250 247 239 235 232 224 251 248 240 238 235 227 250 247 239 237 234 226 243 238 231 234 228 221 246 240 233 248 242 235 246 238 234 240 232 228 240 232 226 255 249 240 228 220 209 121 113 102 118 111 100 161 154 141 150 142 122 141 133 111 202 195 172 143 135 113 152 145 122 163 155 133 53  48  24  165 159 136 214 208 185 212 207 184 208 202 179 224 219 196 216 211 187 87  85  70  97  101 102 19  29  39  39  52  70  65  77  96  42  53  65  16  24  30  76  82  84  79  85  90  23  33  46  72  82  94  56  62  65  173 174 169 181 171 165 173 158 150 184 174 162 149 144 132 144 142 136 121 123 122 110 118 127 98  108 125 86  101 123 76  93  117 53  71  88  68  88  104 75  99  119 81  109 134 61  93  120 61  85  109 107 112 122 123 119 125 106 105 112 114 117 130 105 111 132 80  90  114 89  100 121 96  105 118 169 174 172 205 205 196 187 180 168 182 165 153 186 158 147 149 115 99  142 104 83  185 156 139 137 128 124 114 116 115 165 163 159 226 222 216 252 249 243 237 234 228 243 239 234 255 255 249 248 244 238 242 238 233 247 242 239 247 242 239 247 242 239 247 242 239 245 241 238 245 241 238 245 241 238 245 241 238 245 241 238 245 241 238 247 242 239 247 242 239 245 243 239 245 243 239 246 244 240 246 244 240 246 244 240 246 244 240 246 244 240 246 244 240 246 244 240 246 244 240 246 244 240 246 245 238 249 246 238 249 246 238 249 246 238 249 246 238 249 246 238 249 246 238 249 246 236 249 246 236 248 245 234 248 244 236 250 247 239 251 248 240 251 248 240 250 247 239 246 245 236 245 244 235 252 251 244 250 248 242 247 246 240 246 245 238 247 246 240 248 247 241 250 248 242 250 248 242 248 248 239 248 248 239 248 248 239 248 248 239 250 247 239 250 247 239 250 247 237 250 247 237 248 245 234 255 255 247 251 248 240 248 244 238 255 255 251 246 240 235 164 158 153 109 99  91  136 120 105 173 157 130 159 147 110 164 157 119 150 144 121 52  51  40  61  64  63  83  86  94  85  85  98  84  82  94  62  61  64  54  54  54  63  61  62  77  76  72  80  80  66  64  65  49  51  50  39  51  48  40  58  55  47  54  51  43  63  59  51  62  56  49  63  57  50  72  67  57  64  59  47  69  64  52  59  59  45  62  63  56  63  67  72  63  71  82  57  69  78  25  39  52  60  72  93  60  72  93  61  72  89  66  72  79  145 138 134 143 133 123 136 127 114 131 122 107 132 119 101 137 124 106 134 124 104 127 118 101 160 153 140 177 172 160 160 155 143 228 223 211 255 251 239 255 250 238 249 244 232 249 244 232 254 251 240 248 245 234 240 236 228 255 254 246 250 247 237 249 246 236 249 246 236 249 246 236 252 249 239 252 249 239 252 249 239 252 249 239 255 249 242 255 249 242 255 249 242 255 249 242 255 251 243 255 251 243 255 251 243 255 251 243 252 249 241 255 254 246 255 254 246 252 249 241 255 254 246 255 249 242 248 242 235 223 215 208 156 146 136 142 133 118 197 187 163 163 150 127 200 187 168 136 123 102 58  46  18  71  59  20  93  76  27  115 97  53  140 129 99  168 164 134 139 138 100 75  72  32  58  53  16  52  41  13  33  18  0   60  47  31  58  51  37  51  49  34  57  58  42  61  60  42  56  53  31  43  39  22  34  33  29  55  47  41  91  70  45  169 139 99  170 137 84  216 187 128 186 168 110 117 105 54  105 92  58  151 140 111 165 154 123 177 166 135 181 169 144 182 171 145 187 176 148 199 186 156 205 184 157 217 198 175 224 211 195 171 164 150 71  68  55  120 118 100 213 206 179 172 167 141 102 105 90  97  102 98  102 105 113 68  70  85  103 104 124 113 115 135 104 108 124 119 122 132 134 132 133 150 146 141 168 162 155 180 172 163 187 178 165 197 186 171 209 196 178 217 205 184 211 201 179 213 204 180 210 200 176 204 194 170 203 193 169 198 188 164 194 184 160 189 179 157 187 176 155 183 173 153 181 173 155 108 98  88  20  11  14  9   1   9   1   0   0   0   0   0   0   0   0   
68  64  61  101 97  92  46  43  37  200 196 191 226 222 216 224 221 213 230 227 219 227 223 215 227 223 215 227 223 215 227 223 215 229 226 218 229 226 218 229 226 218 229 226 218 230 227 219 230 227 219 231 228 220 231 228 220 231 228 220 231 228 220 233 230 219 233 230 219 234 231 220 234 231 220 235 232 220 235 232 220 235 232 220 235 232 220 236 234 221 236 234 221 236 233 223 236 233 223 238 232 223 238 232 223 236 231 222 236 231 222 236 231 222 236 231 222 235 232 222 235 232 222 236 233 223 236 233 223 236 233 223 236 233 223 238 236 225 238 236 225 240 237 226 240 237 226 240 237 226 240 237 226 240 235 225 240 235 225 238 236 225 238 236 225 238 236 225 237 234 224 239 234 224 239 234 224 239 233 226 239 233 226 237 234 226 237 234 226 237 234 226 237 234 226 237 234 226 237 234 226 236 232 227 236 232 227 234 233 227 234 234 225 233 233 220 230 228 215 189 183 174 89  81  73  116 107 96  79  68  54  60  47  29  116 104 81  103 91  68  108 96  72  94  81  60  99  86  65  108 95  74  48  36  15  41  31  7   112 102 78  167 157 131 149 140 113 131 124 97  159 152 125 169 160 133 195 185 159 184 175 148 197 188 159 142 134 102 71  64  25  103 97  49  128 123 70  148 143 88  133 128 73  116 108 58  97  88  46  106 93  61  106 92  65  125 113 92  143 130 111 133 122 105 173 164 151 230 223 211 232 227 215 239 234 222 230 225 213 231 226 214 239 234 222 232 227 215 227 222 210 227 224 211 233 230 217 234 231 218 227 224 211 224 222 209 227 224 211 229 226 216 229 226 216 229 226 216 230 227 217 223 217 208 238 232 223 242 237 227 234 229 219 236 231 224 241 235 228 240 234 227 232 226 219 225 219 212 220 215 207 206 201 193 190 184 177 183 175 169 168 160 154 155 147 141 152 144 137 165 157 150 159 151 144 174 166 160 178 169 163 186 178 171 207 199 192 217 209 203 229 221 214 233 225 219 239 231 225 246 241 231 252 246 237 239 234 224 238 232 223 238 230 222 237 229 220 234 229 219 233 228 218 236 231 222 242 237 227 239 234 224 239 234 224 240 235 225 240 235 225 238 232 223 242 237 227 242 237 227 238 232 223 233 226 217 240 233 224 243 235 226 238 231 220 225 219 203 140 134 116 137 131 110 119 114 91  63  55  31  55  48  20  50  43  14  48  41  11  50  44  12  53  47  15  58  52  20  53  47  15  96  90  58  156 150 118 119 110 79  100 92  61  146 137 108 184 175 148 212 204 182 157 148 131 155 148 137 197 191 184 238 234 231 231 227 226 238 234 231 238 235 229 240 234 229 240 234 229 240 234 229 240 234 229 240 234 229 240 234 229 241 235 230 241 235 230 242 236 231 242 236 231 242 236 231 242 236 231 242 236 231 242 236 231 241 235 230 241 235 230 242 236 231 242 236 231 242 236 231 242 236 231 242 236 231 242 236 231 242 236 231 242 236 231 242 236 231 242 236 231 241 235 230 241 235 230 241 235 230 241 235 230 240 234 229 240 234 229 242 236 231 242 236 231 241 235 230 241 235 230 243 237 233 243 237 233 243 237 233 243 237 233 243 237 233 242 236 231 242 236 231 242 236 231 242 236 231 242 236 231 242 236 231 242 236 231 242 236 231 241 235 230 240 236 230 238 235 229 238 235 229 238 235 229 238 235 229 238 235 229 238 235 229 237 234 228 236 234 230 234 233 229 234 233 229 232 231 227 232 231 227 231 229 225 231 229 225 231 229 225 232 230 229 232 230 229 231 231 229 231 231 227 238 237 228 230 229 220 235 231 226 227 223 218 236 231 224 168 161 150 137 129 111 117 110 87  90  80  56  127 118 91  113 106 79  110 103 80  42  36  22  32  27  15  40  41  22  115 118 99  118 120 103 117 118 99  134 131 107 123 116 91  108 101 76  129 122 97  118 112 92  139 133 113 117 106 87  165 144 122 177 140 112 161 115 80  161 103 66  164 103 62  178 119 77  175 118 76  172 115 70  176 120 75  164 105 61  169 109 68  170 109 75  160 108 78  175 142 117 188 169 150 156 139 129 188 175 168 241 231 223 240 233 224 238 236 225 233 230 219 227 227 216 238 237 226 238 237 228 226 225 217 245 242 234 238 235 227 230 227 219 237 234 226 249 246 236 247 244 233 255 253 243 255 253 243 238 235 227 230 227 219 245 242 234 236 233 225 242 239 231 238 235 227 236 231 224 245 239 232 245 239 232 236 231 224 245 237 233 244 235 231 240 232 226 243 235 228 238 230 222 178 170 161 133 126 115 144 137 123 173 164 151 126 117 101 188 180 160 154 146 123 113 105 83  179 171 149 127 119 97  106 98  76  122 116 93  146 141 118 137 131 108 167 162 138 173 168 144 50  48  32  74  78  77  20  28  37  36  46  58  95  102 115 102 108 113 44  47  43  78  80  68  89  94  81  47  52  48  78  84  79  94  99  83  171 169 152 178 169 154 178 167 153 197 186 171 144 136 125 138 135 129 124 127 126 103 111 120 74  87  103 73  92  113 70  89  114 113 129 153 88  107 130 66  89  115 85  112 141 63  94  127 58  81  107 95  101 110 146 144 144 71  71  69  96  100 101 49  59  69  34  45  59  84  96  103 117 128 127 168 175 161 196 196 180 201 194 180 175 161 150 184 163 152 138 113 101 180 150 137 145 124 115 111 111 111 151 158 160 226 226 224 255 251 245 250 246 241 241 237 231 249 245 240 252 249 243 244 241 235 252 249 243 247 242 239 247 242 239 247 242 239 247 242 239 247 242 239 247 242 239 247 242 239 247 242 239 247 242 239 247 242 239 247 242 239 247 242 239 247 243 237 248 244 238 249 245 240 249 245 240 249 245 240 249 245 240 248 244 238 247 243 237 255 252 247 254 250 244 251 248 242 249 246 238 249 246 236 246 241 229 241 236 224 236 232 220 237 234 224 236 233 223 234 231 220 233 230 219 240 237 226 243 240 230 250 247 237 254 251 240 255 255 245 255 255 244 253 253 241 252 251 240 250 249 240 250 248 242 247 246 240 244 243 236 248 247 241 250 248 242 250 248 242 250 248 242 250 249 240 250 249 240 250 249 240 250 249 240 251 248 240 251 248 240 251 248 240 251 248 240 242 239 231 255 253 245 255 254 246 255 255 245 253 248 238 211 206 196 121 116 106 130 121 106 175 158 136 150 132 104 161 152 112 168 162 125 85  84  61  64  66  56  64  66  67  94  94  106 84  81  98  87  85  97  77  76  79  64  64  62  56  56  54  68  66  62  89  88  77  84  81  66  75  73  58  75  70  56  71  67  52  68  63  49  82  77  63  83  76  63  82  75  62  82  75  62  76  69  56  81  74  60  71  69  53  74  73  64  71  72  76  70  75  85  60  70  78  29  40  55  57  72  94  62  76  99  63  76  95  63  71  80  129 125 124 127 120 111 127 120 111 132 125 112 134 123 106 142 131 115 128 119 104 146 139 126 182 177 165 173 170 160 186 183 173 245 243 232 250 247 237 247 244 233 247 244 233 248 245 234 249 246 236 249 246 236 247 244 233 245 243 232 250 247 237 249 246 236 249 246 236 250 247 237 250 247 237 243 240 230 247 244 233 255 254 244 254 248 241 254 248 241 254 248 241 254 248 241 255 249 242 255 249 242 254 250 242 254 250 242 255 254 246 252 249 241 252 249 241 255 254 246 250 245 238 253 247 240 254 246 242 246 238 232 191 181 173 154 144 131 166 155 136 117 107 85  163 152 136 203 192 175 86  77  51  61  48  13  87  69  30  132 113 76  138 126 103 160 154 134 185 182 158 94  92  67  34  25  5   31  17  0   96  75  48  142 123 95  58  50  28  33  34  13  68  71  49  45  49  25  45  45  16  89  86  58  46  45  25  50  41  17  119 93  54  170 135 85  200 164 105 229 197 140 177 160 109 71  60  18  97  83  54  156 142 115 169 155 126 177 164 134 184 169 147 193 179 156 198 184 157 201 185 156 209 191 161 217 199 173 225 214 195 174 168 150 74  68  49  147 142 119 204 200 170 139 136 112 102 105 100 97  103 107 106 111 121 64  67  80  106 105 121 114 113 129 107 107 120 132 130 138 147 146 142 162 158 150 177 172 162 188 180 172 197 187 177 201 189 177 206 192 178 208 195 179 211 200 181 212 202 180 209 199 177 204 194 172 202 192 170 198 188 166 194 183 162 190 180 158 183 173 151 183 173 153 183 174 157 110 100 92  27  18  21  11  3   10  7   2   3   13  11  12  6   5   8   
67  63  60  95  92  86  60  57  51  196 193 187 227 223 218 234 230 222 223 220 212 227 223 215 227 223 215 227 223 215 227 223 215 228 225 217 228 225 217 229 226 218 229 226 218 230 227 219 230 227 219 231 228 220 231 228 220 231 228 220 231 228 220 233 230 219 233 230 219 234 231 220 234 231 220 235 232 220 235 232 220 235 232 220 235 232 220 236 234 221 236 234 221 235 232 222 235 232 222 236 231 222 236 231 222 236 231 222 236 231 222 236 231 222 236 231 222 235 232 222 235 232 222 236 233 223 236 233 223 236 233 223 236 233 223 237 234 224 237 234 224 237 234 224 237 234 224 237 234 224 237 234 224 238 232 223 238 232 223 236 233 223 236 233 223 237 234 224 237 234 224 239 234 224 239 234 224 238 232 225 238 232 225 236 233 225 236 233 225 236 233 225 236 233 225 236 233 225 236 233 225 235 231 226 235 231 226 233 232 226 233 232 224 231 231 217 231 231 215 181 179 166 90  83  72  127 117 105 78  67  51  67  55  34  126 115 89  107 95  69  109 95  72  105 90  70  104 92  71  110 98  77  64  51  30  45  33  10  104 95  68  146 137 106 83  74  43  78  70  38  136 129 100 147 138 111 116 106 82  89  79  55  67  57  33  50  41  13  102 94  58  170 164 120 189 183 135 139 133 85  150 145 97  82  73  33  190 180 145 154 140 111 112 98  73  156 143 122 155 144 127 159 150 135 229 220 207 233 226 215 220 215 203 227 222 210 226 221 209 227 222 210 230 225 213 228 223 211 226 221 209 229 227 214 237 235 222 234 231 218 227 224 211 224 222 209 227 224 211 229 226 216 229 226 216 230 227 217 230 227 217 233 228 218 236 231 222 226 221 211 209 203 194 169 163 156 147 141 134 124 118 111 113 108 98  107 102 90  110 105 93  105 100 88  96  91  79  95  88  76  84  77  66  80  72  61  82  75  64  97  90  79  90  83  72  93  85  74  79  71  60  80  72  61  91  84  73  89  82  71  107 99  88  118 110 102 129 121 114 158 153 144 193 188 179 227 222 212 232 227 217 240 233 224 245 237 229 247 242 232 248 243 233 246 241 231 241 236 226 239 234 224 239 234 224 240 235 225 240 235 225 236 231 222 243 238 229 243 238 229 236 231 222 235 227 218 244 236 227 247 240 229 244 237 223 196 190 172 117 112 88  131 126 100 97  93  65  41  34  6   63  56  28  46  40  10  53  47  17  65  58  29  41  34  4   53  47  17  57  50  21  120 113 84  108 102 72  74  65  36  89  80  51  123 114 85  170 161 134 218 210 187 171 162 145 147 140 129 189 183 176 238 234 231 242 237 237 237 233 230 237 234 228 239 233 228 239 233 228 239 233 228 239 233 228 240 234 229 240 234 229 240 234 229 240 234 229 241 235 230 241 235 230 242 236 231 242 236 231 242 236 231 241 235 230 241 235 230 240 234 229 241 235 230 241 235 230 241 235 230 241 235 230 242 236 231 242 236 231 241 235 230 241 235 230 241 235 230 241 235 230 241 235 230 241 235 230 241 235 230 241 235 230 240 234 229 240 234 229 241 235 230 241 235 230 241 235 230 241 235 230 242 236 231 242 236 231 243 237 233 243 237 233 243 237 233 242 236 231 242 236 231 241 235 230 241 235 230 241 235 230 242 236 231 242 236 231 242 236 231 241 235 230 240 236 230 238 235 229 238 235 229 238 235 229 237 234 228 237 234 228 237 234 228 236 232 227 234 233 229 233 232 228 233 232 228 232 231 227 232 231 227 231 229 225 231 229 225 231 229 225 232 230 229 232 230 229 231 231 229 231 231 227 234 234 225 227 227 218 236 232 227 231 225 220 237 229 222 161 154 143 129 121 103 113 105 83  77  68  41  134 125 98  105 98  70  114 106 86  52  44  33  34  29  19  45  45  27  115 116 95  115 115 97  121 119 99  133 128 103 128 121 94  117 110 83  127 123 95  117 114 90  128 125 103 125 114 95  167 145 125 175 139 112 164 117 83  162 105 67  164 103 62  176 116 75  172 115 72  172 113 69  174 115 72  166 109 65  167 112 71  171 115 82  159 113 85  181 152 130 175 157 143 170 155 146 216 206 198 235 227 218 238 232 223 234 231 220 238 237 226 225 225 213 238 237 226 246 245 236 241 241 232 238 235 227 237 234 226 244 241 233 242 239 231 233 230 219 237 234 224 244 241 231 228 225 215 251 248 240 242 239 231 240 236 228 247 243 235 243 240 232 254 250 242 239 233 226 242 237 229 242 237 229 239 233 226 239 231 227 244 235 231 244 236 229 240 232 226 243 235 228 244 236 229 144 136 125 126 119 108 170 160 152 136 126 116 152 144 126 187 179 159 101 93  71  135 128 103 197 189 164 74  67  42  42  37  14  84  79  56  77  69  46  100 92  70  101 95  74  44  42  27  93  96  90  37  44  46  25  31  38  89  92  98  99  99  99  26  25  16  76  76  60  87  87  69  72  74  62  95  98  83  119 121 97  177 176 151 183 178 157 172 163 148 164 153 141 134 124 114 122 119 111 100 103 99  68  77  81  58  72  81  52  75  88  48  69  89  94  112 138 81  97  126 67  85  113 86  106 136 34  59  89  25  44  67  78  84  91  153 153 151 51  52  45  88  93  89  46  56  64  24  36  46  67  81  83  81  91  85  165 170 154 198 199 181 185 178 164 180 168 156 151 137 126 161 144 136 149 130 123 126 113 108 150 152 151 216 223 223 246 246 242 244 241 235 247 243 237 255 255 250 252 249 243 244 241 235 252 249 243 249 245 240 247 242 239 247 242 239 247 242 239 247 242 239 247 242 239 247 242 239 247 242 239 247 242 239 247 242 239 247 242 239 248 244 240 248 244 240 248 244 238 248 244 238 248 244 238 247 243 237 255 255 252 255 251 245 243 239 234 236 233 225 230 227 219 226 220 213 218 212 205 212 207 197 197 192 178 197 193 176 197 193 176 197 192 178 198 195 182 199 196 186 201 198 188 202 199 189 205 202 189 205 202 189 206 203 190 207 204 192 211 211 197 220 220 207 233 233 220 243 242 231 246 245 236 247 246 240 250 248 242 254 253 247 250 248 242 248 247 241 250 248 242 250 248 242 250 249 240 250 249 240 250 249 240 250 249 240 251 248 240 251 248 240 251 248 240 251 248 240 252 249 243 255 251 245 255 251 243 252 249 239 216 211 197 155 151 134 145 141 122 159 152 129 172 156 127 138 122 91  159 150 117 114 112 81  62  63  44  73  75  67  68  66  66  96  92  100 97  94  109 79  77  89  62  62  60  62  63  56  61  62  54  69  70  61  89  89  75  82  80  65  82  78  61  82  76  58  81  75  56  81  73  55  89  81  63  86  77  60  83  74  56  79  70  53  79  70  53  84  75  60  73  69  53  75  74  63  73  75  77  71  75  83  60  68  76  25  37  49  57  72  92  60  77  99  62  77  95  63  71  80  127 125 124 127 120 111 126 121 111 132 125 114 135 126 111 137 128 113 125 118 105 168 163 151 186 183 173 179 176 166 217 216 207 244 243 234 247 244 233 247 244 233 248 245 234 244 241 231 247 244 233 249 246 236 250 247 237 247 244 233 250 247 237 249 246 236 249 246 236 250 247 237 247 244 233 235 232 222 238 236 225 254 251 240 254 248 241 254 248 241 254 248 241 254 248 241 255 249 242 255 249 242 254 250 242 254 250 242 255 254 246 252 249 241 252 249 241 255 254 246 252 246 239 253 247 240 255 248 244 255 248 244 230 220 214 164 154 144 151 143 125 134 123 106 117 105 93  168 157 142 143 134 110 59  46  16  97  77  43  114 94  62  114 101 80  56  50  34  91  86  74  42  37  25  29  19  9   54  38  21  148 123 91  204 183 147 65  58  31  35  36  16  67  72  55  45  51  30  51  50  26  100 98  69  88  84  51  113 101 62  173 147 95  156 122 63  202 166 105 229 199 141 186 171 124 62  53  15  97  83  54  156 142 115 169 155 126 177 164 134 184 169 147 193 179 156 198 184 157 199 186 156 209 193 162 214 201 171 212 202 178 164 154 133 102 90  67  197 188 161 182 179 153 95  99  79  99  106 104 95  103 111 104 112 121 64  67  78  110 111 120 120 119 126 121 120 125 134 132 133 157 154 146 167 164 154 181 175 166 189 181 173 197 187 177 201 189 177 206 192 180 208 194 181 211 200 183 212 202 182 209 199 177 204 194 172 202 192 170 198 188 166 194 183 162 190 180 158 184 174 152 182 171 152 185 176 159 116 106 98  20  11  14  9   1   9   7   2   3   11  8   9   6   5   8   
107 103 100 88  85  79  75  72  66  195 192 186 230 227 221 230 227 219 224 221 213 227 223 215 227 223 215 228 225 217 228 225 217 228 225 217 228 225 217 229 226 218 229 226 218 229 228 219 229 228 219 231 228 220 231 228 220 231 228 220 231 228 220 233 230 219 233 230 219 234 231 220 234 231 220 235 232 220 235 232 220 235 232 220 235 232 220 236 234 221 236 234 221 235 232 222 235 232 222 236 231 222 236 231 222 236 231 222 236 231 222 236 231 222 236 231 222 235 232 222 233 233 222 234 234 223 234 234 223 234 234 223 234 234 223 234 234 223 234 234 223 236 233 223 236 233 223 235 232 222 235 232 222 235 230 220 235 230 220 235 230 220 235 230 220 237 234 224 237 234 224 239 234 224 239 234 224 238 232 225 238 232 225 236 233 225 236 233 225 236 233 225 236 233 225 236 233 225 236 233 225 235 231 226 235 231 226 233 232 226 233 232 224 230 230 214 234 235 217 178 176 161 90  85  71  130 121 106 89  78  59  97  85  62  152 140 115 127 113 88  118 101 79  117 99  80  105 90  70  94  79  59  70  55  35  43  30  9   96  85  57  115 105 67  71  62  19  95  88  47  128 121 82  72  64  31  61  52  21  72  63  37  62  53  26  64  55  28  96  87  58  116 108 72  189 181 143 190 183 144 106 98  62  126 117 86  227 215 187 192 180 154 128 115 92  149 136 115 143 133 116 177 168 153 234 225 212 217 210 199 227 222 210 221 218 206 226 223 210 226 223 210 220 217 204 230 228 215 226 223 210 227 224 211 234 231 218 234 231 218 227 224 211 224 222 209 227 224 211 229 226 216 230 227 217 230 227 217 230 227 217 235 230 220 182 176 167 119 114 104 85  80  70  69  64  54  79  74  64  103 97  88  126 121 109 126 123 101 132 129 105 129 126 102 122 119 95  114 108 85  111 106 83  117 112 88  127 122 99  126 121 98  112 107 84  115 109 86  108 102 79  101 95  72  117 112 88  95  90  66  104 98  78  93  83  73  76  69  60  69  64  54  78  73  63  108 103 94  132 126 117 167 159 151 190 183 174 218 213 203 227 222 212 240 235 225 245 239 230 239 234 224 239 234 224 240 235 225 240 235 225 236 232 220 243 239 227 243 238 229 236 231 222 240 233 224 244 237 225 240 234 220 232 226 210 154 149 128 115 110 84  123 118 90  62  58  28  46  40  10  60  54  24  43  36  9   55  48  20  53  46  19  38  31  4   46  40  10  62  55  25  108 101 74  70  63  35  58  49  23  77  68  41  159 153 123 152 145 118 155 147 125 144 136 118 172 164 153 197 191 184 233 229 225 234 229 229 237 233 230 237 234 228 239 233 228 239 233 228 239 233 228 239 233 228 240 234 229 240 234 229 240 234 229 240 234 229 241 235 230 241 235 230 242 236 231 242 236 231 242 236 231 241 235 230 241 235 230 240 234 229 241 235 230 241 235 230 241 235 230 241 235 230 242 236 231 242 236 231 241 235 230 241 235 230 241 235 230 241 235 230 241 235 230 241 235 230 241 235 232 241 235 232 240 234 229 240 234 229 241 235 230 241 235 230 241 235 230 241 235 230 242 236 231 242 236 231 243 237 233 243 237 233 243 237 233 242 236 231 242 236 231 241 235 230 241 235 230 241 235 230 242 236 231 242 236 231 241 237 231 240 236 230 240 236 230 238 235 229 238 235 229 238 235 229 237 234 228 237 234 228 236 234 228 234 233 227 234 233 229 233 232 228 233 232 228 232 231 227 232 231 227 231 229 225 231 229 225 231 229 225 232 230 229 232 230 229 231 231 229 231 231 227 231 230 221 226 225 217 237 234 228 235 229 224 233 225 219 157 149 138 130 122 104 127 119 97  92  83  56  120 111 82  78  70  46  110 102 84  36  28  19  20  15  5   53  52  32  124 125 102 110 109 87  125 121 100 131 126 100 134 127 100 118 114 84  123 119 88  120 120 92  126 123 99  136 126 107 169 147 127 173 136 110 166 119 85  167 109 72  165 104 63  173 114 72  169 109 68  173 109 67  171 107 63  171 117 72  164 116 73  167 120 86  173 131 107 181 152 134 163 145 133 189 177 167 238 230 222 235 230 220 231 229 218 231 231 219 237 236 225 232 234 222 231 232 220 216 215 206 233 232 224 240 236 228 228 225 217 245 243 232 244 241 231 247 244 233 238 236 223 238 236 223 236 233 223 252 249 239 244 241 231 234 230 222 251 248 240 238 235 227 228 225 217 242 237 229 239 233 226 239 233 226 240 234 227 240 232 226 239 231 225 244 236 229 244 236 229 250 241 237 244 236 229 199 191 180 131 124 112 140 132 126 159 151 142 114 107 91  196 191 168 166 159 134 81  74  47  157 150 123 116 109 82  88  81  56  88  81  58  84  76  53  102 94  74  97  91  73  71  69  53  102 106 94  48  54  45  34  39  35  88  91  88  68  67  60  39  36  26  72  70  55  70  67  52  60  58  45  102 100 85  87  86  64  170 169 144 172 170 153 160 153 142 182 167 161 154 141 136 127 121 114 106 109 103 59  68  65  74  90  89  66  92  90  55  82  89  60  79  102 62  76  103 59  69  93  79  89  111 33  47  70  18  29  46  60  64  67  129 130 125 82  82  77  109 113 114 62  71  84  45  56  71  27  40  42  30  40  34  160 164 154 183 184 168 179 175 159 158 151 137 173 170 160 145 139 132 135 124 121 153 145 141 219 218 210 238 239 229 246 245 238 243 239 234 250 246 241 254 250 244 244 241 235 252 249 243 255 255 251 241 237 231 248 244 238 248 244 238 248 244 238 248 244 238 247 243 237 247 243 237 247 243 237 247 243 237 247 242 239 247 242 239 247 243 237 247 243 237 255 249 244 252 246 241 247 241 234 245 239 232 243 238 231 231 225 218 213 208 200 202 196 187 188 182 173 183 176 167 174 166 158 167 162 148 154 150 131 154 151 129 154 150 131 154 150 133 150 147 135 149 146 135 148 145 134 146 144 133 165 163 150 170 168 152 179 177 162 185 183 168 183 184 168 186 186 170 190 191 175 193 192 179 209 208 199 217 216 209 234 233 227 246 245 238 252 251 244 250 248 242 248 247 241 250 248 242 250 249 240 250 249 240 250 248 242 250 248 242 251 248 240 253 247 240 251 248 240 251 248 242 255 252 254 249 244 246 254 249 246 230 227 217 170 166 149 139 136 112 161 159 130 155 152 117 154 145 107 151 141 105 126 121 96  73  72  52  92  93  77  75  74  63  84  76  72  102 92  95  113 109 120 86  87  93  70  71  62  76  78  62  76  78  64  82  84  67  98  99  81  88  87  69  75  69  51  78  69  52  79  70  53  82  71  54  88  77  60  86  75  59  85  74  58  84  73  56  84  73  56  87  79  61  79  72  54  80  78  65  79  79  79  74  77  85  60  66  73  23  33  44  57  72  90  60  78  97  62  77  93  62  72  78  127 126 120 126 121 109 126 121 107 131 126 112 132 125 112 129 122 108 137 130 116 183 178 166 183 180 169 188 187 178 246 245 238 241 240 234 245 244 235 246 246 234 244 241 231 243 240 230 245 243 232 247 244 233 249 246 236 250 247 237 251 248 238 249 246 236 249 246 238 250 247 239 241 238 227 224 222 211 227 224 213 248 245 234 252 249 241 252 249 241 252 249 241 252 249 241 255 249 242 255 249 242 254 250 242 254 250 242 255 254 246 252 249 241 252 249 241 255 254 246 254 248 241 254 248 241 255 248 244 255 251 247 255 251 245 147 140 131 88  81  65  144 135 120 141 131 121 136 127 114 157 149 129 110 99  71  127 107 75  112 92  60  113 98  76  13  4   0   18  15  7   4   1   0   32  22  16  53  35  20  167 141 104 201 178 138 58  51  24  19  21  5   34  40  31  25  28  23  25  24  13  60  57  33  137 133 89  173 162 104 209 187 124 173 147 83  207 181 119 218 197 140 147 136 92  22  15  0   96  85  57  156 142 115 170 157 127 177 164 134 184 170 145 193 179 154 198 184 157 199 186 156 203 193 160 217 207 174 209 198 168 170 155 126 150 130 100 222 209 181 134 135 115 93  101 92  96  107 110 93  103 111 104 113 117 63  69  72  118 121 120 125 125 123 139 137 133 142 141 135 166 163 153 174 172 159 184 179 167 190 183 172 197 187 177 201 189 177 204 192 180 206 195 183 212 201 184 212 202 182 209 199 177 205 195 173 202 192 170 198 188 166 194 183 162 190 180 158 188 178 156 181 170 151 186 178 160 126 115 108 10  0   3   8   0   8   8   3   5   5   3   3   2   2   4   
185 181 176 95  92  86  68  65  59  196 193 187 234 230 224 216 213 205 234 230 222 227 223 215 227 223 215 228 225 217 228 225 217 228 225 217 228 225 217 229 226 218 229 226 218 229 228 219 229 228 219 231 228 220 231 228 220 231 229 218 231 229 218 234 229 219 233 230 219 234 231 220 232 232 220 235 232 222 235 232 222 235 232 222 235 232 222 234 234 223 236 233 223 235 232 222 236 231 222 236 231 224 236 231 224 236 231 222 236 231 222 236 231 224 236 231 224 235 232 224 233 232 224 234 234 225 234 234 225 234 234 223 233 233 222 234 234 223 235 232 222 235 232 222 234 231 220 234 231 220 233 230 219 233 228 218 233 228 218 233 228 218 233 228 218 237 234 224 237 234 224 239 234 224 239 234 224 238 232 225 238 232 225 236 233 225 234 233 227 234 233 227 236 232 227 236 232 227 236 232 227 235 231 226 235 231 226 233 232 226 233 232 224 229 229 215 238 238 222 174 172 159 91  86  74  124 115 102 108 95  76  138 122 93  182 167 133 144 128 97  143 125 97  166 148 122 161 145 118 131 115 88  106 92  65  52  39  11  85  74  41  132 124 79  107 99  49  86  77  30  95  88  45  61  53  15  79  71  38  79  70  42  52  42  18  75  65  41  71  62  37  96  87  58  209 200 169 224 215 184 223 214 185 219 210 183 221 212 188 234 221 198 167 155 134 135 125 106 151 143 125 227 218 203 222 215 201 219 215 200 227 222 210 223 221 208 230 228 215 228 225 213 220 217 204 240 237 224 230 228 215 223 221 208 224 222 209 234 231 218 227 224 211 224 222 209 227 224 211 230 227 217 230 227 217 230 227 217 230 227 217 134 129 117 80  76  64  56  51  39  75  70  56  97  92  78  96  91  77  84  79  65  70  66  47  76  74  45  78  77  43  72  71  35  63  62  28  60  55  27  63  59  31  76  72  40  91  88  53  141 138 103 119 116 81  134 131 96  154 151 116 182 178 148 215 210 182 179 174 146 171 165 142 119 110 94  113 103 91  106 96  84  100 91  78  114 103 91  106 95  83  92  82  72  82  74  66  94  89  80  122 117 108 174 168 159 214 209 199 239 234 224 239 234 224 240 235 225 240 235 223 236 232 218 243 239 225 243 239 227 236 231 222 246 239 230 242 234 223 226 220 206 209 203 184 122 116 93  130 125 97  101 97  66  44  39  9   72  65  36  50  43  16  39  32  5   45  38  11  34  27  0   55  48  20  42  35  6   63  56  26  67  60  35  63  55  31  84  75  48  75  66  37  57  51  19  106 99  70  96  89  66  90  84  68  134 127 116 170 164 157 228 222 220 248 244 240 237 234 226 237 234 226 239 233 226 239 233 228 239 233 228 239 233 226 240 234 227 240 235 225 240 234 227 240 234 227 240 236 228 240 236 228 241 237 231 241 237 231 242 236 231 241 235 230 241 235 230 240 234 229 241 235 230 241 235 230 241 235 230 241 235 230 242 236 231 242 236 231 241 235 230 241 235 228 241 235 228 241 235 228 241 235 230 241 235 230 241 235 232 241 235 232 240 234 229 240 234 229 241 235 230 241 235 230 241 235 230 241 235 230 242 236 231 242 236 231 243 237 233 243 237 233 243 237 233 242 236 231 242 236 231 241 235 230 241 235 230 241 235 230 241 237 229 241 237 229 241 237 229 240 236 228 240 236 228 238 235 227 237 236 227 237 236 227 237 234 226 237 234 226 236 235 226 233 234 227 234 233 227 233 232 226 232 232 228 231 231 227 231 231 227 229 231 223 229 231 223 231 230 223 232 231 227 232 231 227 232 231 227 232 231 224 227 227 218 227 224 213 238 235 227 238 232 225 228 220 211 154 147 134 141 132 115 149 141 119 102 93  64  102 93  64  58  51  26  114 106 86  45  38  26  24  16  7   60  55  39  123 122 102 106 105 82  126 123 99  129 124 98  136 131 103 111 107 79  115 113 84  127 126 101 133 130 106 143 133 114 170 148 128 172 135 109 167 120 86  170 113 75  167 105 64  171 112 70  166 107 65  172 106 65  167 104 59  175 121 75  166 118 80  162 122 92  186 153 132 170 147 134 157 142 133 214 204 196 234 229 219 240 237 226 229 226 216 232 232 220 227 227 216 245 246 234 225 225 213 243 242 233 220 220 211 236 233 225 233 229 221 242 239 229 234 231 220 247 244 231 198 195 182 189 187 174 241 238 225 233 230 219 243 240 230 248 244 236 234 230 222 244 241 233 249 246 238 245 239 232 236 231 224 236 231 224 245 239 232 242 234 227 238 230 224 240 232 226 243 235 228 237 228 224 255 248 244 238 230 222 161 154 145 119 111 107 150 142 135 136 129 115 151 145 124 159 152 127 114 107 80  123 117 87  165 159 129 99  92  65  91  83  60  123 115 95  108 100 82  125 119 103 97  92  78  103 103 89  54  55  45  43  46  40  95  98  93  41  40  32  65  62  54  93  88  80  77  71  64  46  40  33  121 116 104 42  40  20  181 180 160 177 178 162 174 169 157 179 164 160 156 140 138 138 132 125 149 150 143 117 125 118 130 145 140 90  113 110 54  81  85  53  75  95  66  80  107 74  80  101 94  98  115 49  58  73  48  58  66  90  95  93  147 147 143 94  95  88  95  97  99  38  45  58  32  43  60  10  23  30  20  30  29  184 187 179 187 187 173 177 173 158 151 147 135 175 174 165 132 131 124 134 128 125 219 213 208 248 245 234 250 250 236 249 246 238 255 253 248 248 244 238 231 228 222 252 249 243 249 245 240 241 237 231 255 252 247 248 244 238 248 244 238 248 244 238 248 244 238 247 243 237 247 243 237 247 243 237 247 243 237 247 243 237 247 243 237 247 243 237 248 242 237 255 251 247 254 246 242 247 239 233 243 235 226 202 195 181 190 184 168 175 169 153 164 157 139 152 146 127 151 144 128 147 141 125 145 140 124 150 148 131 144 144 126 139 139 123 134 134 121 125 125 113 119 118 110 110 109 100 103 102 93  98  95  82  99  97  81  102 100 85  103 103 89  120 120 107 133 135 121 151 154 139 165 167 155 160 159 150 165 164 155 182 181 172 207 206 197 242 239 231 254 250 242 251 248 240 250 247 239 250 249 240 250 249 240 250 248 242 251 248 242 253 247 240 253 247 240 253 247 240 253 247 242 250 243 246 245 240 244 252 248 247 180 177 167 141 138 116 165 161 130 151 146 109 135 130 91  142 137 98  145 141 110 87  88  67  80  83  68  69  71  57  84  84  71  84  79  69  99  93  90  97  96  101 82  84  86  73  75  65  77  80  63  72  75  58  77  78  62  90  91  72  80  77  58  81  73  55  85  74  58  89  78  61  92  81  65  78  67  51  83  72  55  89  78  61  93  82  66  88  77  60  91  82  65  82  76  58  84  81  68  83  83  83  77  80  88  62  67  74  22  32  42  57  72  90  60  78  97  62  77  93  62  72  78  127 126 120 126 121 107 126 121 107 131 126 112 125 120 106 128 124 109 165 161 149 188 186 173 172 169 159 197 196 188 254 253 247 238 237 230 246 245 236 243 242 231 243 240 230 250 247 237 245 243 232 245 243 232 247 244 233 249 246 236 250 247 239 249 246 238 249 246 238 250 247 237 236 234 221 216 214 201 219 216 205 243 240 230 252 249 241 252 249 241 252 249 241 252 249 241 255 251 243 255 249 242 252 249 241 254 250 242 255 254 246 252 249 241 252 249 241 255 254 246 254 248 241 255 249 242 255 250 245 255 251 247 252 244 238 232 225 216 141 135 121 134 128 114 192 184 173 153 146 135 161 152 134 161 149 126 118 98  66  118 98  66  111 96  72  9   0   0   29  26  18  37  33  30  28  18  10  70  53  34  189 164 122 175 155 112 82  77  51  37  39  27  39  44  38  47  50  47  37  35  29  39  35  14  128 122 76  166 153 94  201 182 118 194 170 105 212 191 125 221 202 147 123 114 73  36  28  0   96  85  57  154 140 113 170 157 127 175 161 132 183 169 144 192 178 153 198 184 157 199 186 156 201 190 158 223 213 178 219 205 169 187 170 135 194 172 140 207 193 168 88  90  80  97  106 106 97  105 112 95  103 109 106 112 115 64  69  68  126 127 122 136 134 128 151 150 141 153 151 140 170 167 154 177 175 159 184 180 165 189 182 169 197 187 175 199 190 177 204 192 180 206 195 181 212 201 184 212 202 182 209 199 177 205 195 173 202 192 170 198 188 166 194 183 162 190 180 158 189 179 157 180 169 150 187 179 161 133 123 112 5   0   0   8   1   6   9   4   6   2   0   0   1   1   3   
214 211 203 76  69  67  82  75  73  202 195 193 220 214 209 226 221 211 231 225 216 226 220 213 226 220 213 226 222 214 228 225 217 228 225 217 228 225 217 226 225 217 226 225 217 229 228 219 223 222 213 239 239 227 224 222 211 228 225 213 240 235 223 237 230 216 236 232 220 233 233 222 228 230 220 236 235 226 230 227 219 230 227 219 231 230 221 226 227 218 219 219 208 227 222 212 241 236 226 243 237 233 233 227 222 240 235 225 239 234 224 227 221 216 239 233 228 231 227 224 224 222 218 225 224 218 232 231 224 234 230 222 238 235 227 238 236 225 233 230 219 232 227 215 240 235 223 231 226 214 235 230 218 231 226 214 234 229 217 233 228 218 224 222 211 225 226 217 229 231 221 227 223 215 234 228 221 247 241 234 227 223 215 240 241 234 232 236 230 220 220 218 234 232 231 242 238 235 236 232 227 242 239 231 219 215 207 224 223 214 229 228 219 225 224 215 233 229 221 155 154 146 76  70  63  109 99  91  124 106 89  160 139 103 181 159 114 154 136 94  169 150 111 174 155 116 177 160 122 177 160 122 156 139 101 104 90  49  80  69  25  143 133 82  113 103 50  69  62  12  104 96  51  64  57  16  42  34  0   76  67  38  55  45  21  68  57  38  71  61  42  117 107 83  232 223 196 240 231 204 206 197 171 140 131 104 188 178 154 203 193 171 145 134 115 130 119 100 188 180 162 235 228 212 231 226 212 233 229 214 232 227 213 231 226 214 231 226 214 231 226 214 231 226 214 229 226 216 229 226 216 229 226 216 229 226 216 235 232 222 219 216 205 233 230 219 230 227 217 235 232 222 227 224 213 228 225 213 106 103 90  42  40  24  61  60  42  77  75  55  79  78  56  56  53  29  64  61  37  77  74  48  85  83  52  95  91  56  66  63  23  83  81  39  74  71  33  101 96  70  90  85  62  70  67  30  122 119 77  178 176 131 224 222 177 172 170 123 151 149 106 212 209 176 219 215 189 197 192 169 109 104 80  101 93  73  41  30  11  47  35  12  123 106 84  139 116 99  116 96  80  103 89  76  103 96  85  79  74  62  65  60  48  69  64  52  92  87  75  125 120 108 185 180 168 239 234 222 250 246 234 245 240 226 245 240 226 239 234 222 242 237 227 247 240 231 236 228 217 237 230 214 153 147 127 114 109 83  138 133 105 61  57  26  48  44  14  73  66  39  42  35  8   41  33  8   44  37  12  56  49  22  42  35  6   51  45  13  142 135 106 80  73  48  50  42  20  55  48  20  50  44  12  76  70  33  110 104 72  132 127 104 119 112 99  104 96  90  169 161 157 210 204 199 227 222 214 219 215 200 217 212 198 220 215 205 227 222 214 228 223 215 220 215 205 232 227 213 227 223 206 227 223 208 238 236 223 233 235 223 227 231 218 229 233 222 231 232 222 235 231 226 235 229 224 242 236 231 235 229 224 238 232 225 224 218 211 243 238 231 231 225 218 231 225 218 240 234 227 230 224 217 246 241 231 245 240 226 225 220 206 239 233 226 235 229 224 235 229 227 241 235 232 241 235 230 241 235 230 241 235 230 241 235 230 242 236 231 242 236 231 242 236 231 242 236 231 243 237 233 241 235 230 234 228 223 246 240 235 240 234 229 238 232 227 239 233 228 223 220 212 228 230 218 225 227 215 215 214 203 223 220 210 222 219 209 215 214 203 213 215 203 218 220 206 212 210 194 212 210 194 217 219 206 221 225 214 217 219 206 201 203 191 217 223 214 212 218 211 217 223 214 211 215 205 210 214 204 219 220 211 203 202 193 219 215 207 209 206 196 202 199 189 200 197 187 201 199 186 213 208 196 221 216 204 200 192 181 162 156 142 119 110 92  137 129 107 121 115 83  123 117 85  49  42  15  121 113 91  56  47  32  23  13  3   69  62  53  126 119 108 114 108 87  119 114 89  116 111 85  134 130 104 112 109 85  109 108 86  101 100 78  118 114 93  146 135 116 163 141 121 178 141 115 176 130 95  169 112 74  170 108 68  170 110 69  165 106 64  165 104 61  164 100 58  168 104 64  168 114 83  175 138 118 172 149 137 163 151 142 178 173 163 239 234 224 235 232 222 231 229 218 229 226 216 230 229 218 230 229 218 230 229 220 230 229 220 230 227 219 243 240 232 235 232 222 234 231 220 243 240 230 244 242 229 219 216 203 151 149 134 146 144 129 236 234 221 233 230 217 242 239 229 255 252 241 242 239 229 236 233 225 236 233 225 236 231 224 236 231 224 236 231 224 236 231 224 243 238 231 243 238 231 241 235 228 241 235 228 239 233 228 246 240 235 246 241 231 200 192 183 127 119 113 126 115 110 148 138 130 159 150 137 178 170 148 109 102 75  143 136 107 148 141 111 157 148 122 97  87  65  114 103 87  147 137 124 130 121 110 120 110 102 65  55  49  63  55  53  65  64  69  71  70  75  91  86  83  85  79  76  86  81  83  79  74  76  68  64  63  91  87  81  67  64  54  177 178 162 165 165 149 154 149 137 174 159 155 161 146 144 100 95  87  133 134 125 145 150 144 105 117 113 87  107 109 71  94  105 71  91  112 65  79  104 94  103 121 88  95  106 52  65  70  84  95  96  91  96  92  104 105 98  105 104 96  75  78  75  24  31  42  32  40  58  22  32  44  25  34  37  174 177 172 200 199 188 193 190 180 177 171 164 132 129 123 127 123 117 202 199 193 248 244 238 245 242 234 250 247 239 248 244 238 248 244 238 248 244 238 248 244 238 247 243 237 247 243 237 247 243 237 247 243 237 248 244 238 248 244 238 248 244 238 248 244 238 252 249 243 250 246 241 245 244 237 241 240 234 238 237 228 251 248 240 255 252 249 242 236 233 255 250 249 247 236 233 226 214 206 202 190 176 170 161 136 155 146 117 149 143 109 132 129 93  118 115 80  128 127 93  140 138 109 137 138 115 138 143 128 132 138 129 127 133 124 123 129 120 125 130 124 125 130 124 117 122 116 103 107 99  111 111 99  109 107 94  101 100 87  91  91  80  83  84  75  86  90  79  91  97  88  97  101 93  126 127 118 141 143 131 162 162 151 156 153 142 170 165 153 204 199 187 241 236 226 249 244 236 240 236 228 255 255 254 250 246 241 243 239 234 254 248 241 252 244 238 255 247 239 255 244 239 247 239 237 241 234 234 180 175 177 141 137 129 157 152 126 152 144 108 140 128 87  150 140 100 138 135 107 88  92  70  85  90  72  92  96  81  78  82  67  82  87  72  89  94  79  90  94  84  90  93  92  82  85  84  74  77  72  73  75  65  69  71  59  77  77  64  80  78  63  72  68  51  79  72  54  80  72  54  81  73  55  83  74  56  83  74  56  85  76  59  87  79  61  89  81  63  93  84  67  93  84  69  90  86  69  87  86  75  85  87  88  84  87  95  60  68  76  25  37  49  56  71  91  64  81  102 58  74  89  65  73  79  129 127 121 137 129 118 133 128 114 139 134 120 122 117 105 137 135 122 177 174 161 192 189 177 173 170 160 245 243 232 254 254 243 243 242 231 245 243 232 245 243 232 245 243 232 245 243 232 245 243 232 247 244 233 248 245 234 250 247 239 246 240 235 255 255 252 244 243 236 234 234 223 200 196 179 250 246 230 223 222 211 240 239 231 251 248 240 247 243 235 254 250 242 249 246 238 255 251 243 244 241 233 252 249 241 254 250 242 252 249 241 252 249 241 252 249 241 252 249 241 252 249 241 254 250 242 254 250 242 255 249 242 253 247 240 255 252 243 198 193 181 134 129 117 169 164 154 161 154 143 161 154 141 175 165 143 118 101 66  136 117 80  146 130 103 24  13  0   7   3   0   31  30  21  40  34  16  84  71  39  207 185 140 143 125 83  84  81  57  32  37  24  50  54  41  45  47  35  46  46  32  45  39  18  76  66  31  163 146 99  198 175 119 183 159 97  226 205 137 212 194 137 101 91  55  25  18  0   97  86  60  152 139 111 171 158 128 173 160 130 183 169 144 192 178 153 200 186 159 206 193 163 218 205 173 215 200 164 230 214 176 191 172 137 212 196 168 145 133 119 87  87  91  104 106 119 97  98  107 107 106 111 122 122 124 78  76  77  140 139 135 151 149 143 162 158 150 175 170 160 182 177 165 184 180 165 186 182 166 190 184 168 197 188 172 200 191 176 204 195 179 206 197 180 211 200 181 211 200 181 209 198 179 205 195 175 202 191 172 198 188 168 194 183 162 191 181 159 189 179 157 177 167 145 183 175 152 126 117 101 10  1   0   8   1   3   6   1   0   4   2   2   2   2   4   
127 123 115 87  81  77  108 102 98  209 202 198 227 221 216 235 230 222 232 227 217 232 226 219 231 225 218 229 226 218 229 226 218 226 222 214 226 222 214 224 223 214 224 223 214 229 228 219 226 225 217 237 236 225 226 223 212 241 236 224 235 228 214 220 211 196 223 216 202 224 222 209 212 212 201 215 212 202 211 206 196 211 206 196 214 211 201 211 211 199 205 205 194 217 211 202 212 205 196 206 200 195 205 199 194 212 207 197 202 197 185 197 191 184 212 206 203 208 204 201 205 201 197 202 198 195 203 200 194 209 206 198 201 198 188 198 195 184 202 197 185 214 209 197 211 206 194 202 197 185 203 198 186 196 191 179 203 198 186 204 199 187 199 196 186 197 198 189 192 194 184 200 197 189 197 192 182 199 194 184 209 206 196 192 194 182 189 190 181 182 182 178 193 191 189 177 173 169 189 185 182 192 188 183 195 192 186 201 199 193 197 196 188 198 194 186 219 215 207 129 126 118 61  55  46  127 115 108 123 105 86  148 125 85  166 142 93  166 146 98  155 137 91  148 130 86  142 124 80  146 127 86  174 155 114 160 145 100 102 89  41  91  81  28  97  87  33  68  61  7   88  80  30  82  76  30  72  65  25  42  34  0   70  61  32  83  73  51  75  64  45  159 148 127 181 171 147 190 181 154 133 124 97  147 138 111 210 200 176 183 173 153 140 129 112 138 130 112 201 194 178 231 226 212 234 230 215 230 225 211 233 229 214 231 226 214 231 226 214 231 226 214 231 226 214 229 226 216 229 226 216 229 226 216 229 226 216 229 226 216 228 225 215 228 225 215 230 227 217 228 225 215 216 213 203 138 136 123 65  63  48  64  62  44  66  65  43  63  62  37  58  56  27  58  57  25  58  57  23  60  59  22  61  58  22  51  48  10  58  55  15  76  74  30  84  81  44  197 192 171 219 214 193 137 134 96  137 135 90  124 122 77  166 164 119 121 119 72  141 139 99  216 211 183 204 199 176 181 176 150 99  91  67  126 117 90  48  37  7   67  54  22  129 111 79  138 113 87  115 91  69  93  78  60  101 92  77  114 107 93  103 98  86  98  93  81  77  72  60  63  58  46  85  81  66  117 112 98  149 145 130 218 214 197 233 229 214 247 242 230 227 222 212 232 225 216 245 238 227 187 180 164 111 105 85  126 121 96  84  80  52  65  60  30  51  46  16  35  28  1   56  49  22  53  46  21  56  48  24  52  45  18  48  41  11  52  46  14  71  65  33  57  50  25  35  27  5   52  45  18  98  91  59  122 117 78  150 145 108 160 155 129 124 117 101 105 98  89  139 131 125 188 182 173 156 151 139 179 176 157 165 162 143 162 157 145 171 166 156 181 175 166 162 157 145 176 172 153 156 152 133 164 160 143 170 168 152 142 144 130 143 147 134 143 147 136 158 160 152 142 138 133 157 151 148 139 132 130 133 127 122 157 151 146 149 143 138 131 124 120 125 119 114 128 122 117 111 105 100 114 109 101 94  90  78  103 99  80  135 131 114 169 164 154 238 232 227 247 241 238 239 232 230 241 235 230 241 235 230 241 235 230 241 235 230 242 236 231 242 236 231 242 236 231 242 236 231 235 229 224 248 242 237 241 235 230 239 233 228 245 239 234 243 237 233 200 194 190 120 116 108 107 109 95  113 115 101 103 101 88  100 95  83  97  92  80  82  80  67  69  71  57  65  68  51  88  87  67  87  85  68  83  85  73  90  95  82  98  98  85  99  101 87  111 117 108 100 108 99  117 123 112 109 113 101 101 105 92  98  100 86  86  83  71  112 107 93  118 113 99  121 117 100 110 105 91  106 104 88  96  91  77  132 127 113 159 152 138 141 135 119 128 119 102 123 116 93  123 117 83  155 149 112 110 104 72  134 127 100 78  70  50  41  32  16  79  69  59  127 117 107 116 110 89  107 102 76  124 119 93  126 123 99  124 120 101 107 106 85  93  92  72  99  95  76  145 134 115 160 141 120 174 140 112 173 126 92  172 114 76  173 114 72  168 111 69  159 102 60  170 111 67  154 92  51  165 103 67  160 105 78  173 140 124 176 159 149 155 150 140 205 205 196 237 234 224 235 232 222 231 229 218 230 227 217 229 228 217 230 229 218 230 229 220 230 229 220 240 236 228 228 225 217 236 233 223 237 235 222 237 235 222 243 241 226 194 192 177 155 152 137 153 151 136 183 180 165 245 243 230 240 237 224 240 237 226 238 236 225 252 249 241 238 235 227 236 231 224 236 231 224 236 231 224 236 231 224 239 233 226 241 235 228 243 238 231 243 238 231 240 234 229 242 237 229 246 240 233 223 217 208 161 153 147 122 112 106 151 141 135 178 168 158 215 207 187 131 124 97  133 126 96  157 150 121 156 147 120 117 107 85  134 123 108 128 117 105 123 111 99  105 91  80  116 96  91  81  65  66  86  80  89  67  63  71  90  83  83  58  52  50  93  88  90  75  72  75  77  75  76  39  37  33  83  82  75  138 137 126 119 119 105 161 156 144 194 179 175 139 124 120 110 107 97  144 146 134 160 164 156 124 132 127 118 134 135 83  102 112 88  105 125 84  99  119 91  98  114 99  104 114 37  49  49  76  88  84  64  67  61  118 119 110 92  92  83  83  83  81  31  37  46  23  32  48  28  37  50  13  21  28  172 175 169 207 206 197 186 182 177 142 136 131 116 112 107 166 163 157 236 232 227 249 245 240 250 246 241 255 255 251 248 244 238 248 244 238 248 244 238 248 244 238 247 243 237 247 243 237 247 243 237 247 243 237 248 244 238 248 244 238 248 244 238 248 244 238 249 245 240 249 245 240 248 244 238 245 244 235 255 255 245 235 232 224 252 246 241 252 244 240 229 219 213 227 217 207 221 211 194 172 160 134 153 143 108 143 136 96  136 131 90  126 124 84  135 134 98  143 144 111 148 147 120 144 148 128 144 153 143 138 148 142 133 143 138 129 139 133 123 133 127 121 131 125 112 122 117 105 113 105 107 109 99  105 105 94  98  98  87  90  91  82  80  83  75  82  87  81  85  92  88  88  96  89  90  94  86  80  82  72  113 114 105 156 156 147 157 152 142 146 141 129 166 159 145 219 214 202 249 244 234 249 244 236 255 255 249 255 249 242 255 255 248 255 249 242 242 232 226 254 243 238 255 250 249 189 182 180 107 101 98  138 133 119 174 168 138 126 117 79  153 139 100 153 143 110 104 105 84  81  87  74  82  89  75  78  85  71  79  83  70  77  84  70  86  95  81  97  105 93  86  92  88  78  84  79  72  75  69  71  72  67  68  67  60  75  74  63  78  75  62  70  66  51  74  67  51  74  67  51  77  68  53  77  68  53  77  68  53  78  69  54  80  71  56  83  74  58  84  75  60  82  76  60  79  77  62  77  76  68  74  76  80  74  80  89  54  62  71  21  32  44  56  71  91  65  80  102 60  73  89  65  72  81  129 125 122 139 132 121 136 129 115 136 132 117 122 119 107 156 153 140 201 199 186 171 168 156 209 206 196 244 241 231 244 244 230 240 240 227 245 243 232 245 243 232 245 243 232 245 243 232 245 243 232 247 244 233 249 246 236 250 247 239 255 249 246 247 242 239 241 242 235 182 182 168 211 207 188 244 238 219 248 245 232 237 236 227 251 248 240 247 243 235 254 250 242 249 246 238 254 250 242 247 243 235 254 250 242 251 248 240 252 249 241 252 249 241 252 249 241 252 249 241 252 249 241 254 250 242 254 250 242 254 250 242 254 248 241 255 250 240 228 223 213 163 158 146 148 143 133 138 132 123 141 134 123 163 153 134 150 133 98  185 166 129 138 122 93  20  10  0   35  35  24  16  15  2   20  12  0   120 108 71  203 183 138 113 96  56  65  62  40  44  48  35  49  51  37  40  40  24  53  51  36  46  40  19  78  65  35  171 150 109 197 171 121 187 163 100 210 189 121 196 180 122 74  65  32  23  15  0   99  87  61  151 138 110 171 158 128 172 159 129 185 171 144 194 180 155 203 189 162 208 195 165 216 200 169 224 207 172 211 192 155 198 180 147 198 183 161 96  88  80  105 103 113 92  91  107 108 104 112 118 113 117 136 131 133 93  88  88  151 149 145 159 156 150 170 165 155 178 173 161 182 177 163 184 180 163 188 183 167 192 185 167 197 188 172 200 191 176 204 195 177 206 197 180 211 200 181 211 200 181 209 198 179 205 195 175 202 191 172 198 188 168 194 183 162 191 181 159 189 179 157 177 167 145 183 175 150 126 117 99  10  2   0   7   0   0   3   0   0   2   0   0   0   0   2   
112 107 97  126 121 111 140 135 125 205 200 190 223 217 210 233 227 222 220 214 209 233 227 220 230 224 217 224 221 213 223 220 212 229 226 218 229 226 218 227 227 218 227 227 218 226 227 218 229 231 221 234 234 223 228 225 215 230 225 213 174 167 154 116 107 92  108 99  84  84  78  64  80  72  61  98  91  80  109 102 90  103 96  85  110 103 92  111 104 93  107 99  88  108 100 91  100 91  85  97  91  86  105 99  94  99  94  82  85  81  66  84  79  69  86  81  73  92  86  81  100 94  89  108 103 96  111 105 96  136 131 119 129 124 112 128 124 109 133 128 114 152 145 131 137 129 118 134 127 116 137 129 120 110 104 95  113 108 96  112 107 95  105 100 88  113 110 99  106 102 94  110 104 95  101 97  85  118 114 97  124 120 101 130 130 105 109 108 86  113 110 97  120 116 110 79  75  72  58  53  53  35  30  31  50  45  47  50  43  45  47  40  38  57  52  40  79  75  60  87  83  67  74  67  51  81  67  56  120 103 82  174 153 115 192 170 123 176 156 111 139 119 76  147 129 85  163 145 101 144 126 85  132 113 72  138 122 80  104 91  45  85  75  24  99  90  34  61  55  0   79  72  15  148 143 90  98  93  42  109 103 53  167 160 117 107 100 71  186 179 154 228 221 196 142 135 108 127 118 91  89  79  53  211 204 176 239 231 208 154 145 125 131 123 105 151 142 127 222 215 199 230 225 211 239 234 220 225 220 206 235 231 216 231 226 214 231 226 214 231 226 214 231 226 214 229 226 216 229 226 216 230 227 217 228 225 215 228 225 215 230 227 217 230 227 217 228 225 215 238 232 223 184 179 169 73  68  59  61  56  42  75  71  50  64  62  35  54  52  23  50  49  15  62  59  24  58  55  17  51  48  8   46  43  5   56  50  15  77  71  36  129 124 85  137 131 99  193 187 166 247 242 221 158 154 121 93  90  52  73  69  34  127 124 91  80  76  43  58  53  25  118 112 92  176 171 150 112 108 78  107 102 65  103 95  57  55  46  4   80  69  25  106 90  47  114 90  55  185 162 131 197 183 158 181 173 153 140 134 118 72  68  53  140 135 121 103 98  84  138 133 119 104 100 83  78  74  57  121 117 100 108 105 85  154 150 133 219 214 202 239 234 222 246 239 228 226 220 206 126 120 102 122 116 93  127 123 97  54  50  22  59  54  26  45  40  12  51  44  17  50  43  16  42  34  10  57  50  25  44  37  10  71  64  35  115 109 75  91  84  52  100 93  68  115 107 85  109 103 73  140 134 99  141 139 99  122 119 81  103 99  68  123 117 94  168 162 144 131 124 110 155 151 134 158 154 138 150 147 127 160 156 137 155 152 137 141 138 125 139 137 124 111 109 94  132 128 109 153 149 130 146 142 125 129 127 112 99  99  86  66  68  56  61  62  52  59  57  51  65  61  58  61  57  56  70  65  64  58  54  51  78  74  70  89  85  82  117 113 110 130 126 123 135 131 128 118 114 111 119 113 106 108 104 92  100 97  77  99  95  76  145 139 130 249 243 238 240 236 232 234 230 227 241 235 230 241 235 230 241 235 230 241 235 230 242 236 231 242 236 231 242 236 231 242 236 231 233 227 222 252 246 241 245 239 234 236 230 226 241 235 230 252 246 241 200 194 190 98  94  86  129 132 117 145 145 129 148 144 129 153 146 133 137 130 116 138 133 119 146 146 130 159 160 141 135 131 112 147 143 126 129 131 119 129 131 119 140 140 126 139 139 125 132 138 129 120 128 119 123 127 117 134 136 124 145 145 129 150 148 131 135 131 112 155 150 129 152 147 123 150 144 121 139 135 114 135 131 112 138 133 117 145 140 124 169 163 147 173 166 150 170 161 144 161 153 128 164 159 120 181 177 133 148 143 103 147 141 106 155 146 117 127 117 93  126 115 96  109 101 81  115 109 86  98  93  70  124 121 97  120 117 95  119 115 98  111 107 90  79  75  58  93  86  70  134 125 108 162 142 121 172 137 110 166 119 85  176 121 82  176 116 75  165 108 65  158 104 61  175 118 78  155 100 61  158 103 67  161 115 87  180 150 135 167 153 142 164 159 149 238 237 226 237 234 224 235 232 222 233 230 219 231 229 218 231 229 218 231 229 218 231 228 220 233 229 221 240 236 228 228 225 217 236 233 223 237 235 222 242 240 225 221 219 202 164 162 145 163 161 143 160 159 141 144 142 127 224 222 207 240 237 224 234 231 220 241 238 227 250 247 239 244 241 233 238 232 225 236 231 224 238 232 225 238 232 225 238 232 225 238 232 225 239 233 226 241 235 228 241 235 228 239 233 226 246 240 233 246 240 233 208 200 193 129 121 114 138 130 121 180 173 161 193 185 167 137 130 105 122 116 86  95  89  59  126 117 90  178 168 147 194 182 168 136 122 108 154 139 119 107 87  69  104 81  68  117 97  92  93  83  86  73  66  71  96  88  84  63  55  49  71  70  66  93  96  90  99  100 95  34  35  30  47  46  39  113 112 106 76  75  66  168 162 155 160 147 140 139 127 117 162 163 147 180 183 168 184 186 174 169 175 166 155 169 164 112 130 133 98  114 129 99  112 131 98  102 117 89  92  102 48  57  59  109 119 115 104 108 100 125 124 115 76  75  66  68  68  66  34  37  45  27  35  46  53  60  71  25  32  36  184 186 183 205 204 198 164 160 155 118 115 109 144 140 135 219 215 209 255 255 251 247 243 237 248 244 238 245 242 236 248 244 238 248 244 238 248 244 238 248 244 238 247 243 237 247 243 237 247 243 237 247 243 237 248 244 236 248 244 236 248 244 236 248 244 236 248 242 235 248 242 235 249 246 238 250 247 239 240 239 231 251 248 240 247 241 234 236 228 217 233 224 207 207 200 173 159 150 117 120 113 72  126 120 74  126 122 75  115 115 76  115 116 84  144 145 122 159 160 141 149 151 137 146 150 140 148 156 148 141 152 146 137 146 143 132 142 139 124 134 128 119 129 124 112 123 115 108 116 109 106 108 98  103 102 93  94  96  86  87  90  82  82  87  81  80  88  83  83  90  85  83  90  85  80  88  81  89  94  90  89  92  91  77  77  77  104 102 98  159 156 146 174 170 151 143 140 118 168 163 149 239 232 221 245 237 229 247 242 232 253 247 240 242 237 229 255 249 242 254 248 243 208 204 203 121 115 112 127 118 103 155 146 119 135 125 87  153 143 106 161 150 124 113 104 87  87  90  75  89  95  84  79  86  75  74  80  69  79  86  75  78  85  73  80  89  77  92  100 91  81  89  84  75  80  76  68  71  66  68  68  63  64  63  57  71  71  60  74  72  59  66  62  48  68  61  48  68  61  48  69  62  49  70  64  50  72  65  51  73  66  52  76  69  56  79  72  58  76  69  56  75  70  56  73  71  58  70  71  64  67  70  76  71  76  88  50  60  70  21  32  46  56  71  91  65  80  102 60  73  89  66  72  81  125 121 118 143 133 123 139 132 119 134 130 115 137 135 122 180 178 165 194 192 179 173 171 158 243 241 228 247 244 231 243 241 228 243 241 228 245 243 232 245 243 232 245 243 232 245 243 232 248 245 234 248 245 234 250 247 237 250 247 239 252 249 243 251 247 244 226 227 220 159 159 145 221 215 196 207 199 181 219 214 202 243 240 230 251 248 240 245 244 235 252 251 242 247 246 238 251 248 240 249 246 238 255 253 245 249 246 238 252 249 241 252 249 241 252 249 241 252 249 241 255 249 242 255 249 242 254 250 242 254 250 242 255 252 241 250 247 237 255 254 244 192 189 179 148 145 134 145 139 130 147 142 132 164 155 138 159 143 112 195 178 143 141 125 99  12  1   0   26  24  13  24  22  9   32  23  0   142 128 90  196 178 132 89  75  36  74  73  53  35  36  27  38  37  26  37  34  22  46  41  29  46  38  18  85  70  39  185 162 120 201 175 123 196 172 110 207 187 119 195 179 121 56  47  18  37  29  11  100 87  64  151 138 110 172 159 129 172 159 129 189 175 148 198 184 157 206 192 165 213 198 169 213 195 165 234 215 180 182 163 126 208 193 159 150 137 116 89  81  75  99  97  107 101 101 115 119 116 122 132 128 129 153 149 150 113 108 107 162 158 152 169 165 157 175 170 160 175 170 158 182 177 163 184 180 163 188 183 167 192 185 169 197 188 170 200 192 174 204 195 177 206 197 180 209 201 181 209 201 181 207 199 179 204 195 175 202 192 170 198 188 166 194 183 162 191 181 159 189 179 157 177 167 145 183 175 150 126 117 99  9   1   0   7   0   0   6   1   0   5   3   3   3   3   6   
80  76  64  98  93  79  124 119 105 209 204 190 232 227 217 239 232 230 224 217 215 228 222 218 225 219 212 217 214 206 213 210 202 195 192 184 195 192 184 194 193 184 194 193 184 184 186 176 191 193 183 190 190 179 188 185 175 204 199 187 143 139 124 97  90  77  110 102 86  92  81  67  88  76  62  112 103 87  131 122 107 116 107 92  123 114 99  128 119 104 124 116 100 119 109 96  110 103 90  102 94  85  97  92  80  87  84  62  94  92  67  111 107 88  104 100 83  101 97  83  114 107 93  118 112 96  116 110 91  123 117 96  132 127 104 139 134 111 138 133 109 146 140 120 127 121 105 137 130 116 143 135 124 148 143 131 146 141 127 136 132 115 126 120 102 129 122 108 128 124 109 114 110 95  114 110 93  112 109 87  117 114 86  134 131 96  125 122 86  123 118 92  122 116 97  114 111 99  107 104 96  72  68  65  80  74  72  68  60  56  73  63  53  84  79  58  96  93  67  91  86  61  93  86  61  117 104 86  121 105 81  131 115 77  127 109 65  139 120 79  114 96  54  128 112 69  116 100 58  116 101 56  111 96  51  108 95  47  56  44  0   71  61  10  102 93  37  114 108 46  67  61  0   140 135 80  148 143 88  185 182 121 166 161 108 169 163 126 207 201 171 181 175 145 215 209 179 201 192 163 182 173 144 202 195 170 163 155 133 134 125 108 127 118 103 160 154 138 237 230 214 228 224 209 242 238 223 221 217 202 233 229 214 231 226 214 231 226 214 231 226 214 231 226 214 229 226 216 229 226 216 230 227 217 229 226 216 229 226 216 226 223 212 240 237 226 223 220 210 236 231 222 126 121 111 53  47  38  76  71  57  65  62  40  56  52  26  55  51  23  62  58  28  63  60  25  62  56  19  56  50  13  52  47  10  39  33  1   77  70  40  103 97  65  131 125 95  228 220 198 235 230 204 102 99  61  107 104 66  111 107 77  70  66  38  34  30  0   62  58  28  49  45  19  79  74  46  41  38  1   87  83  39  91  86  35  62  55  3   78  68  15  109 94  45  119 96  53  198 177 141 217 203 174 219 209 185 219 214 193 172 168 152 72  68  51  28  24  7   62  58  41  117 113 94  112 108 89  121 118 98  101 98  76  62  58  39  94  90  76  158 150 139 211 204 193 211 204 191 112 106 88  110 105 81  95  90  62  66  61  33  49  45  17  38  33  5   53  46  19  38  31  4   51  44  19  57  50  25  64  57  30  134 127 98  116 110 76  109 103 71  108 101 76  115 107 85  63  56  26  73  67  35  97  94  59  121 117 84  98  94  64  145 140 114 165 159 138 152 145 129 132 128 111 141 137 120 153 149 130 160 156 135 163 159 140 159 158 140 143 141 124 166 165 145 143 140 118 113 110 88  124 120 101 148 144 125 129 127 110 109 107 92  127 124 111 118 116 105 131 128 120 122 118 113 137 133 128 151 147 142 143 139 134 143 139 134 148 144 138 124 121 115 104 101 95  144 141 133 176 173 162 154 149 135 133 130 108 126 123 101 155 150 138 253 247 240 230 227 221 255 252 247 240 234 229 240 234 229 241 235 230 241 235 230 241 235 230 241 235 230 242 236 231 242 236 231 236 230 226 248 242 237 241 235 230 239 233 228 239 233 228 248 242 237 210 204 199 124 121 113 116 116 100 103 102 84  82  76  60  80  71  56  86  77  62  72  65  49  58  56  39  54  55  36  82  83  64  127 129 115 125 131 122 122 130 123 124 128 118 117 123 114 110 120 114 113 126 119 117 125 118 128 132 121 129 131 119 125 125 109 113 111 91  143 140 116 155 152 128 163 160 136 146 142 121 142 138 119 186 182 166 129 122 106 114 107 91  125 119 103 107 98  81  113 105 83  141 135 100 151 146 107 155 149 112 145 140 105 138 129 100 113 103 79  117 107 85  100 90  69  112 103 83  101 95  74  118 112 94  120 116 97  96  91  77  120 115 103 72  67  55  95  88  74  123 115 97  159 142 118 164 133 102 154 110 74  175 123 83  169 112 70  163 109 65  167 115 73  173 120 83  166 114 79  147 103 67  175 139 112 179 157 142 162 150 140 196 194 181 239 239 227 236 233 223 235 232 222 233 230 219 231 229 218 231 229 218 231 229 218 231 228 220 233 229 221 230 227 219 243 240 232 235 232 222 234 232 216 255 253 235 191 189 169 144 143 123 172 171 151 164 163 143 144 142 125 181 179 164 242 239 227 240 237 226 248 245 234 230 227 219 250 247 239 238 232 225 236 231 224 238 232 225 238 232 225 238 232 225 238 232 225 239 233 226 240 234 227 242 237 229 240 234 227 242 237 229 246 240 233 235 227 220 165 157 150 126 119 110 162 155 144 204 195 179 173 166 143 94  87  60  100 93  64  125 116 87  136 127 103 218 207 190 173 160 142 184 168 144 114 93  68  98  74  57  114 90  83  84  70  72  87  77  82  105 94  91  96  88  84  83  87  81  53  58  54  85  91  84  29  32  26  76  75  68  181 178 172 160 157 149 155 148 139 169 159 149 146 139 126 154 156 140 160 165 150 179 178 167 194 196 188 153 164 155 117 131 131 123 136 150 76  84  104 85  87  103 92  92  103 81  88  90  59  66  64  92  93  86  121 117 112 70  69  63  62  62  60  29  33  39  43  49  56  58  66  72  29  35  40  181 184 181 175 174 167 121 117 112 142 138 133 193 189 184 255 252 247 255 255 249 240 236 230 245 242 236 243 239 234 248 244 238 248 244 238 248 244 238 248 244 238 247 243 237 247 243 237 247 243 237 247 243 237 248 244 236 248 244 236 248 244 236 248 244 236 245 239 232 247 241 234 250 247 239 252 249 241 248 248 239 224 222 211 231 226 212 233 228 207 173 166 139 114 109 72  103 96  53  116 109 64  104 102 57  111 111 70  101 101 72  108 109 88  142 144 132 154 158 150 146 151 145 142 150 145 145 155 149 140 150 145 136 145 142 131 141 137 128 138 132 116 126 120 111 122 114 112 120 112 104 108 100 100 101 94  94  97  89  85  91  84  83  90  85  80  89  86  80  89  86  79  88  85  76  86  81  75  85  82  83  89  91  76  80  85  58  60  61  72  73  66  111 112 93  164 163 143 168 164 147 157 153 138 213 208 196 246 241 229 248 243 233 255 255 247 252 246 237 238 232 225 139 135 132 141 136 126 171 162 138 132 122 87  143 131 94  161 151 118 100 91  74  78  73  63  93  95  85  92  98  89  76  82  73  81  87  78  81  87  78  78  84  75  76  84  74  80  88  81  78  86  81  73  78  74  67  70  65  66  67  62  62  61  54  69  68  59  72  69  59  63  60  47  62  57  43  63  57  43  65  58  44  66  58  47  74  67  55  76  69  58  80  72  61  79  74  62  76  71  59  74  72  59  73  72  61  71  72  67  67  70  78  70  77  91  55  64  77  27  37  54  56  71  91  65  80  102 60  73  89  66  72  81  124 120 117 145 136 125 140 133 120 132 127 115 158 156 143 195 193 180 160 158 145 196 194 181 255 252 239 251 249 236 249 246 234 245 243 230 245 243 232 245 243 232 245 243 232 245 243 232 248 245 234 249 246 236 250 247 237 249 246 238 251 248 242 252 249 243 195 194 185 195 193 180 221 213 193 164 154 135 156 147 134 253 248 238 251 248 240 245 244 235 252 251 242 247 246 238 249 246 238 251 248 240 255 255 247 247 243 235 252 249 241 252 249 241 252 249 241 252 249 241 255 249 242 255 249 242 254 250 242 254 250 242 255 252 241 243 240 230 255 255 252 226 223 212 163 160 149 139 137 126 142 137 127 159 152 136 146 135 105 170 155 124 162 148 123 10  0   0   11  8   0   32  27  13  50  37  7   172 156 116 193 175 131 61  48  11  87  85  70  30  31  24  23  20  12  43  38  30  27  22  12  49  40  23  74  57  24  178 156 111 187 162 107 187 163 100 191 170 102 179 163 107 31  21  0   35  26  11  100 87  64  151 138 110 172 159 129 172 159 129 189 175 148 199 185 158 208 195 167 216 200 171 225 205 175 210 190 156 191 174 136 201 188 156 92  81  65  100 94  91  99  96  104 125 123 133 125 120 124 139 135 134 163 158 157 124 120 117 173 170 162 178 173 163 175 170 158 174 169 155 182 178 161 184 180 163 188 183 167 192 185 169 197 188 170 200 192 174 204 195 177 206 197 180 209 201 181 209 201 181 207 199 179 204 195 175 202 192 170 198 188 166 194 183 162 191 181 159 189 179 157 177 167 145 183 175 150 126 117 99  8   0   0   6   0   0   4   0   0   3   0   1   1   1   3   
150 143 127 89  83  65  126 120 102 184 180 165 224 218 209 223 219 216 223 219 216 225 219 214 225 219 212 223 220 212 223 220 212 223 220 212 226 222 214 229 228 219 231 230 221 226 225 217 231 230 221 226 226 215 219 216 205 234 229 217 160 155 143 110 103 90  133 124 108 98  90  69  63  53  31  57  47  26  67  56  35  54  44  22  63  53  31  64  56  34  59  51  29  54  49  26  56  51  28  49  44  23  93  88  62  83  80  45  111 108 71  91  88  53  62  59  26  51  46  16  42  35  6   67  61  31  91  84  52  73  67  33  79  74  37  87  82  43  86  83  45  95  91  58  54  49  24  61  55  35  55  49  31  69  63  45  69  64  43  70  65  40  58  51  24  81  74  47  80  75  49  76  71  48  90  85  62  62  58  28  86  83  45  88  85  38  135 129 81  96  88  43  67  59  21  54  52  21  66  68  42  54  55  32  33  29  8   57  48  22  72  61  30  62  59  24  111 108 71  134 129 89  116 108 72  55  44  16  31  18  0   61  48  11  61  49  9   78  66  27  55  42  6   46  32  0   71  58  17  110 97  49  88  76  23  78  69  11  51  42  0   93  84  30  89  83  26  139 134 70  114 108 44  144 136 84  203 196 144 140 134 75  130 125 69  137 133 91  133 127 92  214 210 175 212 206 171 187 178 145 109 100 71  113 105 81  154 145 125 151 143 125 148 139 124 202 195 181 237 230 216 233 229 214 225 220 206 221 217 202 230 225 211 231 226 214 231 226 214 232 227 215 232 227 215 230 227 217 230 227 217 230 227 217 231 229 218 238 236 225 228 225 215 245 239 230 234 229 219 209 203 196 57  52  44  53  45  36  75  68  57  41  35  19  45  37  19  49  41  21  51  43  21  50  43  16  49  40  11  47  38  9   47  38  9   53  43  17  32  22  0   121 112 86  220 211 183 152 146 116 112 106 71  86  82  36  137 133 89  91  84  54  127 120 93  56  51  11  83  78  34  107 102 63  100 95  56  83  78  34  79  76  25  113 109 51  100 94  32  85  77  16  110 97  40  115 93  46  198 178 137 248 233 202 241 232 205 230 225 201 172 169 150 108 105 85  87  84  65  125 121 102 114 111 89  120 117 95  134 131 109 111 108 84  79  76  52  76  70  52  73  66  52  128 119 106 140 131 115 131 123 103 115 108 83  43  36  9   50  43  14  62  55  27  55  48  20  58  51  24  59  52  25  67  60  35  41  33  8   134 127 100 246 239 209 151 145 111 130 124 92  138 131 106 122 114 92  84  80  50  59  55  24  91  86  63  161 156 135 109 103 82  137 131 110 216 210 191 175 168 155 79  71  60  171 163 152 210 204 186 240 235 214 245 242 218 176 173 149 117 114 90  197 194 170 209 205 184 66  64  40  43  41  12  98  96  67  51  46  18  76  71  46  132 126 106 115 109 90  83  79  60  65  63  46  109 109 93  101 101 85  77  78  62  53  53  37  59  59  43  73  73  57  92  93  77  146 146 130 201 199 184 142 140 122 130 130 105 137 137 112 169 164 150 240 235 225 236 233 225 240 236 230 238 235 229 238 235 229 238 235 229 238 235 229 240 236 230 240 236 230 240 236 230 240 236 230 243 237 233 239 233 228 239 233 228 243 237 233 248 242 237 241 235 230 203 197 192 117 111 102 107 105 87  112 108 89  117 109 91  97  86  69  88  77  60  37  29  11  46  42  23  45  49  29  49  56  44  97  109 103 108 124 121 103 121 119 113 127 124 110 126 123 108 128 130 110 130 133 117 133 130 121 133 129 118 129 121 110 119 107 106 113 97  137 142 124 161 164 143 168 169 148 140 136 117 162 156 138 187 180 164 126 117 101 117 109 93  129 120 105 108 99  84  115 107 89  162 154 131 124 117 92  135 128 103 123 116 93  124 113 94  120 109 92  132 121 106 100 89  75  105 96  78  109 100 85  119 113 97  111 104 91  89  84  72  108 103 94  66  58  49  88  81  67  107 100 82  158 144 119 169 140 109 151 109 73  174 123 83  179 125 82  171 119 75  170 120 80  171 122 88  156 111 81  149 116 84  178 155 126 175 157 143 180 171 160 228 225 213 237 237 223 236 233 223 235 232 222 234 231 220 233 230 219 231 229 218 231 229 218 231 228 220 233 229 221 232 226 219 243 238 231 236 231 222 239 234 220 228 224 207 157 154 134 157 156 134 155 154 131 120 118 98  146 145 127 144 142 127 206 203 190 255 255 245 235 232 222 235 232 224 238 235 227 239 233 226 236 231 224 236 231 224 238 232 225 238 232 225 239 233 226 239 233 226 239 233 226 245 239 232 242 237 229 242 237 229 238 232 225 245 237 231 207 199 192 132 124 118 132 124 116 212 202 190 207 199 181 114 107 82  124 118 88  116 110 80  101 94  67  163 155 133 219 209 185 180 164 135 135 115 87  126 102 83  75  51  43  86  72  75  77  67  73  114 102 104 106 99  99  42  46  49  53  61  65  79  84  85  54  57  54  64  64  55  160 158 145 179 172 156 158 152 133 164 157 139 153 152 134 152 157 140 170 174 161 169 168 162 159 158 151 102 110 103 110 121 120 90  99  114 80  84  105 97  94  111 99  97  109 85  89  93  40  43  42  109 105 102 121 115 110 93  89  86  84  82  83  25  29  32  49  55  60  42  48  53  31  35  38  179 179 179 154 152 148 111 108 102 186 182 177 245 242 236 250 246 241 247 243 237 247 243 237 245 242 236 247 243 237 248 244 238 248 244 238 248 244 238 248 244 238 248 244 238 248 244 238 248 244 238 248 244 238 248 244 236 248 244 236 248 244 236 248 244 236 250 245 238 252 246 239 246 240 233 235 232 222 220 220 207 216 215 197 188 185 161 134 130 102 100 94  60  99  94  52  99  93  49  73  69  27  103 101 68  104 106 80  100 103 86  111 115 105 144 149 145 137 144 142 131 141 137 126 136 131 125 137 131 125 137 131 106 118 114 117 129 125 125 137 133 110 120 114 107 117 109 92  100 93  99  105 98  90  96  89  84  90  83  83  90  85  81  91  87  77  89  87  74  85  86  68  83  80  75  91  81  74  89  82  75  86  89  67  75  81  56  61  69  66  70  73  75  79  71  80  82  70  130 130 116 165 163 150 160 158 143 193 189 175 246 241 227 255 251 237 230 223 209 153 146 133 153 146 135 149 140 123 144 133 100 151 139 102 159 149 114 118 108 84  75  69  60  87  85  83  85  88  82  76  82  75  86  92  86  79  85  79  83  89  82  78  84  77  80  88  81  65  73  68  76  83  78  71  77  72  68  71  66  69  69  65  71  70  64  69  68  59  70  67  56  63  60  47  66  64  51  65  60  48  63  58  46  61  55  46  65  60  50  68  62  53  72  67  57  75  69  60  73  68  59  72  69  61  70  69  61  67  70  67  66  68  79  69  76  92  54  63  78  25  36  53  57  72  92  62  77  97  56  70  86  66  73  82  123 119 116 131 124 112 130 123 111 138 133 121 183 180 169 159 156 146 164 161 151 234 231 220 249 246 236 249 246 236 249 246 236 249 246 236 249 246 236 249 246 236 249 246 236 249 246 236 248 245 234 249 246 236 249 246 236 249 246 236 250 247 239 233 229 221 191 191 180 234 230 215 213 203 182 168 153 133 137 123 110 215 206 195 251 248 238 255 255 247 251 250 241 251 250 241 249 246 238 252 249 241 254 250 242 251 248 240 251 248 238 252 249 239 254 251 240 254 251 240 255 250 240 255 250 240 255 250 240 255 250 240 252 249 239 250 247 237 255 255 246 252 249 239 195 192 182 141 138 127 135 132 121 147 143 126 159 149 123 144 133 102 152 140 117 29  18  2   25  23  10  22  15  0   52  37  3   186 165 124 181 163 119 52  41  8   59  57  44  45  46  43  28  27  23  17  14  8   32  26  21  41  32  14  96  79  44  186 165 115 186 161 103 213 189 124 216 198 129 168 155 100 34  24  0   43  34  21  101 89  65  151 138 110 171 159 131 171 159 131 186 174 146 197 186 158 206 194 166 216 200 171 224 202 171 186 164 130 209 195 154 172 161 128 88  81  69  92  87  88  108 104 112 126 123 131 138 133 135 156 150 147 175 169 164 126 120 113 170 165 155 174 167 156 178 171 157 178 171 155 183 177 161 187 180 164 190 184 166 193 187 168 198 189 172 201 193 175 205 196 179 207 199 181 208 200 180 209 201 181 207 199 179 204 195 175 202 192 170 198 188 166 194 183 162 191 181 159 188 178 156 182 172 150 178 171 146 123 115 97  11  3   0   9   3   3   7   2   1   2   0   0   4   1   4   
162 157 136 100 94  73  136 130 111 199 195 180 232 227 217 226 222 216 238 234 231 230 223 219 230 224 217 228 225 217 227 223 215 227 223 215 226 222 214 227 227 218 229 228 219 223 222 213 226 225 217 227 227 216 227 224 213 231 226 214 160 155 143 108 101 87  126 117 101 113 103 81  81  67  42  74  55  32  80  56  34  65  41  19  65  46  23  64  50  25  60  50  24  72  65  38  59  54  26  60  55  29  86  81  51  93  90  48  104 103 55  87  85  40  92  87  46  103 98  59  78  71  32  77  70  31  92  87  46  69  64  20  53  50  3   74  71  22  96  93  46  81  77  35  62  56  19  76  69  41  47  42  19  66  60  37  65  60  32  99  93  57  134 129 89  74  66  28  38  30  0   72  66  34  39  35  2   68  65  27  70  65  21  61  56  3   105 99  42  130 118 63  113 103 54  63  61  19  39  41  4   49  50  15  62  59  22  123 112 68  108 98  51  56  52  5   65  61  15  156 150 102 131 122 78  74  62  27  88  75  45  92  81  46  70  63  24  107 100 59  81  72  32  50  40  0   76  64  23  125 114 67  99  89  38  97  88  31  109 102 45  99  91  37  90  84  27  92  86  20  119 114 50  185 176 129 195 186 144 140 133 81  175 168 116 193 189 143 242 237 196 242 239 199 226 220 183 111 103 69  104 93  63  85  76  51  140 131 111 145 137 119 145 136 121 210 203 190 236 229 215 241 237 222 232 227 213 228 224 209 233 229 214 231 226 214 231 226 214 232 227 215 232 227 215 230 227 217 230 227 217 230 227 217 231 229 218 240 237 226 231 229 218 230 224 215 242 237 227 164 159 151 39  33  26  55  48  39  65  57  46  37  28  15  41  30  13  45  34  15  47  37  15  58  49  25  60  50  24  57  48  19  54  45  14  68  60  26  121 113 80  143 135 104 134 126 92  69  63  26  130 126 84  136 133 82  121 117 71  164 157 128 181 175 147 145 141 99  143 139 95  190 185 143 128 123 82  122 118 74  111 105 55  122 116 54  119 114 48  101 94  28  94  83  23  110 91  40  196 175 135 243 225 195 230 218 193 158 152 129 80  77  56  28  25  3   33  29  8   69  66  44  154 151 129 68  64  43  92  89  65  94  92  63  104 101 75  109 103 82  93  86  70  100 91  76  101 93  75  121 113 91  84  77  49  56  49  19  55  48  18  74  67  40  58  51  24  60  53  26  65  58  31  57  50  25  98  90  65  234 227 200 230 224 194 197 191 156 131 125 93  92  84  60  71  63  41  82  78  47  41  37  9   39  33  14  45  38  22  60  54  33  77  72  51  151 145 124 159 152 136 136 128 117 122 114 103 210 204 186 187 182 158 120 118 91  97  95  66  132 130 101 189 186 160 205 202 178 83  80  56  46  44  13  51  50  16  75  71  38  109 103 73  186 179 152 185 178 153 172 166 143 66  65  43  63  64  44  31  35  15  36  39  20  35  38  19  48  49  30  88  88  70  105 108 89  94  97  78  122 122 106 120 118 98  113 113 85  114 114 86  156 152 135 246 241 229 241 238 227 241 237 229 237 234 228 237 234 228 238 235 229 238 235 229 238 235 229 238 235 229 240 236 230 240 236 230 239 233 228 243 237 233 243 237 233 239 233 228 241 235 230 246 240 235 202 196 191 97  91  82  123 121 104 127 124 102 117 109 89  89  78  59  90  79  60  51  43  23  47  43  22  35  38  19  74  85  74  111 128 124 111 132 134 104 126 128 114 132 133 107 127 127 99  123 129 98  122 127 111 129 129 120 134 131 120 134 129 115 128 119 105 113 103 114 121 108 116 121 105 111 111 95  108 104 87  157 150 132 168 159 143 120 111 96  123 114 99  116 107 92  115 106 91  107 98  83  122 113 98  114 105 90  120 111 96  122 113 98  112 100 88  114 103 91  132 120 108 120 108 96  94  85  72  98  88  76  122 115 101 88  81  69  94  89  80  100 95  85  88  80  71  88  81  69  100 93  75  151 139 113 164 138 106 148 109 70  165 118 74  174 122 78  170 121 76  165 117 78  172 124 97  147 108 82  171 148 117 165 152 124 168 157 140 217 210 199 231 231 217 233 235 223 233 233 222 234 231 220 233 230 219 233 230 219 231 229 218 231 229 218 231 228 220 233 229 221 238 232 225 233 228 218 246 241 229 248 244 229 188 183 167 139 135 114 167 167 142 114 113 88  60  59  37  128 126 106 155 153 135 174 172 157 249 246 234 230 227 217 244 241 233 233 229 221 239 233 226 236 231 224 236 231 224 238 232 225 238 232 225 238 232 225 239 233 226 239 233 226 248 242 235 236 231 224 247 241 234 236 231 224 244 236 229 242 234 227 165 157 150 123 115 106 164 154 144 172 163 148 123 116 93  98  91  63  98  91  59  154 147 117 112 104 79  206 197 173 191 178 148 135 117 89  128 106 86  70  51  44  88  78  84  96  87  99  101 91  96  107 102 106 62  68  72  89  100 103 77  84  84  102 105 102 99  99  90  165 161 149 157 148 133 155 146 129 188 184 165 139 140 121 64  71  57  61  65  57  66  62  61  102 100 98  70  76  69  88  95  95  55  59  76  86  87  110 91  86  104 87  81  92  69  68  73  70  70  70  112 105 103 96  89  87  73  69  68  69  67  68  19  23  24  63  69  72  25  32  34  43  48  49  143 143 143 118 116 114 149 145 142 224 221 215 255 252 247 243 239 234 247 243 237 247 243 237 247 243 237 247 243 237 248 244 238 248 244 238 248 244 238 248 244 238 248 244 238 248 244 238 248 244 238 248 244 238 248 244 236 248 244 236 248 244 236 248 244 236 254 248 241 250 245 238 238 232 225 225 220 208 208 207 187 185 185 157 115 114 82  80  76  41  76  70  33  63  56  17  83  75  39  131 125 95  97  98  77  96  101 88  95  101 92  110 118 113 136 145 144 131 142 143 125 136 137 120 133 133 121 133 129 121 134 127 103 115 111 113 125 121 119 131 127 104 116 112 104 114 109 92  100 93  99  105 98  89  94  90  81  89  84  81  91  87  78  90  88  74  88  88  73  86  89  69  85  84  68  85  79  73  89  86  77  93  97  75  88  95  65  75  83  60  68  74  63  70  68  71  77  70  83  87  77  129 131 119 160 160 146 144 142 127 192 185 167 233 225 205 174 164 142 145 133 110 166 154 131 137 126 98  153 143 106 159 149 112 118 108 82  100 91  76  105 98  96  92  90  91  81  83  83  77  82  78  81  86  82  78  84  79  67  72  68  68  73  69  74  82  77  77  84  79  74  82  77  71  77  72  69  73  67  70  71  66  71  70  64  69  68  59  70  67  56  65  62  50  58  55  43  57  54  43  57  54  43  57  53  45  66  63  55  67  64  56  70  66  58  71  67  59  70  66  58  70  66  60  68  67  60  65  67  66  66  68  81  71  75  94  55  61  80  25  36  55  57  72  92  62  77  97  56  70  86  66  73  82  117 115 111 127 120 109 132 127 115 149 144 132 177 174 163 129 126 116 202 199 189 250 247 237 241 238 227 251 248 238 237 234 224 247 244 233 249 246 236 249 246 236 249 246 236 249 246 236 248 245 234 249 246 236 249 246 236 249 246 236 250 247 237 210 208 197 204 204 190 233 229 212 200 186 163 196 177 156 172 153 139 131 117 106 238 232 223 255 255 246 250 249 240 252 251 242 250 247 239 252 249 241 254 250 242 251 248 240 251 248 238 252 249 239 252 249 239 252 249 239 254 249 239 254 249 239 254 249 239 255 250 240 255 253 243 255 253 243 255 255 246 255 255 248 223 220 210 162 159 148 136 133 123 132 127 113 157 152 126 159 149 123 121 111 90  22  13  0   36  31  19  9   3   0   75  58  23  191 168 126 172 154 112 161 150 120 66  63  53  27  27  27  35  33  32  24  20  17  32  25  23  31  19  5   125 106 69  203 179 128 187 163 102 202 180 115 198 179 112 128 113 61  21  11  0   30  20  10  101 88  67  151 138 110 171 159 131 171 159 131 185 173 145 195 184 156 202 191 163 210 194 165 200 177 146 186 164 128 204 192 151 172 166 132 84  79  69  106 100 104 123 119 125 137 132 136 150 143 144 164 158 153 179 174 167 129 124 114 172 164 153 174 167 154 178 171 155 180 173 157 183 177 161 187 180 164 190 184 166 193 187 168 198 189 172 201 193 175 205 196 179 207 199 181 208 200 180 209 201 181 207 199 179 204 195 175 202 192 170 198 188 166 194 183 162 191 181 159 188 178 156 177 167 145 172 165 140 121 112 95  8   0   0   5   0   0   4   0   0   6   4   5   3   0   3   
107 100 73  96  88  68  141 135 119 199 194 182 230 227 219 212 208 200 224 221 215 223 217 210 223 217 210 221 218 210 221 218 210 230 227 219 228 225 217 225 224 215 224 223 214 234 234 225 226 225 217 220 220 209 221 218 208 235 230 218 171 166 154 125 118 105 142 131 115 97  80  58  86  60  37  100 62  43  113 68  51  105 59  43  92  54  35  75  50  26  67  51  24  53  46  19  48  45  19  86  81  55  87  83  52  90  88  46  87  86  36  64  60  14  87  83  37  71  61  21  85  75  35  97  88  46  109 102 57  105 99  51  88  82  32  77  72  21  77  72  21  89  83  33  77  71  25  72  65  29  52  46  16  47  43  13  60  57  19  78  74  27  140 135 84  132 122 70  88  78  29  80  76  34  27  25  0   99  94  55  57  53  7   69  64  9   72  63  5   101 87  31  104 92  41  86  82  38  46  45  4   44  45  1   119 115 66  163 152 95  139 126 67  90  83  29  55  50  0   118 108 52  94  81  31  104 90  51  114 101 69  59  54  17  79  76  34  98  95  43  87  85  31  93  85  35  171 162 115 200 191 146 119 110 68  61  52  10  89  83  37  119 114 63  141 137 77  101 96  29  108 102 42  225 212 176 211 197 168 241 229 192 210 201 159 202 199 152 244 243 195 224 222 179 236 233 193 210 202 166 213 202 171 184 174 150 174 166 146 140 131 113 142 133 118 221 214 200 235 228 214 241 237 222 232 227 213 228 224 209 233 229 214 231 226 214 231 226 214 231 226 214 231 226 214 231 229 218 231 229 218 231 229 218 231 229 218 238 236 225 235 232 222 226 221 211 245 239 230 140 132 126 36  27  21  80  72  65  88  81  69  102 94  76  106 96  74  111 99  76  114 102 76  125 114 86  133 122 92  131 120 88  121 111 71  123 115 63  152 145 92  90  84  38  45  38  0   39  35  0   66  62  18  76  72  25  122 117 76  193 187 155 140 133 103 193 187 153 198 192 158 204 197 167 179 173 143 209 204 167 163 157 109 131 125 63  119 115 46  115 108 42  111 100 40  124 104 56  136 115 76  116 97  72  109 97  74  74  69  43  41  38  14  39  36  12  72  69  45  92  89  65  51  48  24  26  23  0   61  58  32  45  41  10  41  37  9   45  39  16  66  60  41  126 117 99  156 148 128 126 118 93  72  65  38  86  79  50  77  70  40  67  60  33  56  49  22  78  71  44  69  62  34  86  79  52  165 158 131 206 197 171 148 139 110 232 226 191 221 215 183 149 142 117 52  44  22  44  39  9   55  51  23  60  52  34  24  16  0   65  58  33  113 106 79  107 100 73  73  65  43  93  84  67  81  72  57  46  40  21  83  78  55  69  67  36  57  58  23  103 104 70  210 208 177 188 185 161 96  93  69  62  60  29  54  52  19  143 138 108 152 146 116 198 189 162 217 207 183 185 179 156 71  69  49  68  69  50  42  45  28  58  61  44  69  71  55  47  49  32  75  77  60  90  92  76  83  85  69  99  100 84  177 179 158 165 165 136 135 135 105 162 160 140 251 249 234 234 231 220 232 231 222 237 234 228 237 234 228 238 235 229 238 235 229 238 235 229 238 235 229 240 236 230 240 236 230 239 233 228 243 237 233 243 237 233 239 233 228 234 228 223 248 242 237 212 206 201 107 102 92  112 108 91  136 130 109 126 116 94  102 89  69  75  63  42  68  58  36  80  74  51  91  92  74  85  93  84  112 126 123 104 125 127 100 120 122 116 135 135 111 129 129 101 125 131 100 125 128 124 140 139 127 139 135 123 133 127 113 120 116 86  92  86  89  92  87  88  90  82  88  87  78  105 100 86  165 159 140 168 159 143 120 111 96  133 123 110 119 109 96  123 114 101 107 98  85  119 109 96  120 110 98  92  83  70  109 100 87  132 120 110 150 138 129 142 131 119 102 90  78  91  81  69  91  81  71  111 104 93  74  66  57  98  91  82  101 93  86  108 100 93  91  84  75  91  87  70  145 135 109 163 137 105 148 111 71  155 110 66  168 119 72  169 121 76  160 114 75  160 117 91  156 123 100 184 169 138 162 155 127 180 173 157 230 227 217 228 230 218 238 243 230 232 232 220 234 231 220 234 231 220 233 230 219 233 230 219 231 229 218 231 228 220 233 229 221 236 231 224 235 230 220 245 240 228 236 232 218 151 148 129 138 134 113 155 154 129 72  71  46  35  34  9   86  85  62  168 164 147 158 154 140 220 215 203 237 234 224 245 242 234 231 228 220 240 234 227 236 231 224 236 231 224 238 232 225 238 232 225 238 232 225 238 232 225 239 233 226 246 240 233 241 235 228 242 237 229 238 232 225 240 232 226 247 239 233 206 197 191 144 136 129 141 131 123 151 142 129 102 95  72  120 113 86  115 109 77  115 109 77  107 100 73  166 159 134 201 192 163 123 111 86  109 91  74  90  75  71  108 102 113 115 113 129 103 96  112 111 109 119 90  101 102 75  90  85  66  74  69  95  96  91  124 121 113 150 142 133 168 157 149 155 145 135 170 168 150 140 142 126 67  73  64  48  51  50  31  26  32  81  76  82  76  79  78  86  91  94  111 113 130 101 100 121 97  87  104 120 112 121 92  90  93  97  95  95  90  83  83  85  78  78  93  88  88  85  85  85  66  68  68  95  99  100 71  76  77  109 111 111 137 137 137 133 131 130 201 197 194 243 239 236 250 246 241 240 236 230 247 243 237 247 243 237 247 243 237 247 243 237 248 244 238 248 244 238 248 244 238 248 244 238 248 244 238 248 244 238 248 244 238 248 244 238 248 244 236 248 244 236 248 244 236 248 244 236 252 246 239 243 235 228 221 213 206 199 195 180 194 194 165 102 104 67  57  57  16  55  53  13  45  40  3   93  84  56  150 140 119 134 128 114 92  93  86  86  94  89  87  97  91  111 123 119 128 141 141 123 136 141 116 130 139 112 127 134 114 128 125 115 128 121 97  109 105 107 119 117 110 122 118 97  109 105 100 110 104 90  97  92  91  98  93  81  89  84  74  82  79  74  83  82  75  86  87  73  86  89  70  86  88  66  84  87  60  80  85  61  81  86  64  81  89  58  76  81  46  61  65  58  71  74  65  77  75  63  74  68  78  91  84  79  89  81  123 127 117 179 179 163 176 168 147 170 158 132 192 174 146 168 148 116 135 118 80  156 142 104 156 146 108 98  91  61  83  78  64  108 102 100 96  89  87  93  88  88  76  79  78  78  83  82  74  78  77  77  82  80  75  80  78  74  78  77  67  75  72  80  87  85  74  82  79  71  77  72  71  74  68  70  71  66  73  71  65  70  69  61  70  67  56  65  62  52  53  52  41  54  53  44  56  55  47  59  57  51  69  68  61  68  67  60  66  64  58  64  63  57  65  61  56  65  61  56  63  62  58  60  62  64  64  66  82  70  73  95  54  60  81  24  35  54  57  72  92  62  77  97  56  70  86  66  73  82  112 111 107 123 116 104 136 131 119 167 162 150 150 147 137 149 146 135 243 240 230 252 249 239 241 238 227 251 248 238 237 234 224 247 244 233 249 246 236 249 246 236 249 246 236 249 246 236 249 246 236 249 246 236 249 246 236 249 246 236 241 238 227 185 182 170 221 219 204 204 198 180 182 165 143 198 176 156 183 160 145 82  63  53  192 184 175 252 251 242 247 246 238 251 250 241 248 248 239 251 250 241 254 250 242 251 248 240 251 248 238 252 249 239 252 249 239 251 248 238 253 248 238 252 246 237 252 246 237 252 246 237 243 240 230 247 244 233 244 241 231 254 251 240 255 254 244 192 189 179 124 121 111 116 114 99  145 142 118 161 156 131 133 124 104 30  21  6   27  22  8   22  14  0   113 94  57  181 159 116 167 148 109 222 211 183 85  81  73  16  16  16  32  30  28  28  24  20  35  29  26  27  15  3   137 118 82  217 194 140 200 176 113 214 193 128 198 182 115 98  86  35  31  20  1   38  29  18  101 88  67  151 138 110 171 159 131 171 159 131 186 174 148 194 182 157 197 186 158 203 187 158 181 159 126 207 188 151 192 183 138 176 173 138 81  78  70  118 115 120 132 127 131 141 136 137 155 149 144 167 161 152 178 173 163 126 121 109 172 165 151 174 168 152 178 171 155 180 173 157 185 178 160 187 181 162 190 184 166 193 187 168 198 189 172 201 193 175 205 196 179 207 199 181 208 200 180 209 201 181 207 199 179 204 195 175 203 193 171 198 188 166 194 183 162 191 181 159 187 177 153 174 164 140 176 168 145 134 125 108 22  13  7   11  4   4   8   3   3   13  11  12  7   5   8   
107 99  66  109 102 79  125 118 105 179 174 165 233 229 221 219 215 207 233 229 221 227 222 214 227 222 214 226 222 214 226 222 214 233 229 221 227 223 215 224 223 214 222 221 212 230 229 220 223 222 213 220 220 209 229 226 216 234 231 220 167 162 150 107 100 86  111 100 85  100 80  62  98  67  48  122 75  61  137 81  70  146 91  80  120 72  59  89  58  39  74  55  32  64  55  28  56  53  27  90  85  60  45  41  8   73  71  24  81  78  27  66  63  12  93  88  39  102 93  50  135 126 83  108 99  56  63  57  11  71  67  21  86  83  34  77  76  27  88  85  34  106 101 48  85  80  29  48  43  1   60  57  19  83  83  42  118 116 71  84  79  24  135 127 66  148 134 75  154 143 85  80  72  20  75  69  21  100 95  46  72  67  16  95  88  31  90  81  22  107 93  38  85  73  23  104 98  52  49  45  0   31  27  0   119 112 60  114 101 41  146 134 70  127 119 58  74  66  7   74  61  2   127 113 56  133 121 70  93  84  39  150 147 105 157 158 112 150 150 93  164 163 102 148 143 88  197 190 138 222 214 166 201 192 149 156 149 108 133 128 86  131 128 81  153 148 95  105 102 39  121 114 57  194 182 145 189 175 148 210 194 165 175 162 128 162 158 111 182 181 131 183 184 138 162 160 120 188 180 144 224 213 183 194 184 160 163 154 137 135 126 111 140 131 115 229 222 208 235 228 214 234 230 215 225 220 206 221 217 202 226 222 207 231 226 214 231 226 214 231 226 214 231 226 214 231 229 218 231 229 218 231 229 218 231 229 218 235 232 222 236 233 223 235 230 220 238 232 223 129 121 114 27  19  13  93  84  78  112 102 92  111 101 79  115 103 77  118 107 79  122 108 81  121 108 78  135 120 89  133 118 84  118 104 63  116 107 53  140 133 79  101 93  45  76  69  26  83  76  35  98  93  51  159 155 113 186 181 142 192 186 154 232 225 197 219 212 183 218 211 183 255 250 225 241 234 207 237 231 199 144 140 98  143 139 81  142 136 74  147 138 81  108 95  45  118 98  55  122 101 62  63  45  12  47  33  4   48  41  13  38  33  7   30  25  0   72  67  37  75  71  40  42  38  8   25  20  0   46  42  11  111 108 73  121 117 82  91  87  57  72  67  39  65  58  31  93  86  59  71  64  37  53  46  19  42  36  4   69  62  30  76  69  41  115 108 81  98  91  61  94  88  56  138 132 102 153 143 117 153 141 118 214 202 178 234 228 196 186 182 149 135 133 106 18  15  0   44  39  11  52  47  19  58  50  28  55  47  22  39  33  3   78  72  40  70  64  31  100 93  64  156 148 126 152 144 124 110 102 82  37  31  8   69  66  40  143 143 113 73  74  42  185 185 153 92  90  63  43  40  16  75  75  48  116 116 87  161 156 131 149 142 117 125 115 89  206 197 169 105 101 73  107 106 81  71  73  52  36  39  22  42  44  30  86  88  74  84  86  74  93  95  85  79  80  73  91  92  83  82  84  67  156 158 137 148 147 120 174 174 147 159 158 140 247 244 231 226 226 215 245 244 235 237 234 228 237 234 228 238 235 229 238 235 229 238 235 229 238 235 229 240 236 230 240 236 230 243 237 233 239 233 228 239 233 228 243 237 233 236 230 226 241 235 230 199 193 188 97  91  82  132 128 111 151 145 124 117 106 87  82  69  51  64  51  30  100 87  66  106 96  74  100 97  77  93  97  86  114 126 122 108 126 127 107 127 129 119 135 136 115 133 134 113 135 139 116 138 142 119 137 136 125 140 135 128 138 132 123 128 122 92  95  89  91  92  87  89  87  83  92  88  80  110 103 90  161 155 137 168 159 143 102 93  78  138 129 116 135 126 113 127 117 105 116 107 94  102 93  82  150 140 130 102 93  82  99  89  79  107 95  86  132 120 110 130 118 106 110 98  86  102 93  80  100 90  80  102 94  85  87  79  70  97  90  81  109 101 92  115 107 98  97  90  77  89  85  66  145 135 109 166 139 107 153 114 75  156 106 64  163 111 67  165 118 74  158 117 78  144 107 81  180 151 129 178 166 138 167 162 136 196 191 177 242 239 231 235 239 228 227 231 220 232 232 220 233 230 219 233 230 219 233 230 219 233 230 219 231 229 218 231 228 220 233 229 221 227 222 214 247 242 232 232 227 215 212 208 191 139 135 116 156 153 129 128 126 99  52  52  25  56  55  28  44  41  17  172 169 150 165 158 144 186 179 165 243 239 227 235 232 222 235 232 224 240 234 227 236 231 224 236 231 224 239 233 226 238 232 225 238 232 225 238 232 225 238 232 225 241 235 228 252 246 239 232 226 219 242 237 229 243 235 228 246 238 232 249 240 234 154 146 140 131 121 113 156 146 136 137 128 113 130 122 100 124 118 88  92  85  56  126 118 93  193 186 161 173 166 139 103 93  69  144 129 113 107 94  92  134 130 145 127 128 151 118 119 141 114 119 131 121 130 129 98  109 101 87  90  82  138 137 130 111 105 98  152 144 137 174 164 158 171 163 154 192 190 175 132 134 119 79  85  79  65  67  68  61  57  67  88  82  93  95  95  97  73  75  77  95  96  107 104 100 113 123 112 122 114 103 109 84  79  80  120 115 116 96  92  91  103 99  98  111 109 109 100 100 100 111 114 113 97  102 100 98  103 101 136 138 137 115 115 115 139 137 135 234 230 227 248 244 240 251 248 242 238 235 229 247 243 237 247 243 237 247 243 237 247 243 237 248 244 238 248 244 238 248 244 238 248 244 238 248 244 238 248 244 238 248 244 238 248 244 238 248 244 236 248 244 236 248 244 236 249 244 236 245 237 231 231 223 217 203 195 187 176 172 153 101 102 66  55  55  10  58  54  8   73  64  21  79  68  35  132 122 98  155 143 131 119 113 108 88  90  90  80  87  87  84  94  93  113 125 123 123 137 137 118 133 137 111 127 138 108 122 133 109 122 125 111 122 121 92  104 102 103 114 113 101 114 109 91  103 99  94  107 100 86  95  92  79  88  85  69  79  78  62  74  72  63  74  75  65  78  81  66  81  83  65  83  86  65  83  88  54  73  83  61  80  92  69  88  98  70  87  95  61  74  81  56  69  71  54  68  68  54  71  67  76  94  93  112 129 125 92  105 96  99  106 92  185 183 166 198 190 168 158 146 118 151 138 106 157 146 113 155 147 115 98  94  66  84  80  61  80  76  71  88  85  86  104 100 97  71  70  66  73  75  75  78  83  82  68  73  71  76  81  77  103 108 104 89  94  92  62  69  66  72  79  77  74  82  79  71  76  75  71  73  70  70  71  66  73  71  65  70  69  61  70  66  58  66  63  55  55  54  45  59  57  51  62  63  56  65  66  59  70  71  64  68  69  61  64  65  58  62  61  54  63  59  53  63  59  53  61  59  55  58  60  59  64  67  78  69  72  92  53  59  80  24  35  54  57  72  92  62  77  97  56  70  86  66  74  80  109 107 103 119 112 101 140 135 123 178 173 161 138 135 125 209 206 196 248 245 234 255 252 241 249 246 236 250 247 237 249 246 236 249 246 236 249 246 236 249 246 236 249 246 236 249 246 236 249 246 236 249 246 236 249 246 236 250 246 234 221 217 202 186 179 163 223 217 198 201 190 171 184 168 144 185 164 141 156 134 116 95  77  62  121 113 102 239 239 227 247 247 236 252 251 242 248 248 239 251 250 241 252 251 242 251 250 241 251 248 238 252 249 239 252 249 239 251 248 238 249 244 234 249 244 234 249 244 234 248 243 233 247 244 233 250 247 237 250 247 237 254 251 240 255 255 251 230 227 217 124 121 111 118 116 103 153 149 130 125 119 99  155 146 129 74  65  52  31  24  12  28  18  0   117 98  59  191 172 126 162 145 107 135 123 97  70  66  58  42  42  42  19  17  15  29  25  22  40  33  33  34  20  9   105 84  46  194 171 115 192 168 105 217 195 132 194 176 116 71  58  15  32  21  2   39  30  19  101 88  67  150 138 112 171 159 133 171 159 133 187 175 150 193 181 155 194 182 157 196 182 153 190 170 138 209 192 157 209 199 162 168 164 136 86  82  79  116 113 118 118 113 117 146 142 141 162 156 149 171 166 154 181 176 164 126 121 107 171 164 148 174 168 152 178 171 155 179 172 156 185 178 160 187 181 162 190 184 166 193 187 168 198 189 172 201 193 175 205 196 179 207 199 181 208 200 180 209 201 181 207 199 179 204 195 175 203 193 171 198 188 166 194 183 162 191 181 159 184 174 150 174 164 140 186 178 156 155 146 131 45  36  32  25  18  18  14  10  6   17  15  11  20  18  17  
175 162 126 105 95  73  81  74  60  162 157 147 229 226 216 233 229 221 228 225 217 223 220 212 223 220 212 224 221 213 224 221 213 224 221 213 227 223 215 226 222 214 226 222 214 224 223 214 223 222 213 226 222 214 226 222 214 235 232 222 154 149 137 58  54  39  75  63  51  102 81  70  120 85  76  109 63  56  156 102 97  133 79  74  128 81  74  100 65  54  92  70  52  63  54  27  81  76  48  82  77  51  62  59  24  65  62  11  95  93  35  99  95  39  69  64  11  84  78  32  70  63  20  54  47  4   52  48  6   52  50  7   54  57  13  49  54  9   69  69  24  103 97  49  81  75  27  31  34  0   31  36  0   64  67  18  110 108 52  145 133 69  112 96  29  107 92  29  140 125 64  154 139 78  106 92  33  85  75  15  111 102 43  86  79  22  79  70  16  134 122 72  88  75  25  85  75  26  99  91  41  83  76  26  113 103 52  139 125 73  121 107 50  127 119 54  105 96  28  96  81  15  129 115 49  124 112 46  115 109 47  130 129 77  84  85  35  153 156 95  165 166 104 154 148 89  190 181 125 190 180 127 107 99  47  166 163 112 238 236 191 222 219 181 125 123 82  97  92  39  126 120 63  177 167 118 186 175 133 194 178 149 198 184 155 149 144 103 161 160 112 147 147 102 73  71  28  173 165 127 187 176 144 189 179 155 156 147 130 145 136 121 157 150 134 223 216 202 235 228 214 230 223 211 230 223 211 230 223 211 230 223 211 230 225 213 230 225 213 231 226 214 231 226 214 233 228 218 233 228 218 234 229 219 234 229 219 232 227 217 249 244 234 232 227 217 239 234 224 151 146 137 88  80  71  108 100 91  106 96  84  109 99  75  126 115 85  127 113 84  113 98  69  135 115 87  138 115 89  142 117 89  141 119 88  150 133 98  149 137 98  62  53  15  54  44  9   88  80  44  143 138 101 120 114 77  145 142 106 186 182 149 225 221 193 224 219 196 228 222 199 239 235 205 240 236 206 251 246 218 195 190 155 138 132 82  130 122 70  189 176 142 195 179 148 118 99  62  136 118 74  137 124 74  114 103 59  63  55  23  78  71  44  56  50  15  65  60  21  62  57  17  89  84  45  88  83  48  126 120 83  145 141 97  171 167 121 158 154 108 130 126 82  108 104 60  91  86  46  50  43  14  57  50  23  25  19  0   46  40  8   107 100 73  108 101 74  69  61  27  133 125 91  134 126 94  167 157 133 155 139 124 190 177 161 205 198 171 167 168 136 88  93  64  29  33  7   43  40  18  41  36  11  41  35  0   42  34  0   72  65  29  75  67  31  63  55  21  83  74  43  114 105 79  113 103 79  107 99  77  13  7   0   32  27  15  50  47  34  47  47  22  100 100 68  63  61  32  60  57  31  36  35  12  94  93  73  135 133 115 120 117 95  129 123 91  185 180 141 133 131 91  72  73  36  81  83  55  114 118 96  68  73  56  86  90  77  83  87  81  92  94  93  130 130 134 128 128 128 104 106 94  116 120 98  125 125 102 175 171 152 157 152 142 240 236 228 229 228 217 241 241 232 236 232 227 236 232 227 237 234 228 237 234 228 237 234 228 237 234 228 238 235 229 238 235 229 239 233 228 239 233 228 239 233 228 239 233 228 239 233 228 239 233 228 205 199 194 118 112 103 119 115 98  129 123 104 101 92  79  65  54  40  59  46  26  97  85  62  102 87  67  102 91  74  106 103 90  114 122 115 104 120 121 105 123 126 122 137 139 116 131 133 125 142 145 116 136 138 115 135 139 126 144 145 134 146 142 123 129 120 105 105 94  99  96  85  102 99  89  96  91  79  115 108 92  166 158 140 179 171 153 112 103 87  120 108 96  138 126 114 125 113 103 105 93  83  110 98  88  117 105 95  139 127 117 110 98  88  97  85  75  148 136 126 121 109 100 104 92  80  102 93  80  116 107 94  105 95  85  99  89  81  102 95  83  102 95  81  117 109 89  111 106 83  91  88  66  143 131 107 155 128 96  151 110 71  163 106 66  159 100 60  173 122 82  167 127 93  149 119 92  177 156 133 164 150 127 177 169 149 238 233 221 233 232 224 232 236 228 229 233 224 231 230 221 233 230 219 233 230 219 231 229 218 233 228 218 233 228 218 233 227 220 234 228 221 236 231 222 233 228 218 245 240 228 170 166 149 150 143 125 174 169 145 60  57  28  43  41  10  57  55  24  37  35  6   116 111 87  193 185 167 170 161 148 216 209 197 247 244 233 247 243 235 243 238 231 235 230 222 234 228 221 239 233 226 238 232 225 231 225 218 231 225 218 238 232 225 243 238 231 243 238 231 243 238 231 243 238 231 242 237 229 248 242 235 234 228 221 209 201 195 136 128 119 134 127 118 175 167 161 124 117 105 122 115 90  133 126 98  64  56  34  187 180 157 210 200 176 100 90  69  119 106 90  140 129 126 105 100 118 125 125 152 102 112 138 119 127 145 142 144 143 70  69  61  91  90  82  127 123 115 125 119 112 145 137 130 188 180 172 162 155 146 183 180 165 151 154 139 111 115 107 101 103 104 101 96  109 90  86  99  117 114 117 130 128 126 88  87  80  114 108 103 115 103 105 100 88  90  97  90  90  94  90  89  54  50  49  76  74  72  68  66  64  80  81  78  65  68  64  59  62  59  128 130 127 128 130 127 128 128 126 208 206 202 245 241 238 248 244 240 244 240 237 244 240 237 247 243 237 247 243 237 247 243 237 247 243 237 248 244 238 248 244 238 248 244 238 248 244 238 248 244 238 248 244 238 246 245 238 246 245 236 244 243 232 242 239 229 248 244 238 254 248 243 228 220 213 197 190 181 188 182 166 94  89  61  61  61  18  63  58  7   75  58  7   86  65  22  106 91  62  139 126 110 138 128 120 98  91  89  88  91  88  70  77  75  77  87  86  101 113 111 123 137 137 116 131 135 106 121 128 101 115 124 107 120 125 108 121 124 94  106 107 82  93  92  71  83  79  83  95  91  85  97  93  70  84  81  59  73  73  53  69  70  54  70  71  59  74  76  60  76  77  60  75  79  58  76  79  58  76  81  51  68  78  54  70  82  73  90  100 75  87  99  56  64  75  58  65  74  58  73  77  65  85  87  92  117 116 90  115 113 89  111 106 90  107 99  124 137 126 152 162 147 151 156 138 120 125 107 125 132 118 107 113 105 76  80  72  73  75  67  82  80  78  88  86  84  88  89  84  75  78  73  71  76  75  81  85  86  71  77  72  95  100 94  131 136 130 109 114 110 67  74  74  73  80  80  78  85  85  78  83  82  71  73  70  62  62  58  73  71  65  70  69  63  71  67  59  66  63  55  61  60  53  68  67  60  66  67  62  59  60  55  98  99  94  66  67  62  65  66  61  57  56  52  60  56  53  61  57  54  62  61  54  60  63  60  67  71  74  69  73  85  53  59  78  27  37  56  61  76  96  68  83  101 55  69  82  56  65  71  116 114 110 124 116 108 163 158 148 175 170 160 174 171 161 234 231 220 254 251 240 245 243 232 247 244 233 250 247 237 244 241 231 249 246 236 250 246 234 250 246 234 250 246 234 250 246 234 253 248 236 249 244 232 243 239 227 254 247 234 190 180 160 218 206 185 217 205 182 184 169 147 193 176 152 180 161 138 150 130 110 100 85  65  88  81  65  191 188 175 245 245 231 248 248 237 248 250 240 252 253 243 245 249 241 249 251 241 252 249 239 254 249 239 253 248 238 252 246 237 248 245 234 248 245 234 248 245 234 248 245 234 250 247 239 244 241 233 247 243 235 255 253 245 252 251 242 243 242 233 198 198 189 132 130 119 124 119 105 154 147 134 109 100 87  135 125 115 41  28  25  37  21  8   122 106 64  195 181 131 113 99  61  32  20  0   65  62  54  34  34  34  34  33  29  31  27  24  40  33  33  47  33  22  189 168 130 180 155 100 209 187 124 211 191 131 185 165 119 56  41  10  21  12  0   34  27  14  98  88  66  147 135 112 145 133 112 146 134 113 152 140 119 168 156 133 152 140 117 171 157 130 195 179 148 172 159 129 201 191 167 153 146 133 86  81  83  118 114 122 134 131 137 142 137 139 153 147 140 171 167 152 184 180 165 124 119 105 171 164 148 180 173 157 183 177 161 179 172 156 185 178 160 188 182 161 192 185 167 194 188 169 198 190 170 202 191 172 205 195 175 208 197 178 210 199 180 210 200 178 209 199 177 205 195 173 203 193 171 201 190 169 196 186 164 192 182 161 184 174 150 176 166 142 186 178 156 156 147 132 34  26  22  18  11  11  11  8   2   21  17  9   18  17  10  
204 190 149 107 97  76  60  55  43  148 145 134 226 223 212 227 223 215 222 219 211 223 220 212 223 220 212 224 221 213 224 221 213 224 221 213 226 222 214 226 222 214 226 222 214 224 223 214 224 223 214 226 222 214 226 222 214 230 227 217 151 148 138 62  57  45  80  71  58  98  79  70  95  67  60  100 63  57  171 129 125 170 127 124 175 137 132 133 104 96  80  59  46  77  67  43  79  74  46  76  72  44  67  64  28  60  57  6   76  74  15  81  79  23  74  72  18  86  82  36  72  69  27  89  87  44  62  62  19  50  52  8   56  63  18  61  71  25  39  44  0   106 102 53  95  92  43  53  58  13  51  60  16  42  48  0   76  71  16  129 112 47  156 135 67  124 107 42  100 83  18  114 95  27  144 126 57  131 116 50  104 92  30  61  51  0   85  75  24  97  87  35  93  83  32  98  88  35  100 91  37  100 91  37  106 96  43  146 134 81  117 103 49  97  87  24  123 113 46  132 116 48  129 113 43  121 110 34  106 99  29  86  85  31  114 115 67  185 187 136 193 192 140 203 196 144 168 158 104 189 179 125 121 113 61  154 150 99  175 175 130 123 124 90  98  97  63  75  73  28  93  90  41  130 124 76  168 159 117 196 182 153 136 125 94  115 110 73  132 130 87  83  83  40  160 157 117 180 172 136 190 179 149 216 206 184 155 144 127 137 128 113 155 149 133 224 217 204 233 227 213 230 223 211 230 223 211 230 223 211 230 223 211 230 225 213 230 225 213 231 226 214 231 226 214 233 228 218 233 228 218 234 229 219 234 229 219 230 224 215 243 238 229 227 222 212 252 246 237 165 160 151 43  38  28  88  80  71  121 112 99  97  87  63  112 101 71  128 115 85  137 119 91  146 123 97  147 119 94  142 114 90  137 112 86  128 108 80  137 121 92  93  80  50  95  84  54  161 152 121 155 147 115 126 119 87  140 137 104 161 157 127 179 174 148 217 211 191 224 218 198 223 219 188 223 219 186 242 237 211 229 223 193 190 184 136 182 174 127 208 195 167 243 226 202 162 143 106 117 99  53  163 152 95  146 136 80  86  77  34  100 90  52  83  76  35  65  58  18  84  77  36  111 103 65  183 175 141 174 166 132 180 173 132 177 173 126 136 133 84  115 112 63  44  40  0   70  65  25  99  92  63  136 129 102 87  81  47  147 141 106 84  77  47  74  68  38  95  87  51  155 147 111 148 140 108 170 158 132 185 170 152 199 186 167 192 187 161 217 217 190 98  102 74  29  33  7   46  42  23  45  39  16  38  32  0   78  71  32  96  88  52  65  58  22  79  72  36  63  55  21  46  37  6   88  79  50  93  86  59  32  27  3   58  53  41  64  61  48  89  89  62  79  80  45  92  91  55  58  57  25  31  30  10  53  53  39  73  70  60  89  88  70  96  92  59  114 111 71  119 119 78  151 153 116 116 118 90  148 151 130 94  99  81  97  101 91  100 103 99  113 114 118 111 109 119 118 117 120 131 136 123 127 130 111 124 123 103 146 141 127 150 145 137 249 245 240 240 239 231 240 239 231 236 232 227 236 232 227 237 234 228 237 234 228 237 234 228 237 234 228 238 235 229 238 235 229 239 233 228 239 233 228 239 233 228 239 233 228 236 230 226 242 236 231 216 209 205 135 130 122 169 164 150 119 113 97  59  50  39  38  26  14  65  52  31  108 94  71  117 99  80  121 107 91  107 103 88  111 115 107 113 126 126 118 135 138 124 140 141 123 137 137 125 141 142 121 139 142 120 139 144 126 142 143 142 150 145 148 150 138 147 142 128 154 148 132 162 156 140 144 137 121 114 105 88  162 154 134 178 169 152 119 110 94  119 107 95  131 119 107 123 110 101 100 88  79  91  79  69  98  86  76  127 115 105 126 114 104 106 94  85  114 102 93  96  84  74  95  82  73  96  87  74  110 101 88  108 98  88  112 102 90  95  88  72  107 100 82  123 116 91  110 103 78  104 98  78  146 134 111 159 130 99  146 101 66  160 97  61  157 95  59  162 113 77  159 124 90  162 137 109 172 153 130 171 156 136 199 188 172 236 232 220 236 235 226 229 233 224 229 233 224 231 230 221 231 229 218 231 229 218 231 229 218 233 228 218 233 228 218 233 227 220 234 228 221 233 228 218 234 229 217 206 202 187 149 145 128 173 167 148 117 112 88  54  52  23  41  40  6   54  53  17  56  53  20  64  57  30  177 167 145 164 154 137 199 190 177 255 250 240 234 230 222 243 238 231 239 233 226 238 232 225 239 233 226 238 232 225 235 230 222 235 230 222 238 232 225 241 235 228 241 235 228 241 235 228 241 235 228 241 235 228 247 241 234 238 232 225 226 220 213 140 133 124 126 118 112 145 136 133 159 151 142 116 108 88  128 121 96  107 99  77  125 115 93  195 183 158 136 124 100 96  85  68  109 100 98  118 113 131 118 118 145 114 123 150 105 113 131 122 119 120 96  88  80  107 102 92  66  61  52  97  89  83  166 158 151 187 179 170 170 165 155 174 172 159 147 147 133 98  99  90  112 112 112 76  72  83  102 98  108 136 131 133 134 130 122 107 103 88  143 136 122 106 95  92  73  63  64  89  81  84  43  38  38  24  22  18  69  67  63  78  76  75  69  69  67  44  45  42  65  68  64  138 141 136 127 128 123 168 166 162 234 233 229 248 244 240 244 240 237 244 240 237 247 242 239 247 243 237 247 243 237 247 243 237 247 243 237 248 244 238 248 244 238 248 244 238 248 244 238 248 244 238 248 244 238 246 245 238 246 245 236 248 248 237 255 253 243 248 242 237 223 216 212 193 185 176 199 192 176 117 112 86  55  52  17  67  64  17  76  66  14  95  71  20  119 92  51  131 113 87  133 120 106 123 115 108 92  87  86  87  90  86  76  83  80  84  94  93  106 117 118 116 129 132 112 128 131 110 125 131 108 123 129 103 116 123 106 119 123 98  109 110 82  93  92  63  75  71  71  83  79  72  86  82  61  76  73  52  67  69  47  64  67  48  66  67  53  69  70  62  77  81  62  77  81  62  77  81  62  77  83  55  69  80  56  70  82  74  88  99  72  84  96  58  63  77  58  65  76  60  75  81  68  90  94  84  111 116 82  109 113 80  105 108 80  102 104 96  114 112 103 119 116 102 117 112 95  110 105 105 121 120 92  105 107 66  73  75  66  68  70  79  79  79  87  88  85  90  94  88  79  85  79  76  80  81  84  89  89  77  82  78  91  97  90  116 121 115 100 106 102 73  80  80  77  83  86  86  93  93  81  85  86  71  73  72  65  66  63  73  71  67  70  69  63  71  67  61  67  64  56  63  62  56  66  64  58  64  65  60  62  62  58  94  95  90  65  66  61  66  67  62  58  59  54  62  61  57  63  62  58  64  65  58  62  66  60  70  75  75  71  77  84  55  62  78  30  41  60  55  70  90  63  78  96  60  74  87  62  70  77  99  98  94  155 148 139 175 170 160 154 149 139 203 201 190 242 239 229 251 248 238 245 243 232 247 244 233 251 248 238 244 241 231 249 246 236 250 246 234 250 246 234 250 246 234 250 246 234 249 244 232 242 237 225 252 247 235 234 225 210 196 181 161 233 217 193 208 191 167 184 168 144 186 169 143 177 161 135 163 147 123 93  79  56  93  84  67  151 147 131 237 235 220 239 239 225 252 251 240 245 246 236 251 255 247 246 250 242 252 249 241 253 248 238 250 245 236 249 244 234 248 245 234 248 245 234 248 245 234 248 245 234 249 246 238 247 243 235 248 244 236 252 249 241 250 249 240 253 252 243 210 209 200 150 147 139 121 116 106 159 152 140 131 122 111 104 91  84  41  26  22  50  34  19  147 134 88  195 183 130 97  82  46  36  23  2   66  63  55  34  34  32  37  35  29  33  30  24  39  32  30  67  53  40  200 177 137 194 169 114 204 182 121 228 207 153 180 158 122 53  36  12  67  59  41  87  80  64  92  84  64  95  84  63  107 94  75  101 88  69  96  84  63  87  75  51  130 119 91  199 188 157 156 145 114 101 89  65  102 90  76  95  86  82  107 102 104 113 110 116 126 123 127 141 140 136 153 151 140 169 164 150 182 177 163 126 121 107 173 166 150 178 171 155 181 175 159 181 175 159 185 178 160 188 182 161 192 185 167 195 187 169 199 189 170 202 191 172 205 195 175 208 197 178 210 200 178 210 200 178 209 199 177 205 195 173 203 193 171 202 192 170 198 188 166 195 185 163 202 192 168 187 177 153 180 173 150 135 126 109 72  64  57  77  71  66  82  80  67  84  81  68  78  78  67  
210 196 155 105 95  73  37  32  20  137 134 124 226 226 215 224 221 213 222 219 211 224 221 213 224 221 213 224 221 213 224 221 213 224 221 213 226 222 214 226 222 214 226 222 214 224 223 214 224 223 214 226 222 214 226 222 214 231 229 218 158 155 145 75  70  58  97  90  77  86  75  63  81  65  55  98  80  68  162 141 129 164 143 132 159 140 128 137 118 106 94  79  63  64  55  31  78  71  44  88  81  54  88  83  48  82  81  33  87  86  34  86  88  35  85  87  36  70  72  28  51  55  13  81  85  43  47  54  8   59  69  22  60  70  21  62  75  25  44  54  3   77  79  26  73  74  26  33  39  0   27  32  0   60  62  25  137 128 85  156 135 79  116 92  27  146 130 60  106 91  17  104 84  11  151 128 56  152 134 65  115 97  37  60  48  0   65  55  6   72  65  10  86  79  22  93  86  29  100 93  36  100 93  36  88  81  24  114 105 49  83  74  17  108 100 41  123 112 52  129 115 49  111 96  23  120 108 30  104 95  23  81  78  27  131 130 91  197 195 166 223 218 190 221 211 173 173 160 114 170 158 110 173 165 117 130 128 85  75  77  38  33  37  0   25  28  0   30  31  0   29  27  0   104 100 70  219 212 183 238 229 198 157 149 118 103 99  68  87  86  52  156 156 117 131 130 91  219 210 183 229 216 196 171 161 142 135 124 108 127 118 103 154 148 132 226 220 206 231 224 211 230 223 211 230 223 211 230 223 211 230 223 211 230 225 213 230 225 213 230 225 213 230 225 213 234 229 219 234 229 219 234 229 219 234 229 219 232 227 217 235 230 220 235 230 220 249 244 234 199 194 184 42  37  27  47  39  31  141 131 119 107 97  76  114 102 76  130 117 89  145 127 101 139 116 92  144 118 95  149 123 100 151 125 102 124 102 78  155 136 112 175 160 136 201 189 164 228 219 193 174 164 138 168 161 131 164 159 131 126 122 94  140 135 110 188 182 161 225 220 197 223 218 190 214 209 179 228 223 197 192 186 154 167 161 113 173 165 117 203 190 155 252 236 205 159 143 103 126 109 60  110 97  38  155 145 80  142 132 70  149 138 81  139 126 78  151 136 98  120 105 76  210 195 171 255 241 221 213 200 179 194 183 155 177 169 135 138 134 92  105 100 58  124 118 86  98  91  63  162 154 129 207 200 173 230 224 192 211 205 170 162 155 125 183 176 144 127 120 79  134 127 88  131 120 90  121 109 81  137 126 95  204 197 167 206 204 177 149 148 125 38  37  15  38  37  15  40  36  15  55  50  27  86  81  53  124 118 88  105 98  66  76  69  37  53  48  13  64  58  22  55  49  12  62  56  19  58  53  16  26  22  0   38  38  11  78  81  53  116 120 82  56  58  14  89  90  41  50  50  9   114 113 92  35  31  23  14  13  7   56  53  40  114 114 86  142 141 107 176 176 144 150 150 120 134 136 111 105 108 89  37  42  26  67  71  61  80  83  77  86  88  89  95  94  102 82  81  84  137 141 128 116 120 100 114 113 92  108 104 90  134 128 121 241 237 231 234 234 225 231 230 221 236 232 227 236 232 227 237 234 228 237 234 228 237 234 228 237 234 228 238 235 229 238 235 229 239 233 228 239 233 228 239 233 228 239 233 228 236 230 226 243 237 233 220 214 209 141 135 128 141 137 122 95  88  74  42  32  22  36  25  13  67  55  34  114 99  77  128 111 92  136 122 106 122 118 103 110 114 106 120 133 133 128 146 149 126 142 143 130 144 144 124 140 141 127 143 145 131 145 145 145 155 151 172 174 164 188 182 166 177 167 147 177 164 143 172 159 138 143 133 114 121 113 93  161 152 132 173 165 147 117 109 93  124 112 100 130 118 106 133 121 111 112 100 90  92  80  71  85  73  64  106 94  85  132 120 110 127 115 105 96  84  74  90  78  68  91  79  69  93  83  75  101 91  83  102 93  78  119 110 92  99  91  71  117 110 87  126 117 97  95  87  67  110 104 85  147 132 110 167 138 107 148 104 69  156 95  61  160 100 66  155 110 78  160 126 96  179 155 131 163 146 125 177 164 145 229 220 205 234 229 217 240 239 231 226 227 220 235 236 229 229 228 219 230 229 220 231 229 218 230 227 217 233 228 218 233 228 218 233 227 220 233 227 220 234 229 219 234 229 217 167 162 148 154 150 133 173 167 146 69  64  39  52  48  17  44  40  7   52  48  13  62  56  21  69  61  27  175 164 136 175 162 144 177 166 152 240 233 222 240 235 225 239 233 226 243 238 231 241 235 228 238 232 225 238 232 225 240 234 227 240 234 227 238 232 225 238 232 225 239 233 226 239 233 226 239 233 226 240 234 227 246 240 233 243 238 231 246 240 233 195 187 179 139 131 123 133 125 119 180 172 163 141 133 113 159 152 129 108 100 80  113 103 79  180 164 135 168 154 127 88  80  62  103 99  98  123 120 140 109 109 134 132 134 151 138 139 148 123 119 116 79  71  62  102 94  85  65  57  48  86  78  69  178 170 161 181 175 166 175 170 160 177 172 160 145 143 130 74  71  61  112 111 107 63  57  65  92  86  93  149 143 140 123 116 104 129 121 101 115 107 89  104 96  92  89  85  86  63  60  64  22  22  22  23  21  15  87  86  77  89  87  83  51  48  47  23  24  21  80  81  78  135 136 131 104 104 100 194 192 188 250 248 244 244 240 237 244 240 237 247 242 239 247 242 239 247 243 237 247 243 237 247 243 237 247 243 237 248 244 238 248 244 238 248 244 238 248 244 238 248 244 238 248 244 238 246 245 238 246 245 238 241 240 234 254 250 244 242 236 231 205 200 190 189 183 165 156 149 122 94  89  52  70  65  21  72  67  18  87  74  26  121 94  46  135 107 68  125 106 83  118 106 94  112 106 101 82  82  79  85  91  86  83  90  87  94  103 102 113 124 125 116 129 132 112 128 131 110 125 131 108 123 129 99  111 118 103 116 121 99  110 113 81  92  91  61  73  69  63  75  71  64  78  73  59  73  71  52  68  67  48  64  65  49  65  67  54  68  70  66  79  82  66  79  82  66  79  82  65  80  84  60  74  83  58  72  81  72  86  95  68  81  90  57  62  74  59  67  75  65  79  86  75  97  103 94  117 130 92  114 130 88  111 124 88  109 120 96  112 124 92  107 118 94  108 117 102 117 123 97  114 118 86  99  102 65  72  74  67  69  71  79  79  79  90  90  88  95  98  93  86  92  88  81  85  84  86  91  92  85  91  86  85  91  86  95  100 96  88  93  89  80  87  87  81  88  88  98  104 107 84  89  89  73  75  75  69  69  67  74  72  68  71  70  66  71  67  61  67  64  58  66  64  58  63  62  56  62  62  58  64  65  60  92  93  88  64  65  60  69  69  65  62  62  58  66  64  60  66  64  60  65  66  59  64  67  61  71  76  77  72  78  85  56  63  77  31  42  61  56  71  91  58  74  91  65  78  92  61  69  76  104 102 98  182 175 166 174 168 159 154 149 139 234 231 220 251 248 238 250 247 237 247 244 233 247 244 233 251 248 238 244 241 231 249 246 236 250 246 234 250 246 234 250 246 234 250 246 234 249 244 232 245 240 228 253 248 236 207 198 183 211 196 176 231 214 190 193 176 152 187 170 146 176 160 136 175 158 134 165 148 124 91  76  54  102 95  72  110 106 87  199 195 178 247 244 229 248 248 237 246 247 238 250 253 245 249 250 243 251 248 240 250 245 236 249 244 234 249 244 234 248 245 234 248 245 234 248 245 234 248 245 234 247 243 235 248 244 236 249 246 238 249 246 238 251 250 241 255 255 249 234 234 225 176 172 164 103 97  88  127 120 109 157 147 137 117 105 93  68  54  43  51  37  12  161 149 98  209 197 142 73  61  26  39  28  11  70  66  58  35  36  31  41  40  34  35  31  23  39  31  25  94  79  61  192 169 127 193 168 110 202 180 119 219 198 145 144 125 91  38  21  0   79  69  50  114 105 88  102 94  74  89  81  61  105 94  79  102 88  75  95  82  62  105 94  66  178 168 128 202 193 153 101 89  61  82  71  52  94  84  74  83  75  71  100 93  93  104 102 100 130 128 124 161 160 151 157 154 142 167 162 148 178 174 159 129 125 110 175 168 155 175 168 155 179 172 158 183 177 161 186 180 161 188 182 161 192 185 167 195 187 169 201 190 171 203 192 173 206 196 177 209 198 179 210 200 178 210 200 178 209 199 177 205 195 173 205 195 173 204 194 172 201 190 169 196 186 164 182 172 150 181 171 149 191 183 159 150 142 122 119 112 101 126 121 109 123 122 102 115 114 92  110 111 92  
199 186 145 99  89  67  34  29  17  135 132 121 233 233 222 228 225 217 227 223 215 224 221 213 224 221 213 224 221 213 224 221 213 224 221 213 224 221 213 226 222 214 226 222 214 224 223 214 224 223 214 226 222 214 226 222 214 238 235 227 169 166 155 91  86  74  116 109 95  98  88  76  65  54  42  84  75  60  161 152 136 154 145 129 152 143 128 144 130 117 97  84  68  67  55  32  93  81  55  98  89  60  80  74  40  68  66  23  72  73  27  61  64  18  42  47  2   28  33  0   20  24  0   62  66  26  68  75  31  114 122 74  78  86  36  41  49  0   52  58  4   89  89  32  86  85  33  38  40  1   22  22  0   29  27  0   85  77  43  117 102 55  138 120 64  102 90  26  119 105 35  116 98  27  129 106 36  126 105 37  130 113 50  101 89  34  96  89  37  71  66  13  58  53  0   56  51  0   102 95  42  93  85  33  95  90  37  112 107 54  109 102 49  79  71  19  95  86  30  122 107 46  112 96  29  97  84  9   79  67  0   89  83  33  108 104 69  119 114 93  226 218 196 206 195 160 156 143 102 114 101 58  123 114 71  131 127 94  95  95  66  63  67  31  46  49  16  68  69  39  34  29  4   70  62  37  163 154 127 216 205 177 184 172 144 56  51  28  57  55  28  103 105 68  97  96  60  157 148 124 231 218 200 223 212 193 128 117 101 119 110 94  153 146 133 228 221 207 231 224 211 229 221 210 229 221 210 229 221 210 230 223 211 230 225 213 230 225 213 230 225 213 230 225 213 234 229 219 234 229 219 233 228 218 233 228 218 239 234 224 232 227 217 249 244 234 232 227 217 240 235 225 114 109 99  17  9   0   107 99  88  138 130 112 128 118 97  126 111 89  133 116 95  148 127 104 147 124 100 146 123 99  145 121 98  136 115 93  118 99  76  164 150 127 228 216 192 238 228 204 203 193 169 205 198 171 126 122 94  73  68  42  98  93  68  77  72  49  145 140 114 146 142 113 144 139 111 172 167 141 75  71  38  77  73  26  107 102 51  172 163 120 215 204 162 109 94  49  128 113 61  141 128 66  142 133 66  142 134 62  123 113 46  154 142 89  113 99  59  99  86  56  201 187 164 231 219 198 213 200 179 216 204 179 145 136 105 123 115 79  166 161 126 199 192 163 122 115 88  129 122 95  222 216 186 237 231 199 248 242 210 247 240 208 194 188 154 118 111 68  145 138 97  135 124 93  119 110 83  135 127 93  176 172 142 114 113 90  60  59  39  36  31  5   56  49  22  76  72  42  51  46  18  80  74  51  147 142 119 110 105 79  81  77  46  69  65  33  68  65  29  70  67  30  44  39  0   50  45  8   76  73  38  61  62  30  115 118 85  106 110 73  56  58  14  96  97  46  101 98  56  178 175 155 54  51  43  35  31  25  42  42  31  74  73  51  102 102 75  155 154 129 104 106 82  100 104 82  79  82  65  122 127 111 92  96  85  81  84  79  103 106 105 93  93  95  102 102 102 136 140 127 112 115 98  120 118 100 104 99  85  138 132 125 240 236 232 236 234 228 239 240 231 233 232 226 235 231 226 236 232 227 236 232 227 236 232 227 236 232 227 237 234 228 237 234 228 239 233 228 239 233 228 238 232 227 238 232 227 238 232 227 242 236 231 216 209 205 134 128 121 126 121 107 83  76  63  45  36  25  47  35  23  62  50  29  112 97  75  132 115 95  143 129 113 150 146 131 117 121 113 120 133 133 119 137 140 126 142 143 136 150 150 124 140 141 132 146 146 139 149 146 173 177 169 207 203 188 215 204 185 195 178 156 185 166 143 182 165 141 168 153 131 136 126 105 163 155 135 166 158 140 111 100 85  131 119 107 131 119 107 139 127 117 133 121 111 111 99  89  84  72  62  85  73  64  120 108 99  138 126 116 98  86  76  106 94  85  93  81  74  93  82  77  96  86  78  98  89  74  119 110 90  108 100 78  128 120 98  124 116 96  77  68  51  107 98  81  142 127 105 175 146 115 156 112 77  158 102 69  167 110 79  154 113 84  162 135 107 180 161 138 160 147 129 195 184 167 240 231 216 233 228 216 245 243 232 226 225 217 238 237 228 229 228 219 229 228 219 230 227 217 230 227 217 233 228 218 233 228 218 233 227 220 233 227 220 231 225 216 214 209 197 145 140 126 167 161 143 124 118 97  55  47  22  59  53  23  70  64  29  51  45  11  52  44  8   130 119 79  190 175 142 188 171 149 173 157 145 195 186 175 250 242 233 238 232 225 243 238 231 246 240 233 236 231 224 238 232 225 245 239 232 245 239 232 238 232 225 236 231 224 236 231 224 238 232 225 238 232 225 239 233 226 245 239 232 247 241 234 241 235 228 238 230 224 161 154 145 122 114 105 148 141 130 155 146 129 168 159 139 110 102 82  104 93  67  189 174 140 185 172 140 105 100 79  98  97  93  129 127 141 95  92  112 102 98  108 135 130 132 124 116 112 58  50  41  102 94  85  95  87  78  96  88  80  173 165 156 176 171 161 172 167 158 188 183 171 149 144 132 53  48  36  106 100 95  65  58  63  65  58  61  152 142 134 103 92  75  111 101 77  83  74  54  70  64  59  64  62  65  14  13  18  22  22  24  24  23  14  92  92  81  59  55  52  33  29  28  24  22  20  120 120 118 142 143 138 128 129 124 232 231 227 253 251 247 244 240 237 247 242 239 247 242 239 247 242 239 247 243 237 247 243 237 247 243 237 247 243 237 248 244 238 248 244 238 248 244 238 248 244 238 248 244 238 248 244 238 246 245 238 246 244 240 251 249 247 241 237 233 213 208 200 182 176 160 163 156 129 94  89  52  77  73  26  92  87  36  78  69  22  106 90  45  129 100 57  126 95  60  113 93  72  113 103 93  108 106 104 72  74  73  84  89  87  87  94  92  102 111 110 118 129 130 123 136 139 116 131 135 106 121 128 101 116 122 99  111 118 100 113 118 98  109 112 84  95  96  64  76  74  62  74  70  63  77  72  63  77  74  59  73  73  54  68  68  56  69  69  60  74  74  68  82  82  70  81  84  70  81  84  68  82  84  62  77  83  59  73  82  70  85  94  66  79  86  57  62  72  60  68  74  68  83  87  81  101 106 90  111 122 88  108 124 84  105 118 83  102 116 96  114 129 97  112 128 101 117 130 108 125 135 97  114 120 88  101 106 70  76  81  74  76  80  78  78  78  91  91  89  99  102 96  92  97  93  85  90  88  90  95  93  91  96  94  82  87  85  79  84  83  79  84  83  85  92  90  85  92  92  106 112 115 86  91  92  73  75  75  71  71  71  74  72  70  71  70  66  71  67  61  68  65  59  68  67  60  61  60  53  59  60  55  66  67  62  88  89  84  63  64  59  70  71  66  65  66  61  67  65  61  67  65  61  65  66  59  64  67  61  71  76  77  72  78  85  56  63  77  31  42  59  64  79  97  58  76  92  63  79  92  53  61  67  126 125 121 189 181 173 160 154 145 171 166 156 247 244 233 249 246 236 245 243 232 249 246 236 247 244 233 251 248 238 244 241 231 250 247 237 250 246 234 250 246 234 250 246 234 250 246 234 253 248 236 250 246 234 231 226 214 199 190 175 228 213 193 218 202 178 183 167 143 191 175 151 169 153 129 174 157 133 151 134 110 94  80  55  112 102 78  98  93  70  126 121 100 231 227 210 243 241 228 254 254 243 245 246 238 252 251 244 249 246 238 249 244 234 249 244 234 249 244 234 248 245 234 248 245 234 248 245 234 248 245 234 244 241 233 251 248 240 251 248 240 245 242 234 251 250 241 251 250 241 247 246 238 219 215 207 104 98  89  91  81  73  162 150 140 145 131 120 93  77  62  61  47  19  172 159 109 208 195 145 56  42  13  41  30  15  71  67  59  38  36  30  44  42  36  35  31  23  39  32  20  114 99  77  194 172 125 204 176 120 231 208 150 215 194 144 112 92  60  41  25  1   67  56  35  83  74  54  95  87  67  108 100 82  112 101 86  97  84  68  97  85  62  154 144 111 213 204 159 124 115 71  100 92  61  109 98  79  99  89  79  81  72  68  106 99  99  118 114 113 131 129 125 136 135 126 158 156 143 164 160 145 177 173 158 132 125 112 178 171 157 173 166 152 176 169 156 185 178 162 186 180 161 188 182 161 192 185 167 195 187 169 201 190 171 203 192 173 206 196 177 209 198 179 210 200 178 210 200 178 209 199 177 205 195 173 205 195 173 204 194 172 202 192 170 197 187 165 185 175 154 185 175 154 191 181 159 142 134 114 87  79  68  86  81  71  84  82  64  81  80  60  78  79  63  
202 188 147 124 114 92  52  44  33  138 135 125 231 231 219 218 217 208 226 225 217 224 221 213 224 221 213 226 222 214 226 222 214 226 222 214 226 222 214 226 222 214 226 222 214 226 222 214 226 222 214 226 222 214 226 222 214 234 230 222 159 156 148 75  73  60  98  91  80  92  77  66  57  42  31  91  82  67  171 164 148 160 154 138 154 145 129 151 138 122 102 84  67  84  67  48  86  72  47  89  78  48  78  70  36  61  58  22  56  57  20  67  71  31  60  64  26  67  71  33  51  52  15  50  50  11  67  64  24  108 106 61  86  82  36  58  53  3   95  88  33  86  78  15  102 94  33  71  65  19  58  54  19  50  48  19  65  63  34  49  46  11  56  51  9   81  75  27  110 103 49  124 108 47  136 117 51  124 106 37  115 98  31  106 96  31  124 118 58  81  75  27  60  56  14  46  42  0   65  58  18  74  67  26  65  60  19  71  66  25  87  83  39  95  88  43  80  72  22  104 91  36  131 115 54  127 111 42  113 101 34  103 96  44  76  71  29  59  55  22  136 130 98  156 147 104 115 104 60  101 90  48  90  80  45  184 176 154 204 198 180 56  51  28  46  41  13  78  69  40  73  62  31  69  53  24  53  35  9   112 90  68  75  58  38  24  16  0   63  60  36  53  54  20  104 103 67  79  70  46  110 98  77  181 171 149 130 119 100 115 106 91  158 150 139 231 224 213 232 225 214 229 221 210 229 221 210 230 223 211 230 223 211 228 223 213 228 223 213 231 225 216 231 225 216 231 225 216 231 225 216 233 228 218 233 228 218 228 223 213 231 225 216 240 235 225 232 227 217 246 241 231 193 188 179 47  41  32  52  44  33  150 141 128 157 146 132 139 126 110 126 111 91  138 121 99  145 126 103 157 136 111 161 140 115 147 125 103 142 123 100 182 167 145 246 234 211 239 229 205 232 222 198 242 235 210 158 153 127 104 99  74  136 131 105 188 183 155 189 185 157 83  78  53  72  67  41  69  64  39  95  91  58  94  90  44  162 157 106 171 166 115 132 125 73  109 100 48  90  79  23  137 130 64  100 93  23  94  90  16  95  90  21  123 118 63  112 105 62  71  65  29  158 152 120 167 163 132 187 181 149 96  91  56  90  82  48  211 202 173 221 213 182 174 166 130 69  62  23  96  88  50  140 132 98  180 171 140 180 171 142 206 198 165 128 121 82  88  81  36  113 107 63  98  89  60  90  80  58  94  89  63  29  26  4   37  36  23  11  10  0   33  22  0   118 109 67  84  83  36  48  48  7   27  24  0   35  31  12  63  60  36  106 104 77  104 102 73  136 135 103 123 119 86  30  26  0   29  24  0   111 108 82  129 128 104 158 160 134 91  94  65  78  78  46  75  73  30  101 98  60  174 168 147 49  44  34  39  36  28  29  26  16  37  38  15  55  57  31  91  93  69  90  93  74  69  71  55  122 127 111 156 160 147 90  94  84  93  96  90  72  75  71  92  94  93  83  87  81  142 146 133 118 120 103 136 134 117 115 111 96  147 141 134 240 236 232 231 230 223 229 231 221 233 232 226 233 232 226 234 233 227 234 233 227 236 232 227 236 232 227 236 232 227 236 232 227 236 232 227 236 232 227 236 232 227 236 232 227 241 235 230 246 240 235 218 212 207 136 131 124 149 145 130 81  74  60  28  18  8   53  41  29  69  57  36  112 97  75  147 130 111 157 143 127 134 130 115 125 129 121 131 145 145 132 149 152 126 142 143 131 145 145 122 137 139 136 150 150 157 166 163 182 183 174 215 208 192 210 195 175 188 170 144 190 169 142 203 182 157 193 176 152 164 152 128 174 163 144 169 158 141 116 102 89  124 110 99  131 117 106 130 117 108 116 103 94  125 113 103 105 93  83  93  81  72  114 102 93  131 119 109 105 93  83  121 109 100 105 93  85  99  86  82  90  77  70  98  87  72  112 102 82  110 103 80  128 120 98  117 106 87  79  69  52  91  83  62  132 117 95  169 140 109 151 109 75  160 106 74  166 116 88  159 124 99  174 152 130 173 158 141 173 162 145 228 219 204 244 237 223 243 239 227 239 234 224 230 227 217 231 229 218 229 226 216 229 226 216 229 226 216 229 226 216 232 227 217 233 228 218 233 227 220 233 227 220 231 223 215 182 175 164 146 139 126 168 159 141 69  61  38  57  48  22  54  45  14  61  53  19  52  43  10  66  56  18  173 160 114 171 155 112 170 151 125 179 160 146 179 165 154 236 226 218 247 239 233 239 233 226 233 227 220 239 233 226 241 235 228 241 235 228 236 231 224 234 228 221 234 228 221 236 231 224 238 232 225 239 233 226 240 234 227 240 234 227 240 234 229 240 234 229 251 243 236 208 200 191 129 121 110 131 124 110 146 140 124 121 112 95  130 122 100 103 92  64  140 127 91  163 153 115 80  75  49  88  85  75  138 134 142 100 93  105 110 101 102 136 126 120 94  84  76  94  84  76  118 110 102 97  90  81  75  67  59  162 155 146 195 187 179 169 162 153 204 197 186 151 143 132 58  50  39  79  70  64  84  75  76  48  36  36  154 143 128 130 117 97  109 97  74  103 92  73  55  49  44  24  21  24  26  25  30  26  25  28  49  48  40  94  93  82  26  22  19  33  29  28  34  32  31  157 158 155 139 139 135 171 172 167 243 241 237 250 246 243 247 242 239 247 242 239 247 242 239 247 242 239 247 243 237 247 243 237 247 243 237 247 243 237 248 244 238 248 244 238 248 244 238 248 244 238 248 244 238 248 244 238 246 245 238 246 244 240 252 250 250 214 210 207 178 173 161 186 180 157 134 128 91  99  95  48  90  85  30  116 109 54  115 104 60  124 103 64  128 96  57  118 86  54  106 86  67  114 105 99  97  97  97  59  63  66  71  78  76  83  90  87  97  106 106 111 122 123 127 140 142 119 135 138 111 126 132 105 120 127 99  114 121 100 113 118 97  108 111 84  95  96  67  78  77  69  81  79  71  83  79  74  86  82  68  79  78  49  61  59  55  67  65  82  93  92  90  101 100 74  83  84  66  75  76  70  81  82  68  81  86  70  85  92  72  86  93  61  74  79  56  61  69  56  65  69  65  80  82  90  111 111 101 119 124 93  111 116 87  104 112 87  106 113 89  108 118 91  113 121 96  117 126 100 119 126 96  113 118 89  102 107 74  80  85  81  83  87  85  85  87  97  97  95  106 109 103 102 107 101 96  101 97  92  97  95  92  97  95  84  89  89  81  85  86  95  99  98  97  104 101 90  96  96  97  103 103 70  75  75  68  71  70  72  72  72  77  75  74  73  71  67  81  78  72  77  73  67  74  73  66  70  69  63  65  66  61  83  83  79  94  95  90  71  72  67  69  69  65  64  65  60  67  65  61  69  67  63  71  72  65  71  74  68  76  80  81  74  80  87  52  59  72  31  42  59  59  75  92  66  84  98  55  71  84  42  53  58  160 158 154 172 167 158 149 143 136 214 211 203 250 247 239 250 247 239 250 247 239 250 247 239 252 249 239 245 243 232 245 243 232 251 248 238 250 245 236 250 245 236 250 245 236 250 245 236 248 243 231 254 249 237 196 191 179 211 202 186 226 211 191 204 188 164 184 168 144 188 171 147 159 142 118 173 156 132 146 129 105 100 86  61  118 107 79  103 93  67  84  76  53  199 192 174 252 247 233 255 255 245 248 244 238 255 251 245 250 245 238 249 244 234 249 244 234 249 244 234 248 245 234 248 245 234 248 245 234 248 245 234 248 244 236 247 243 235 247 243 235 250 247 239 252 251 242 254 253 245 254 253 245 247 243 235 160 154 147 71  61  53  142 130 123 157 143 131 94  79  63  70  56  29  175 162 118 190 177 133 48  33  11  45  32  23  74  71  63  42  41  35  47  44  38  46  40  33  49  43  27  146 132 102 195 171 122 200 173 114 228 206 150 208 188 140 86  68  38  43  28  6   41  31  7   52  44  22  95  87  67  153 142 123 160 149 130 116 106 82  127 118 89  216 208 170 185 180 131 117 111 63  202 195 154 166 160 130 105 96  78  87  79  72  91  84  86  115 109 116 142 139 145 160 158 158 164 159 149 171 164 150 182 175 162 137 130 116 185 176 163 178 169 156 178 169 156 186 177 162 187 179 161 190 181 161 193 185 165 195 187 167 201 190 171 203 192 173 206 196 177 209 198 179 210 200 178 210 200 178 209 199 177 206 196 175 205 195 173 204 194 172 202 192 170 197 187 165 202 190 167 185 172 149 185 175 154 136 127 112 25  17  13  22  15  15  16  12  7   11  8   0   3   0   0   
198 184 144 130 119 98  62  55  44  138 135 125 231 231 219 218 217 208 226 225 217 224 221 213 224 221 213 226 222 214 226 222 214 226 222 214 226 222 214 226 222 214 226 222 214 226 222 214 226 222 214 226 222 214 226 222 214 231 228 222 157 154 146 70  67  56  90  83  72  62  48  37  46  32  21  91  85  69  168 164 147 160 156 139 136 129 113 135 121 105 102 84  67  96  77  58  90  73  49  100 87  57  83  74  43  46  43  15  17  19  0   22  28  0   42  48  12  73  79  45  54  57  22  62  61  25  91  89  49  103 99  55  110 104 56  111 100 51  104 93  37  78  65  1   116 105 43  105 95  44  63  57  13  42  39  2   61  62  28  36  37  2   25  29  0   25  29  0   33  33  0   51  44  0   92  79  17  114 100 34  107 95  28  93  86  20  104 98  41  61  55  9   57  52  13  55  50  10  39  34  0   43  38  0   45  40  1   56  54  14  73  71  28  70  69  22  93  90  41  96  83  37  111 94  43  108 90  30  100 85  22  105 96  40  99  93  45  41  36  0   39  35  0   103 95  48  137 127 78  134 123 77  102 92  55  76  69  41  83  78  55  54  49  26  32  25  0   70  62  26  91  79  42  127 113 77  94  77  44  97  75  53  49  29  10  27  18  0   29  26  2   39  40  8   33  32  0   78  69  40  93  81  55  135 126 100 138 128 106 115 106 91  153 146 135 226 219 208 233 226 215 228 220 209 228 220 209 228 220 209 229 221 210 228 223 213 230 224 215 231 225 216 231 225 216 231 225 216 231 225 216 232 227 217 232 227 217 235 230 220 238 232 223 233 228 218 246 241 231 235 230 220 231 225 216 145 139 130 33  27  18  87  79  70  148 138 128 182 170 158 173 160 144 157 143 120 155 139 115 156 137 111 166 148 122 171 152 127 174 158 131 175 160 136 204 190 165 229 217 192 246 237 210 254 247 219 222 217 189 225 220 195 216 211 185 153 149 118 194 190 159 108 102 79  34  29  6   60  55  29  74  69  34  93  89  45  149 144 91  145 140 83  94  88  28  125 115 59  100 91  33  132 124 58  121 116 45  96  92  20  98  95  28  109 104 47  57  54  3   69  67  25  38  35  0   70  67  34  36  32  0   52  46  12  115 109 77  216 206 182 213 204 180 104 96  62  114 107 68  133 126 85  220 213 176 176 167 138 99  90  61  97  89  55  112 105 64  130 124 74  70  64  18  36  27  1   37  29  9   30  27  5   21  23  2   12  14  2   36  34  14  80  65  27  160 146 96  125 125 72  74  79  32  34  37  6   16  17  0   34  36  10  59  59  34  134 133 106 163 163 135 84  81  55  87  82  56  56  51  28  98  95  71  98  100 74  72  76  52  42  43  23  37  36  12  53  48  11  118 110 74  95  88  63  39  32  16  55  50  38  30  28  13  38  40  14  33  37  8   63  67  43  122 127 107 106 110 97  102 106 96  158 162 151 97  101 93  100 103 95  101 104 98  79  82  76  100 103 95  137 142 126 114 117 100 124 123 105 121 117 102 154 148 141 237 233 230 231 230 223 228 230 220 232 231 224 232 231 224 233 232 226 233 232 226 235 231 226 235 231 226 236 232 227 236 232 227 235 231 226 235 231 226 235 231 226 235 231 226 239 233 228 245 239 234 219 213 208 139 133 126 153 148 134 88  81  67  35  25  15  56  44  32  67  55  34  128 113 91  161 144 125 136 122 106 79  75  60  116 120 112 142 155 155 136 154 157 133 149 150 125 139 139 122 137 139 136 150 150 148 158 155 158 160 152 182 176 160 186 171 151 187 169 143 186 166 139 193 172 148 181 164 140 151 139 116 171 161 142 170 156 140 124 110 97  128 113 102 133 119 108 117 105 95  105 93  83  118 106 96  120 108 99  118 106 96  120 108 99  119 107 97  105 93  83  121 109 100 121 109 100 106 94  87  95  82  75  109 97  83  109 98  81  107 99  79  119 111 88  112 102 82  88  77  58  97  86  67  140 123 102 167 138 109 150 109 77  154 104 75  164 118 93  167 138 116 180 162 143 171 160 144 187 180 166 238 231 218 240 233 222 242 237 225 238 233 221 234 229 219 231 225 216 229 226 216 229 226 216 229 226 216 229 226 216 231 225 216 232 227 217 233 227 220 233 227 220 217 209 201 138 131 119 166 157 142 130 122 102 48  38  14  61  52  23  67  56  26  59  48  15  45  34  4   125 112 75  175 161 109 185 165 117 154 132 103 181 161 145 175 158 146 196 184 174 251 243 234 240 234 227 238 232 225 242 237 229 241 235 228 236 231 224 234 228 221 234 228 221 234 228 221 236 231 224 239 233 226 240 234 227 240 234 227 240 234 227 240 234 229 240 234 229 242 234 227 232 225 216 172 165 151 126 120 104 148 142 128 119 113 97  103 95  75  136 128 99  117 107 70  164 154 116 99  92  63  103 97  81  117 108 109 91  79  83  119 106 101 106 94  85  109 99  91  116 106 98  72  64  55  67  59  50  76  69  60  168 161 152 180 172 163 172 162 154 207 197 187 151 141 131 66  56  46  85  75  67  122 111 108 65  53  46  153 142 123 115 103 77  90  78  55  88  77  60  58  50  43  6   1   2   31  28  31  13  13  13  69  68  61  47  46  37  23  21  17  27  25  24  71  69  68  158 159 154 134 135 130 212 211 207 247 242 239 245 241 238 247 242 239 247 242 239 247 242 239 247 242 239 247 243 237 247 243 237 247 243 237 247 243 237 248 244 238 248 244 238 248 244 238 248 244 238 248 244 238 248 244 238 246 245 238 246 244 240 233 231 230 188 185 179 192 189 169 154 150 118 121 117 73  124 119 66  117 112 55  138 131 76  118 103 60  116 92  57  123 88  52  125 93  63  109 91  74  104 98  93  88  90  92  62  68  70  67  74  74  72  81  80  76  87  88  85  96  99  103 116 121 101 116 120 99  114 121 98  113 120 97  112 118 98  110 115 94  105 109 82  93  94  67  78  77  69  81  79  71  83  79  74  86  82  68  80  76  53  65  61  60  70  66  83  93  90  94  103 102 80  89  88  72  81  80  71  82  83  71  84  86  73  88  92  73  88  92  64  77  79  62  68  72  66  75  76  69  85  84  101 120 118 105 121 120 102 117 119 102 117 119 98  116 119 94  116 120 93  117 123 94  118 124 97  121 126 90  110 115 86  99  104 71  77  82  78  79  83  85  85  87  97  97  97  106 108 105 102 107 101 98  103 99  92  97  93  91  96  96  90  94  97  89  93  96  96  100 101 95  103 100 91  98  95  85  92  92  63  68  68  67  70  69  77  77  77  81  79  77  76  74  70  85  81  75  80  76  71  80  78  72  76  75  68  71  72  67  88  89  84  99  100 95  76  76  72  71  72  67  71  72  67  74  72  68  75  75  70  76  80  72  78  81  75  81  85  86  77  82  90  53  60  73  33  41  59  64  79  97  65  83  97  61  77  89  72  83  88  172 173 168 161 156 146 167 164 156 250 247 239 250 247 239 250 247 239 250 247 239 251 248 240 250 247 237 248 245 234 248 245 234 249 246 236 250 245 236 250 245 236 250 245 236 250 245 236 249 244 232 241 236 224 179 175 163 218 209 193 212 197 177 196 179 155 193 176 152 175 158 134 154 137 113 184 168 144 149 133 109 101 84  58  116 103 73  102 91  61  86  77  51  141 133 113 242 235 219 248 243 233 255 251 247 249 245 240 252 246 239 249 244 234 249 244 234 249 244 234 248 245 234 248 245 234 248 245 234 249 246 236 249 246 238 248 244 236 248 244 236 247 243 235 251 250 241 252 251 242 254 253 245 255 253 245 214 209 202 101 91  85  121 108 104 173 158 152 119 103 90  57  42  22  126 111 77  175 162 130 51  37  21  49  39  31  79  76  66  49  48  40  50  46  43  50  45  37  58  50  32  156 141 108 221 198 147 206 179 120 232 209 153 197 177 132 81  63  35  55  40  20  46  36  12  56  48  24  96  86  64  150 141 117 168 159 130 120 112 78  176 169 130 212 205 164 107 101 57  145 138 95  208 203 164 219 212 183 195 187 169 166 158 151 103 95  100 106 100 109 124 120 128 147 144 148 162 156 149 172 165 151 185 178 164 134 128 114 180 171 158 179 170 157 181 172 159 185 176 161 190 181 163 192 184 164 195 187 167 198 190 170 201 190 171 203 192 173 206 196 177 209 198 179 210 200 178 210 200 178 209 199 177 206 196 175 205 195 173 204 194 172 202 192 170 196 186 164 194 182 159 185 172 149 190 180 158 142 131 119 13  1   1   5   0   0   8   2   0   18  15  9   42  38  32  
198 184 144 138 128 106 70  63  52  138 135 125 231 231 219 217 218 208 226 225 217 226 222 214 226 222 214 226 222 214 226 222 214 226 222 214 226 222 214 226 222 214 226 222 214 226 222 214 226 222 214 226 223 212 226 222 214 230 227 221 152 149 141 63  58  48  78  73  61  82  75  62  38  31  17  69  65  48  151 147 131 171 167 150 151 144 128 140 129 114 91  75  60  95  77  58  90  73  49  98  84  57  86  77  49  60  57  33  25  27  1   38  45  13  68  78  43  68  78  45  48  56  24  45  51  15  61  66  23  72  73  27  98  94  45  134 129 78  97  90  36  97  88  31  81  72  16  81  74  17  67  62  5   67  67  10  66  68  15  33  37  0   38  46  0   46  57  15  48  58  14  44  46  0   81  76  21  99  92  33  107 100 43  83  78  23  69  64  13  72  66  23  92  85  44  79  74  33  56  51  9   47  45  2   51  48  6   54  52  9   54  54  9   67  71  20  79  81  30  61  51  14  65  48  11  98  79  29  108 89  34  111 98  39  114 105 47  60  58  4   41  41  0   57  53  0   118 111 57  118 111 57  100 95  42  66  65  13  77  78  32  77  76  40  46  45  8   70  69  24  82  76  30  88  79  34  101 90  48  82  66  35  77  63  38  32  25  0   35  33  6   56  56  24  47  46  10  40  32  0   95  85  48  156 148 116 155 145 121 116 107 92  146 139 128 219 214 202 232 227 215 226 221 209 226 221 209 226 221 209 227 222 210 227 222 212 230 224 215 231 225 216 231 225 216 231 225 216 231 225 216 232 227 217 232 227 217 235 230 220 238 232 223 233 228 218 246 241 231 233 228 218 235 230 220 223 217 208 125 119 112 53  46  42  81  73  66  148 138 128 185 174 160 172 159 138 165 151 126 159 146 116 158 142 113 160 144 115 195 179 150 197 183 154 190 176 147 189 178 148 208 199 168 223 217 185 253 246 216 255 249 224 206 199 174 101 95  63  113 106 77  79  71  49  31  23  3   58  51  26  91  85  50  131 124 81  125 120 67  156 150 86  145 140 73  105 96  38  96  85  27  127 118 50  102 96  25  109 103 32  118 110 42  83  78  14  88  84  24  95  89  39  86  79  41  84  77  47  50  43  18  53  46  23  53  45  25  99  88  72  136 126 109 180 169 150 124 114 88  106 98  62  169 161 125 133 126 98  109 102 75  56  50  13  65  61  17  144 142 88  88  85  38  21  14  0   41  35  17  28  30  7   15  19  0   5   11  0   33  31  2   133 115 69  150 131 78  63  62  15  42  49  8   37  43  9   14  19  0   15  19  0   20  22  0   38  39  16  33  32  12  15  11  0   43  40  20  48  42  24  46  42  21  37  42  13  18  25  0   31  35  15  30  29  7   33  25  0   100 90  52  90  79  49  27  17  0   20  14  0   15  12  0   46  49  18  70  75  42  95  102 74  97  105 84  77  84  70  71  77  68  125 131 122 140 146 137 110 116 107 86  92  84  102 108 99  97  103 92  139 144 129 116 119 102 115 113 96  135 131 116 168 162 155 238 234 231 237 236 229 233 234 225 232 231 224 232 231 224 233 232 226 233 232 226 235 231 226 235 231 226 236 232 227 236 232 227 235 231 226 235 231 226 235 231 226 235 231 226 234 230 224 241 237 231 219 215 209 141 137 129 156 152 137 111 104 91  58  48  38  60  48  36  78  65  44  133 118 96  142 125 106 67  54  38  51  47  32  117 121 113 142 155 155 127 145 148 138 154 155 128 141 141 124 140 141 131 145 145 132 143 142 134 140 133 165 161 149 190 180 160 193 176 154 186 167 144 186 169 145 168 153 131 132 120 99  167 156 137 167 154 138 137 121 108 126 109 99  137 123 112 114 102 93  104 92  82  99  89  79  103 94  83  117 108 97  121 111 101 101 91  81  92  82  72  101 91  81  116 107 96  114 103 91  92  81  69  114 102 93  99  88  76  101 92  77  106 98  78  105 97  72  100 91  67  103 93  71  149 132 111 165 135 107 149 111 80  157 109 82  167 123 100 178 153 134 178 164 148 165 156 143 214 209 197 240 235 223 236 232 220 241 236 224 236 232 220 235 230 218 228 223 211 231 225 216 231 225 216 229 226 216 229 226 216 231 225 216 231 225 216 232 226 219 233 227 220 174 166 158 139 132 121 155 146 129 84  76  53  41  32  5   61  52  21  67  56  24  54  41  8   76  62  33  175 161 122 158 143 84  193 172 118 166 142 109 162 140 120 167 149 134 165 151 140 235 227 218 238 232 225 244 241 233 243 240 232 236 230 226 234 228 223 234 228 221 234 228 221 234 228 221 236 231 224 239 233 226 240 234 227 240 234 227 241 235 228 241 235 228 241 235 228 244 235 231 239 232 223 202 195 181 138 131 115 146 139 128 143 136 122 82  76  56  150 143 116 124 115 82  163 152 117 149 138 105 148 134 109 109 92  85  104 86  83  138 124 115 117 105 95  129 119 111 98  91  82  41  34  25  81  73  64  94  84  76  176 166 158 183 173 165 179 169 161 210 197 190 149 137 128 79  67  58  93  81  72  126 114 106 90  78  66  149 140 113 104 95  66  84  74  52  65  56  41  80  70  62  49  41  37  42  35  35  47  43  42  74  73  66  13  14  7   22  23  16  16  14  10  110 108 104 140 139 135 146 144 140 245 243 239 251 247 244 243 239 236 248 244 238 248 244 238 248 244 238 248 244 238 247 243 237 247 243 237 247 243 237 247 243 237 248 244 238 248 244 238 248 244 238 248 244 238 248 244 238 248 244 238 246 245 238 246 245 238 214 210 205 172 170 157 185 183 156 116 113 73  102 99  48  121 117 61  119 113 56  118 108 56  113 94  55  113 87  52  121 85  52  126 94  66  106 88  74  103 97  92  84  88  91  58  66  70  68  77  77  69  79  78  68  79  80  71  82  85  68  81  86  72  87  91  78  95  101 83  100 106 95  110 116 95  108 113 92  103 106 79  91  91  65  79  77  67  81  79  71  83  79  74  86  82  69  79  76  60  70  64  67  75  70  85  92  90  99  106 104 90  97  94  81  89  86  76  86  85  73  86  89  75  91  92  76  92  93  67  81  81  70  76  79  75  84  86  74  90  87  114 133 129 108 122 120 109 123 121 105 121 122 104 121 125 100 123 127 98  122 127 95  121 128 95  120 125 93  112 117 88  101 106 73  79  84  80  82  86  85  85  87  97  97  97  106 108 105 102 107 101 100 106 100 91  96  92  91  96  96  96  99  105 99  103 109 99  103 107 97  104 101 95  103 98  76  82  82  60  64  65  73  75  75  88  88  88  89  87  85  84  83  79  93  89  84  88  85  79  87  85  79  83  82  75  78  79  74  95  96  91  94  95  90  84  85  80  88  89  84  80  81  76  82  82  77  84  85  80  86  89  81  87  90  84  88  92  93  81  87  94  54  61  75  32  40  58  64  79  97  59  77  92  65  81  94  120 131 136 165 166 161 149 144 134 212 209 198 255 255 247 250 247 239 250 247 239 250 247 239 250 247 239 249 246 236 250 247 237 250 247 237 248 245 234 249 244 234 250 245 236 250 245 236 250 245 236 255 250 238 206 201 189 182 177 165 216 207 192 200 185 165 190 174 150 189 172 148 166 149 125 159 142 118 183 167 143 155 139 115 102 85  59  119 106 72  105 95  60  92  83  54  106 98  74  204 198 182 245 238 227 255 253 248 249 243 238 250 247 239 248 245 234 248 245 234 248 245 234 248 245 234 248 245 234 249 246 236 251 248 238 248 248 239 247 246 238 247 246 238 246 245 236 251 250 241 251 250 241 252 251 242 255 253 245 248 243 233 170 159 154 111 98  95  150 134 130 156 139 133 74  58  46  66  48  31  125 109 92  59  44  36  56  45  40  86  83  73  56  55  47  52  48  45  56  48  42  69  59  37  170 153 117 215 189 139 213 186 129 221 198 145 173 153 109 57  41  15  47  35  14  58  49  23  56  49  22  98  88  64  152 143 114 159 152 111 166 159 114 219 213 165 153 146 103 85  79  43  141 135 102 181 175 145 179 173 150 157 150 136 115 109 105 85  79  84  113 107 113 137 134 135 146 144 140 160 154 145 174 169 155 187 180 166 132 125 112 174 165 152 180 171 158 185 176 163 186 177 162 193 185 167 195 187 167 199 191 171 201 193 173 202 191 172 204 193 174 208 197 178 210 199 180 210 200 178 210 200 178 209 199 177 206 196 175 205 195 173 204 194 172 202 192 170 196 186 164 200 188 164 190 178 155 189 179 157 131 119 105 31  21  15  37  28  24  57  52  40  80  78  63  86  83  71  
201 186 148 140 130 106 69  63  47  138 136 123 231 231 219 217 218 208 226 225 217 226 222 214 226 222 214 226 222 214 226 222 214 226 222 214 226 222 214 226 222 214 226 222 214 226 222 214 226 222 214 226 223 212 226 223 212 227 223 218 149 145 139 57  52  42  70  65  53  63  58  48  39  33  24  82  80  67  158 160 148 162 168 159 133 137 127 140 133 122 118 105 91  102 84  67  102 82  64  101 84  60  75  63  38  41  36  13  35  34  9   58  64  30  62  72  37  19  31  0   22  34  1   26  36  1   26  35  0   70  75  30  58  61  14  94  92  45  66  62  16  45  42  0   60  57  6   69  66  10  53  52  0   90  91  29  103 106 45  72  74  23  62  68  20  55  67  22  56  68  23  54  59  12  78  79  31  74  73  25  70  66  17  67  64  13  82  76  26  60  54  4   93  88  37  56  50  2   52  48  2   53  51  6   66  64  21  75  75  32  74  77  33  47  54  6   32  37  0   41  35  0   42  30  0   57  42  0   89  75  21  92  84  23  109 105 42  107 106 52  93  95  42  76  72  21  84  79  24  100 96  38  76  74  13  79  79  20  63  65  12  37  39  0   45  47  8   51  52  6   86  84  37  65  61  17  68  61  20  78  68  30  63  55  19  33  30  0   56  55  17  43  43  4   40  40  0   116 112 66  181 175 129 162 155 114 119 112 82  115 109 90  141 134 123 214 209 197 232 227 215 226 221 209 226 221 209 226 221 209 225 220 208 226 221 211 228 223 213 231 225 216 231 225 216 231 225 216 231 225 216 232 227 217 232 227 217 228 223 213 231 225 216 240 235 225 232 227 217 239 234 224 232 227 217 240 235 225 218 212 205 121 115 110 39  33  26  40  32  24  102 93  80  140 129 112 161 149 128 181 169 144 170 156 129 157 143 116 156 142 115 171 158 128 163 150 120 160 150 117 175 165 132 176 168 134 188 180 146 204 195 166 212 203 174 136 128 95  103 94  63  92  82  60  56  46  24  71  62  35  84  76  42  103 96  55  150 145 94  147 141 82  133 128 66  140 130 76  49  37  0   98  87  27  132 122 57  113 104 36  130 120 53  120 112 49  146 140 83  105 97  52  104 96  60  44  37  10  28  20  0   35  26  9   14  5   0   58  48  29  103 93  71  164 154 135 109 99  75  64  56  20  53  48  9   42  36  4   37  31  0   55  49  12  51  47  3   74  72  18  60  57  10  35  28  1   24  18  0   20  21  0   23  29  4   13  17  0   53  50  14  164 144 94  117 98  45  61  60  20  17  25  0   25  32  5   26  33  6   18  25  0   33  37  12  54  55  34  14  12  0   26  22  5   5   0   0   12  2   0   36  31  3   34  38  10  29  35  10  33  36  16  48  45  23  36  28  0   92  80  41  103 93  56  52  41  8   48  40  15  47  44  20  24  26  0   64  69  40  151 157 132 166 173 155 97  103 92  101 110 100 124 130 119 119 126 112 131 137 124 152 158 147 119 125 114 103 107 97  146 147 135 124 124 108 113 109 92  150 146 131 164 159 151 226 222 216 226 225 219 221 222 215 232 231 224 232 231 224 233 232 226 233 232 226 235 231 226 235 231 226 236 232 227 236 232 227 235 231 226 235 231 226 235 231 226 235 231 226 231 228 222 241 237 231 221 217 212 145 139 132 160 153 140 97  90  77  44  34  24  62  50  38  89  76  58  134 119 99  129 114 96  32  20  6   43  40  27  124 129 123 131 145 147 117 132 136 136 150 150 129 141 139 135 148 148 128 141 141 149 161 159 140 150 145 158 160 150 178 174 159 177 164 145 166 152 129 162 147 127 142 129 110 118 107 88  165 152 134 166 151 134 146 130 115 121 105 92  139 122 112 112 98  91  105 93  85  112 102 94  101 91  83  110 101 90  128 119 106 113 103 91  98  88  76  96  87  74  113 103 91  118 107 92  88  76  62  113 101 90  89  77  65  98  89  74  96  88  70  100 92  70  109 99  75  109 96  76  158 139 118 163 133 106 149 110 82  165 122 95  171 134 110 181 162 143 168 159 143 173 166 154 239 234 224 228 223 213 235 230 220 239 234 224 236 232 220 234 229 217 230 225 213 230 224 215 231 225 216 229 226 216 229 226 216 231 225 216 230 224 215 231 225 218 232 226 219 140 132 126 151 143 132 127 119 99  63  55  31  52  43  14  59  48  15  57  44  12  47  32  0   129 111 79  213 195 153 149 129 70  189 166 108 164 138 102 129 103 82  170 148 132 171 155 142 214 204 194 232 227 217 243 240 232 243 240 232 233 229 223 233 229 223 233 229 221 233 229 221 234 228 221 236 231 224 239 233 226 240 234 227 241 235 228 241 235 228 241 235 228 241 235 228 233 225 221 245 237 229 237 230 216 160 154 138 126 119 108 169 162 151 140 134 116 94  89  63  188 179 148 174 164 127 187 172 136 160 143 112 127 106 90  118 99  92  117 104 99  100 91  87  116 108 101 75  69  62  66  60  56  104 96  90  116 106 98  180 167 160 200 190 184 187 177 171 211 199 191 147 135 125 86  75  63  98  86  74  91  79  67  109 98  81  144 137 110 102 96  66  78  70  50  65  56  41  97  85  75  44  34  26  41  33  29  83  77  72  16  14  8   20  19  13  54  53  46  31  29  23  153 152 145 139 136 130 165 161 158 254 249 246 255 253 250 248 244 240 248 244 238 248 244 238 248 244 238 248 244 238 247 243 237 247 243 237 247 243 237 247 243 237 248 244 238 248 244 238 248 244 236 248 244 236 248 244 238 248 244 238 248 244 238 248 245 234 189 187 172 171 168 146 147 144 111 112 107 65  119 111 64  154 144 92  139 129 77  107 91  46  105 81  43  119 88  55  128 90  57  121 87  60  100 79  66  108 99  95  89  91  95  50  58  62  65  74  73  66  75  74  65  77  77  65  76  79  57  70  74  65  80  84  77  94  100 86  104 109 92  107 114 93  105 113 90  100 106 77  88  91  65  79  79  67  81  79  71  83  79  75  85  82  71  79  74  68  73  67  74  79  73  86  92  86  102 107 103 98  103 99  87  94  92  79  88  87  77  88  91  79  92  95  80  94  94  70  81  82  79  86  86  81  88  88  86  98  94  117 132 125 110 122 116 110 120 116 106 117 118 105 118 120 109 127 132 104 124 131 99  121 127 97  117 124 103 119 120 97  108 109 82  86  87  87  89  88  87  85  83  98  97  93  107 108 101 103 107 99  101 104 96  96  99  94  95  97  97  97  99  101 109 111 113 106 108 107 103 106 103 102 107 103 76  80  83  63  67  70  84  84  84  105 104 100 99  95  91  96  90  85  103 97  90  98  92  85  94  91  83  91  87  79  85  85  76  103 102 93  98  94  86  94  91  83  102 99  91  95  92  84  96  93  83  99  96  85  102 99  89  102 101 92  95  96  93  86  91  94  55  62  76  29  40  57  75  88  106 49  63  79  78  90  99  160 169 173 154 152 151 149 143 136 243 240 230 250 247 237 250 247 239 250 247 239 251 248 240 249 246 238 245 243 232 251 248 238 251 248 238 247 244 233 250 245 236 250 245 236 250 245 238 250 245 236 249 241 230 174 167 154 204 198 182 205 196 179 196 181 159 188 171 147 173 156 132 149 133 109 170 154 130 170 154 130 162 146 122 105 89  63  120 107 73  110 100 65  98  89  58  82  72  48  154 145 127 243 236 222 247 242 232 249 244 236 250 247 237 248 245 234 248 245 234 248 245 234 248 245 234 249 246 236 251 248 238 252 249 239 251 250 241 250 249 240 248 248 239 247 246 238 251 250 241 251 250 241 251 250 241 252 251 242 250 247 237 231 223 217 103 93  89  65  52  50  172 157 153 117 102 96  57  40  32  63  46  38  65  49  45  62  51  45  93  88  76  64  61  48  56  50  43  63  53  41  78  66  38  181 162 121 201 175 123 244 217 162 228 205 154 174 153 112 78  62  36  100 85  65  120 110 88  110 100 76  96  86  60  154 145 114 154 147 104 199 194 143 197 191 143 81  74  33  108 102 72  119 111 88  102 97  73  77  71  53  76  71  59  69  62  60  110 105 109 118 113 117 132 130 128 149 145 139 157 152 142 175 170 158 189 182 169 130 123 109 170 161 148 181 172 159 188 180 164 186 177 162 194 186 168 197 188 168 200 192 172 202 194 174 202 191 172 204 193 174 208 197 178 210 199 180 209 199 177 210 200 178 209 199 177 205 195 173 205 195 173 204 194 172 202 192 170 196 186 164 192 179 156 190 178 155 194 184 160 134 124 104 88  79  68  87  79  70  82  78  61  77  75  57  79  77  62  
169 154 123 145 136 107 83  78  55  130 128 113 236 235 224 217 219 206 229 228 217 224 221 213 224 221 213 224 221 213 224 221 213 226 222 214 226 222 214 226 222 214 226 222 214 226 222 216 226 222 214 226 223 212 226 223 212 224 221 215 164 160 155 47  44  36  79  76  68  61  55  50  33  29  26  80  83  79  157 169 167 142 168 175 146 168 172 139 143 135 113 101 90  96  77  67  93  72  59  113 96  75  64  52  24  30  24  0   34  33  0   41  45  5   61  70  29  36  47  9   3   16  0   22  35  0   22  33  0   26  35  0   35  41  5   78  84  46  74  78  40  65  67  27  50  52  10  68  72  23  77  78  28  57  59  6   57  59  8   73  74  28  34  34  0   58  59  15  109 112 68  95  99  59  26  30  0   21  21  0   29  29  0   76  73  19  109 105 42  123 117 53  92  86  22  52  47  0   100 97  44  69  68  21  72  72  31  65  64  28  47  50  17  36  43  11  27  32  0   33  31  0   53  47  0   71  66  13  60  59  0   63  71  7   55  65  4   31  36  0   45  47  6   68  66  23  53  50  3   115 113 57  44  42  0   68  69  16  59  62  16  44  46  6   54  56  19  65  67  25  63  62  24  34  31  0   39  34  0   105 100 56  116 113 62  101 100 48  122 121 69  156 158 105 104 106 53  130 127 76  120 117 65  129 126 77  107 104 64  116 110 89  147 142 130 184 179 167 238 233 221 226 221 209 232 227 215 217 212 200 223 218 206 227 222 212 227 222 212 227 222 212 227 222 212 228 223 213 230 224 215 232 227 217 232 227 217 228 223 213 230 224 215 231 225 216 236 231 222 235 230 220 233 228 218 231 225 216 228 223 213 234 229 219 167 161 152 71  66  54  60  53  41  53  44  31  68  56  42  116 104 90  161 148 132 171 158 139 170 157 136 164 152 128 161 150 122 173 160 130 190 177 145 195 185 150 192 181 146 174 164 129 177 166 131 158 148 112 132 122 89  89  78  50  61  49  24  68  57  29  103 94  63  149 142 103 127 121 77  103 97  49  68  60  13  101 93  45  85  74  28  46  33  0   125 113 60  145 135 68  113 104 36  95  86  30  90  81  39  121 110 79  187 177 153 101 93  71  24  18  0   24  16  0   29  21  0   55  47  13  81  71  34  48  37  7   60  51  20  55  50  10  47  45  2   51  48  6   49  47  7   46  41  2   67  63  19  58  55  4   63  59  12  25  18  0   20  14  0   19  19  3   1   5   0   11  14  0   86  81  40  185 165 117 67  52  7   11  11  0   18  25  7   3   10  0   25  32  14  17  23  2   9   13  0   35  37  14  11  10  0   50  47  23  134 125 96  83  69  28  54  42  2   32  34  6   17  23  0   47  49  25  63  58  33  43  32  0   88  77  37  109 98  54  73  64  21  74  65  34  83  78  55  50  48  30  48  50  34  82  87  72  99  103 90  95  101 92  107 114 103 146 153 135 135 143 122 120 128 107 105 113 94  96  102 91  111 112 105 120 114 107 117 109 101 121 114 100 163 159 144 146 141 129 221 218 210 234 233 227 234 235 230 232 231 224 232 231 224 232 231 224 232 231 224 233 232 226 233 232 226 233 232 226 233 232 226 232 231 224 232 231 224 239 238 231 230 229 222 238 235 229 241 237 231 221 217 212 151 146 139 173 164 151 97  85  73  32  23  12  67  58  47  79  65  49  139 123 106 115 101 87  22  14  3   41  42  35  124 132 129 117 126 129 125 134 138 122 131 128 135 145 139 126 135 137 124 133 134 138 150 146 134 147 140 137 147 139 147 151 141 159 152 136 153 140 124 119 106 92  125 114 99  131 120 103 160 147 129 173 158 141 163 146 129 130 111 99  136 119 111 125 110 106 93  80  80  121 110 109 115 107 100 116 109 97  140 134 118 91  85  67  93  86  68  93  86  68  101 93  75  113 104 87  87  79  61  103 95  77  91  82  65  91  80  63  102 91  74  98  89  72  89  78  59  104 92  71  151 132 109 163 133 106 137 100 74  157 120 96  175 147 124 177 164 145 160 153 140 218 213 203 233 229 221 240 234 227 245 239 232 236 231 224 235 230 220 234 229 219 235 230 220 230 227 217 244 241 231 224 222 211 238 236 225 226 223 212 227 224 213 224 222 211 190 184 177 120 114 107 159 152 140 88  80  60  41  34  6   56  48  16  64  53  20  42  29  0   57  40  4   167 148 107 156 134 85  155 133 72  185 160 102 161 133 95  148 120 95  156 129 111 167 147 131 164 155 138 234 230 215 247 244 233 234 230 222 238 237 230 233 234 227 229 233 222 229 231 219 233 229 221 235 230 222 236 231 224 239 233 226 241 235 228 241 235 228 241 235 228 241 235 228 247 239 233 242 234 225 244 237 223 208 201 187 119 112 103 146 138 130 182 177 163 130 124 103 160 151 120 192 180 143 158 142 102 150 132 100 168 151 129 113 101 94  104 96  103 83  80  88  101 97  94  84  80  74  96  93  94  107 102 102 131 118 113 194 179 173 202 188 188 190 177 174 216 204 194 138 126 112 104 93  78  133 122 107 106 97  82  87  79  61  148 140 118 100 92  70  73  67  48  41  31  18  48  38  27  79  69  61  80  72  63  42  36  29  25  22  16  47  44  38  42  38  30  72  69  61  160 157 149 131 124 120 230 223 219 243 239 234 240 236 230 252 249 243 248 244 238 248 244 238 248 244 238 248 244 238 248 244 238 248 244 238 248 244 238 248 244 238 248 244 236 248 244 236 248 245 234 248 245 234 249 245 240 245 242 236 255 255 250 214 210 195 188 185 159 179 175 142 132 124 90  154 141 105 155 141 103 159 143 105 131 111 75  110 87  51  117 83  51  120 82  51  122 81  49  117 82  55  102 76  65  108 92  91  93  88  92  61  63  67  63  70  70  59  68  67  60  71  72  67  77  81  82  95  100 90  105 109 94  112 117 95  109 118 98  110 117 87  98  106 85  96  101 74  84  88  64  75  76  64  76  74  64  76  72  66  76  70  79  82  76  72  73  66  82  83  71  102 106 94  110 116 105 99  105 98  84  91  88  74  83  84  74  82  86  81  91  95  88  97  98  87  94  94  90  95  93  89  92  89  104 110 103 127 133 124 125 130 124 117 122 118 112 119 116 109 116 118 124 131 135 102 110 116 117 124 136 109 115 122 112 117 113 111 115 107 97  98  89  97  96  87  99  95  87  108 105 95  115 112 102 110 107 97  106 103 90  108 105 95  110 107 99  113 109 103 120 116 110 110 106 103 121 117 114 106 104 105 73  74  81  68  66  74  93  89  86  115 107 100 119 108 103 122 112 106 109 99  91  111 104 93  105 98  89  105 100 88  108 100 89  109 102 88  123 114 99  114 103 89  110 97  81  111 100 83  114 104 85  131 120 101 116 103 83  120 109 92  130 123 111 104 104 102 56  66  74  26  39  55  70  79  96  62  66  80  119 122 130 163 163 165 134 132 133 178 174 171 240 236 228 255 254 244 250 247 239 251 248 240 251 248 240 249 246 238 249 246 238 250 247 239 250 247 239 248 244 236 254 251 240 255 253 246 248 242 237 255 251 245 222 213 202 181 169 155 204 194 172 200 188 162 173 159 134 162 146 122 169 153 129 170 154 130 168 151 127 175 158 134 169 153 129 108 91  65  116 103 73  112 101 71  109 100 71  103 93  69  80  72  52  214 208 189 254 250 233 243 241 226 251 249 236 251 248 238 251 248 238 251 248 238 251 248 238 251 248 238 252 249 239 252 249 239 251 250 241 251 250 241 251 250 241 251 250 241 252 251 242 252 251 242 250 252 242 252 253 243 254 253 245 247 243 235 150 145 137 40  32  26  114 103 98  162 151 146 63  51  43  53  38  34  82  67  65  79  67  62  99  94  82  77  75  57  62  58  41  50  43  18  87  73  30  182 163 111 196 171 116 223 197 145 237 216 166 147 129 87  120 102 71  105 90  70  68  54  41  61  48  34  99  87  61  146 136 103 187 178 137 197 190 147 116 109 68  103 98  63  107 100 75  109 103 84  86  79  61  85  81  66  86  81  71  86  82  79  98  92  98  118 113 119 136 131 131 152 149 143 164 159 151 175 170 160 183 178 166 127 121 107 168 158 145 180 171 156 187 179 161 186 178 160 193 185 165 195 187 167 199 191 171 201 193 173 205 195 175 205 195 175 206 196 177 206 196 177 208 197 176 211 201 179 210 200 178 204 194 172 205 195 173 204 194 172 202 190 169 197 185 164 189 177 154 193 181 157 184 175 148 130 120 96  98  88  76  112 105 94  69  64  50  82  80  65  78  76  60  
195 179 150 140 131 100 109 104 78  149 147 131 227 227 216 225 227 215 217 219 206 223 222 213 224 221 213 224 221 213 224 221 213 226 222 214 226 222 214 226 222 214 226 222 214 226 222 216 226 222 214 226 223 212 226 223 212 224 221 215 163 159 153 45  42  34  75  72  64  56  52  46  31  27  24  81  79  77  138 145 147 105 126 139 99  118 127 111 112 105 125 114 99  101 82  70  93  72  59  92  75  54  90  79  49  88  80  44  70  68  26  49  52  5   101 109 63  24  35  0   24  34  0   22  33  0   33  43  10  56  66  33  46  54  22  23  30  0   15  21  0   47  53  12  103 108 63  112 118 70  72  75  28  37  40  0   58  59  13  59  56  16  59  56  16  58  53  12  27  25  0   14  19  0   30  36  0   53  55  27  32  33  1   45  42  0   95  90  33  78  75  10  97  94  29  88  87  26  73  73  18  58  59  11  18  21  0   14  15  0   12  17  0   3   10  0   27  32  1   55  55  10  92  89  37  77  76  27  47  48  0   36  47  0   54  67  13  51  58  15  11  13  0   35  34  0   44  41  1   91  91  39  69  69  14  44  45  0   50  52  8   39  41  2   54  56  19  87  89  50  62  61  25  26  22  0   29  25  0   117 116 64  150 150 91  127 128 71  144 144 87  167 169 111 139 141 83  116 116 61  123 122 70  84  83  34  114 111 71  138 134 113 126 121 109 176 171 159 217 212 200 225 220 208 227 222 210 221 216 204 224 219 207 227 222 212 227 222 212 227 222 212 227 222 212 227 222 212 228 223 213 228 223 213 230 224 215 227 222 212 231 225 216 233 228 218 234 229 219 238 232 223 235 230 220 233 228 218 231 225 216 232 227 215 241 236 224 211 206 194 178 173 161 108 100 89  64  54  44  57  47  37  90  78  68  121 110 98  144 131 115 175 162 144 189 177 156 186 174 150 172 158 131 163 150 120 167 157 124 167 157 122 172 162 126 181 171 136 187 176 144 194 181 151 150 137 107 118 107 77  117 107 74  81  73  37  62  55  16  64  57  18  61  54  13  52  44  4   100 90  50  79  67  28  81  68  22  109 98  36  112 102 37  35  25  0   59  49  11  141 131 107 185 176 159 137 131 108 35  27  5   46  36  12  61  51  18  120 110 61  134 122 72  90  76  37  71  58  24  57  50  9   56  55  10  77  76  27  66  65  15  50  45  4   63  58  16  74  71  22  73  69  25  59  53  21  51  48  24  37  37  21  21  24  3   28  27  0   120 114 68  174 156 110 49  35  0   3   4   0   14  21  7   0   7   0   15  23  7   4   9   0   0   3   0   25  26  5   11  10  0   46  42  21  109 99  73  180 166 125 94  83  41  15  15  0   11  12  0   78  76  47  115 109 77  68  58  25  71  61  21  86  78  28  97  89  42  81  73  37  67  62  34  36  34  14  35  36  20  41  43  27  90  92  76  108 113 95  117 123 103 142 148 123 116 123 95  128 134 109 120 125 105 97  101 91  98  97  91  104 96  90  128 116 107 140 130 117 167 160 147 138 133 121 223 220 210 238 236 232 226 226 224 232 231 227 232 231 224 232 231 224 232 231 224 233 232 226 233 232 226 233 232 226 233 232 226 232 231 224 232 231 224 239 238 231 230 229 222 237 234 228 240 236 230 220 216 211 150 145 137 173 161 149 103 91  79  32  23  12  67  58  47  75  62  46  136 122 106 96  84  72  20  15  5   71  72  65  114 120 116 111 115 116 121 126 127 131 136 130 141 147 138 137 141 140 140 147 144 138 148 140 139 152 143 138 150 144 138 143 137 120 116 101 119 108 93  127 115 103 136 125 113 142 131 117 170 157 138 154 139 119 144 126 107 127 110 93  130 114 103 107 91  87  103 89  89  103 93  89  91  83  77  94  86  75  126 120 104 100 93  75  106 98  78  100 92  72  101 93  73  107 99  79  88  80  60  80  72  52  130 119 100 99  89  69  93  82  66  174 163 146 113 103 83  90  75  53  142 123 98  165 135 109 140 107 82  163 132 108 179 158 136 159 148 131 169 164 150 238 236 225 238 235 227 239 233 226 235 230 222 235 230 222 235 230 222 235 230 222 235 230 220 234 231 220 233 230 219 236 233 223 234 231 220 230 227 217 229 226 216 219 216 205 157 154 146 150 144 139 144 136 127 46  38  20  49  39  15  51  40  9   58  45  13  50  35  4   85  68  32  161 141 96  167 144 88  157 136 73  181 156 99  172 144 103 138 111 79  141 113 89  186 165 143 167 157 135 200 197 177 241 236 224 237 234 226 233 234 227 232 236 228 229 233 222 227 231 218 233 229 221 234 228 221 235 230 222 236 231 224 241 235 228 241 235 228 241 235 228 241 235 228 243 235 228 247 240 231 250 242 231 222 214 203 157 149 140 133 126 117 164 159 147 129 123 104 128 119 91  173 161 126 125 109 71  120 103 67  165 151 126 113 101 92  91  85  93  86  84  96  104 100 101 91  89  88  103 106 112 109 110 117 134 126 124 202 189 184 206 193 191 187 174 169 201 189 175 152 141 122 107 97  78  147 136 119 94  86  68  57  48  31  119 110 92  99  90  75  47  40  27  44  36  25  69  59  48  86  76  66  52  44  35  51  46  36  32  26  19  73  70  62  72  69  61  104 101 93  155 149 142 147 141 134 238 232 227 246 240 235 245 242 236 252 249 243 248 244 238 248 244 238 248 244 238 248 244 238 248 244 238 248 244 238 248 244 238 248 244 238 248 244 236 248 245 234 248 245 232 248 245 232 250 246 241 255 251 245 241 236 226 188 184 165 197 193 163 171 164 128 129 117 82  119 104 71  118 98  66  145 123 91  130 106 75  107 77  48  118 82  53  122 81  51  122 81  49  118 82  55  106 78  67  112 94  93  97  89  94  65  64  69  67  71  72  60  69  68  63  72  74  69  80  83  85  98  102 92  107 114 98  113 122 97  112 120 105 115 123 97  105 112 96  106 112 85  96  99  74  83  82  74  83  82  74  84  80  76  83  78  87  88  83  83  82  73  88  90  78  106 108 96  108 112 101 96  101 95  83  90  87  75  84  86  80  88  92  84  93  97  87  93  98  83  87  90  88  90  92  93  96  92  121 123 113 152 151 140 134 134 121 138 137 126 123 126 121 114 120 116 118 120 122 130 130 132 129 126 129 128 123 123 130 127 117 125 123 108 106 102 87  101 97  83  109 102 88  118 111 98  126 119 106 122 115 99  114 107 89  117 109 91  120 111 94  122 113 98  129 120 107 128 118 108 145 135 127 131 122 121 81  75  84  63  57  63  115 105 99  140 126 115 140 123 113 139 122 110 129 116 97  128 115 96  119 108 91  123 112 95  131 118 100 137 122 102 142 125 104 141 122 98  141 120 97  142 123 98  144 131 103 163 149 122 164 146 118 170 154 130 170 159 143 115 114 105 55  66  69  26  40  51  68  75  91  75  75  89  136 135 140 112 110 109 131 127 126 231 227 224 255 255 247 245 243 232 250 247 239 251 248 240 249 246 238 249 246 238 249 246 238 249 246 238 249 246 238 249 246 238 245 243 232 255 249 242 253 245 241 253 242 236 198 186 177 195 182 164 198 184 159 184 170 143 158 141 117 155 139 115 169 153 129 173 156 132 165 148 124 173 156 132 169 153 129 110 93  69  107 93  66  105 94  66  102 90  65  105 95  71  81  74  51  157 151 130 254 250 231 247 245 227 250 248 235 251 248 238 251 248 238 251 248 238 251 248 238 252 249 239 252 249 239 252 249 239 251 250 241 251 250 241 251 250 241 251 250 241 252 251 242 252 251 242 250 252 242 252 253 243 253 254 245 252 251 242 208 205 197 73  68  61  70  62  56  157 147 141 116 103 98  46  33  28  93  77  75  110 97  92  94  90  76  119 115 96  122 116 95  103 94  63  166 151 102 194 174 117 218 194 136 244 218 166 230 209 159 139 121 77  130 113 78  160 144 117 99  84  66  31  18  0   104 93  63  201 191 155 206 196 158 137 127 91  90  82  48  106 99  70  97  92  69  103 97  78  84  80  63  83  78  66  80  77  67  78  74  70  98  92  98  118 112 121 136 131 133 152 148 145 163 157 152 171 166 158 182 176 167 132 125 114 174 165 152 180 171 156 186 178 160 186 178 158 193 185 165 195 187 167 199 191 171 201 193 173 205 195 175 205 195 175 206 196 177 206 196 177 209 199 177 213 203 182 212 202 180 205 195 173 205 195 173 204 194 172 202 190 169 197 185 164 193 181 157 193 181 155 189 180 151 131 121 95  100 91  76  111 104 93  77  72  58  80  78  63  75  73  58  
204 190 161 130 121 90  125 120 95  163 159 144 222 221 210 231 232 220 215 217 205 223 222 213 224 221 213 224 221 213 224 221 213 226 222 214 226 222 214 226 222 214 226 222 214 226 222 216 226 222 214 226 223 210 226 223 210 223 220 214 166 163 157 56  52  44  91  88  77  68  68  54  25  20  8   93  76  70  166 148 150 150 142 152 149 142 146 138 126 114 125 108 88  97  78  57  109 90  67  96  80  51  80  70  34  74  67  26  72  70  23  47  48  0   78  84  34  19  28  0   45  53  18  40  48  16  46  54  22  37  44  12  23  30  0   15  20  0   55  61  22  46  52  0   78  85  28  142 146 94  75  78  32  47  50  6   40  40  0   54  52  9   51  48  6   23  18  0   42  40  0   53  59  9   54  61  13  73  80  41  43  43  11  38  34  1   51  46  7   44  41  0   52  52  0   70  72  19  37  41  0   67  73  23  57  63  16  22  30  0   41  47  6   21  26  0   24  27  0   87  85  38  100 96  50  62  56  21  17  13  0   45  49  9   35  42  0   55  59  19  53  57  19  63  63  33  40  38  7   48  48  5   66  68  17  47  51  2   45  48  2   31  33  0   44  45  8   73  73  34  43  43  2   34  32  0   82  80  35  165 165 108 199 199 140 112 113 63  108 109 61  100 102 47  93  96  38  101 104 48  122 124 73  91  91  50  114 112 81  104 100 81  123 121 108 131 129 116 210 208 195 221 218 206 220 217 204 226 223 210 224 222 209 227 222 212 227 222 212 227 222 212 227 222 212 227 222 212 227 222 212 227 222 212 228 223 213 226 221 211 228 223 213 232 227 217 235 230 220 240 235 225 239 234 224 235 230 220 234 229 219 243 239 227 238 233 221 212 207 195 224 219 207 228 220 209 206 198 187 174 167 156 137 128 117 116 107 96  98  86  76  91  79  67  119 108 93  140 129 112 158 145 127 184 171 150 192 179 156 199 187 161 182 171 143 159 148 118 143 132 99  151 141 105 156 145 110 172 162 124 190 181 143 170 162 126 131 123 87  100 93  57  75  67  31  34  26  0   89  81  45  95  85  50  50  38  0   120 108 56  131 120 62  79  70  16  66  57  14  40  29  10  45  36  23  119 114 93  55  48  20  54  44  9   88  75  29  157 139 77  151 131 72  82  59  19  79  57  23  57  44  3   88  80  32  103 101 45  84  81  27  59  57  12  72  69  27  97  95  50  115 112 70  119 117 77  65  64  32  9   10  0   6   8   0   39  37  0   129 121 73  123 107 67  41  27  0   24  23  3   11  16  1   11  17  0   23  29  6   16  21  1   23  26  9   0   0   0   13  10  0   34  28  21  57  48  35  89  79  53  70  62  30  26  23  0   35  33  4   79  68  33  98  86  47  67  59  21  72  65  25  93  90  41  96  93  44  60  56  14  31  27  0   61  59  28  98  98  68  91  91  59  108 111 78  112 115 82  129 134 103 156 161 130 125 129 100 140 144 120 158 161 144 139 140 133 135 131 126 137 128 115 148 137 120 141 132 115 155 149 133 124 119 105 215 212 202 237 235 231 232 230 229 232 231 227 232 231 224 232 231 224 232 231 224 233 232 226 233 232 226 233 232 226 233 232 226 232 231 224 232 231 224 239 238 231 230 229 222 232 231 224 236 234 228 216 215 208 147 141 134 166 157 144 107 96  84  31  22  11  66  56  46  69  56  40  138 125 109 80  71  58  37  32  20  117 115 102 113 113 102 109 111 103 122 123 116 146 147 135 141 143 129 123 125 115 124 128 118 131 137 124 122 131 119 116 126 118 121 124 116 103 96  83  125 112 98  139 127 115 131 119 107 132 121 104 138 125 107 158 141 119 159 140 119 128 108 90  127 109 95  128 113 104 102 89  82  113 103 93  120 110 98  115 105 95  121 111 101 92  83  70  99  88  74  104 93  74  124 114 92  132 121 102 116 105 88  95  84  65  85  75  56  109 96  78  140 128 107 118 106 85  142 129 106 148 134 107 162 143 115 157 132 104 134 106 82  166 140 117 179 159 141 162 153 136 209 204 192 241 237 229 241 237 231 236 232 227 230 227 221 234 230 224 234 230 224 234 230 222 234 230 222 237 234 226 228 225 217 241 238 227 231 229 218 230 227 217 234 231 220 194 191 183 137 133 128 175 169 164 100 91  85  27  17  5   43  33  14  41  30  4   49  35  8   61  45  18  126 106 74  144 122 77  188 165 109 169 147 84  164 142 82  178 154 108 146 120 83  132 105 73  178 158 130 166 156 130 179 173 152 234 230 215 243 240 230 233 232 224 231 232 224 230 234 224 228 230 218 233 229 221 234 228 221 234 228 221 235 230 222 239 233 226 241 235 228 242 237 229 242 237 229 246 239 230 247 240 231 249 241 232 244 236 227 208 200 191 132 124 116 146 138 130 148 142 128 97  87  65  182 171 141 141 127 91  152 135 102 153 136 112 163 148 137 80  73  78  114 107 119 107 101 108 94  93  100 94  106 118 92  107 118 104 108 111 184 180 176 197 187 177 174 163 146 201 191 167 152 142 116 95  85  61  132 121 102 107 96  80  105 94  79  154 142 130 162 152 140 137 129 118 74  67  55  69  62  51  44  36  25  39  31  23  61  55  46  58  53  43  65  60  50  93  88  78  134 129 119 141 136 126 172 167 160 248 242 235 247 241 234 251 248 240 249 246 238 249 245 240 249 245 240 249 245 240 249 245 240 248 244 238 248 244 238 248 244 238 248 244 238 248 244 236 248 245 234 248 245 232 248 245 234 250 246 241 255 251 245 207 202 190 167 161 143 198 191 162 159 149 114 147 132 98  171 153 121 168 146 115 156 131 101 123 99  68  118 89  60  118 82  53  122 81  51  121 83  50  117 82  55  109 81  70  115 97  96  100 93  97  69  68  73  70  75  75  65  72  72  66  75  76  72  83  86  87  100 105 96  109 116 101 115 124 101 113 123 109 117 125 102 110 116 103 114 117 96  105 107 84  91  91  84  91  88  84  91  88  85  91  86  94  95  90  92  91  85  97  96  87  105 106 97  104 108 102 91  96  92  80  87  87  77  86  88  87  96  95  88  97  98  84  89  97  76  79  87  79  80  86  87  89  88  121 123 111 158 156 139 202 195 172 188 180 160 136 135 122 114 117 109 129 132 124 147 146 137 141 131 121 145 133 119 146 135 116 145 134 115 126 115 96  125 114 95  132 119 101 142 129 110 150 137 118 145 133 112 150 138 112 154 140 113 157 143 118 158 144 121 176 161 141 179 164 146 197 181 164 177 162 153 92  80  84  68  53  58  172 152 145 214 192 177 202 178 159 191 168 144 182 161 132 168 151 120 174 156 130 174 156 130 175 154 129 176 153 127 167 142 114 181 154 124 195 166 135 198 173 141 198 180 147 202 187 153 200 181 149 194 176 146 186 174 150 117 115 102 52  61  60  40  53  60  66  71  83  109 109 121 126 126 126 83  81  77  167 163 160 255 251 247 255 251 243 251 248 238 251 248 240 251 248 240 248 244 236 251 248 240 249 246 238 249 246 238 249 246 238 249 246 238 243 240 230 254 249 239 254 246 240 233 223 215 173 161 147 204 192 171 182 168 141 164 150 123 150 136 111 155 140 118 174 157 135 173 156 134 163 149 124 172 158 133 174 157 133 116 99  75  101 87  60  105 91  64  99  87  61  117 107 83  103 96  73  105 100 79  224 220 201 244 243 225 248 245 232 250 249 238 250 249 238 248 248 237 251 250 239 251 250 239 251 250 239 251 250 239 251 250 241 251 250 241 251 250 241 251 250 241 252 251 242 252 251 242 250 252 242 252 253 243 255 255 253 247 246 238 250 247 239 141 135 128 46  38  32  123 113 107 152 139 134 69  56  51  55  42  37  108 98  90  117 112 98  96  92  73  89  83  62  126 115 85  148 131 82  185 165 106 202 178 118 247 224 168 226 204 154 155 137 93  129 113 73  120 106 70  71  59  22  95  83  46  185 175 135 209 199 162 145 134 104 101 89  63  102 92  68  100 92  70  90  85  60  107 104 80  92  88  71  87  85  72  81  78  68  75  73  69  98  92  100 118 112 123 136 131 133 152 148 145 163 157 152 167 161 154 181 175 166 139 132 121 184 174 162 183 174 159 185 176 159 188 180 160 193 185 165 195 187 167 199 191 171 201 193 173 205 195 175 205 195 175 206 196 177 206 196 177 211 201 179 217 207 185 216 206 184 208 197 176 205 195 173 204 194 172 202 190 169 197 185 164 199 184 162 192 180 154 196 187 158 132 122 96  70  61  46  86  78  67  83  78  66  79  76  64  79  77  62  
194 181 151 118 109 78  123 118 92  162 157 143 222 221 210 231 232 220 225 227 215 223 222 213 224 221 213 224 221 213 224 221 213 226 222 214 226 222 214 226 222 214 226 222 214 226 222 216 226 222 214 226 223 210 226 223 210 220 216 211 171 167 162 72  69  61  115 112 100 48  49  30  20  11  0   105 76  68  172 136 135 160 130 134 162 137 136 155 134 120 146 127 104 125 104 79  121 103 75  108 92  59  74  64  27  58  52  9   49  45  0   47  47  0   68  72  21  44  51  10  55  61  24  36  42  6   6   12  0   19  24  0   31  37  1   51  57  21  77  82  39  67  73  19  48  55  0   103 107 58  58  61  16  61  64  22  47  47  6   72  73  27  91  90  45  98  95  58  71  71  30  57  63  14  66  74  26  55  61  24  9   11  0   48  45  19  48  45  12  44  42  0   86  88  37  46  52  2   47  53  3   63  69  21  58  66  20  68  75  31  67  71  29  77  79  35  55  55  10  78  74  27  93  89  45  38  32  0   40  36  6   73  72  38  44  45  8   39  41  2   46  47  13  33  33  8   42  41  14  30  30  0   18  18  0   53  57  8   72  75  28  51  53  11  54  56  17  56  56  15  46  46  2   60  58  15  155 154 107 180 179 127 173 172 122 101 101 62  94  94  55  75  76  27  91  93  40  133 134 84  76  76  33  51  50  18  29  28  5   45  43  28  113 110 97  110 108 95  196 194 181 220 217 204 215 213 200 230 228 215 226 223 210 227 222 212 227 222 212 227 222 212 227 222 212 227 222 212 227 222 212 227 222 212 227 222 212 225 220 210 227 222 212 231 225 216 233 228 218 242 237 227 240 235 225 238 232 223 235 230 220 221 216 204 231 226 214 214 209 197 226 221 209 240 233 222 246 239 228 237 230 218 233 226 215 195 185 177 174 164 156 126 116 105 100 90  80  76  66  55  69  57  47  88  76  64  120 109 94  143 133 116 172 159 141 189 177 156 188 176 153 175 164 136 186 175 144 195 185 152 196 188 154 182 174 140 184 176 142 196 187 156 184 176 144 147 140 108 111 102 71  99  88  57  55  42  8   71  58  15  125 112 64  132 122 68  101 92  49  58  48  29  13  3   0   51  45  24  70  63  33  88  77  35  137 121 67  156 135 67  143 117 53  86  57  14  115 89  55  65  47  5   111 100 51  105 100 47  50  47  0   59  55  13  150 146 111 217 214 178 175 172 137 127 124 87  20  19  0   4   4   0   17  17  0   94  90  46  158 150 102 76  63  29  25  15  0   40  39  21  41  44  25  43  48  19  37  43  9   13  18  0   12  16  0   26  26  10  57  57  46  49  45  39  5   0   0   20  15  0   46  41  15  41  37  9   74  65  34  87  73  32  81  67  24  71  64  25  61  59  18  54  52  7   46  45  0   59  56  16  60  57  19  84  82  42  122 123 79  125 126 78  121 123 72  141 142 94  155 155 112 169 168 130 124 122 89  114 112 85  129 126 106 114 109 97  104 99  85  133 125 100 127 118 91  128 121 96  171 165 144 153 148 134 226 223 212 238 234 231 234 233 229 232 231 224 232 231 224 232 231 224 232 231 224 233 232 226 233 232 226 233 232 226 233 232 226 232 231 224 232 231 224 239 238 231 230 229 222 231 230 223 233 232 226 214 212 206 144 141 133 164 155 142 113 101 90  31  22  11  66  56  46  64  50  34  143 129 113 79  70  57  65  58  44  138 133 117 118 114 95  117 116 98  129 127 110 130 129 109 123 122 102 109 108 88  120 118 98  123 127 105 96  101 84  86  92  84  105 106 99  110 101 88  156 142 128 149 138 124 113 102 87  130 118 104 160 147 129 151 134 112 128 108 88  138 119 98  134 117 98  122 108 94  125 114 99  125 114 95  117 107 85  100 89  75  104 92  80  109 97  83  135 121 105 131 119 96  125 114 88  132 120 97  160 148 125 159 147 122 149 137 111 115 103 75  123 110 80  141 128 96  169 156 122 168 155 121 156 138 105 157 134 105 166 143 116 192 170 150 182 164 147 173 164 149 225 220 208 235 232 224 236 232 227 236 232 227 235 231 226 234 230 224 234 230 224 234 230 222 234 230 222 234 230 222 233 229 221 236 233 223 234 231 220 224 222 211 235 232 222 167 164 156 141 137 129 156 150 143 41  34  25  46  37  24  24  13  0   37  23  0   42  26  0   70  51  23  154 134 100 151 129 84  184 161 105 157 136 73  174 152 89  180 156 105 170 145 103 135 110 71  152 130 96  172 161 130 172 167 141 217 211 193 238 233 221 234 230 222 231 230 221 228 230 220 230 229 218 231 228 220 234 228 221 234 228 221 234 228 221 238 232 225 239 233 226 240 234 227 241 235 228 252 244 236 242 234 225 240 233 224 250 242 233 237 229 220 165 157 148 133 126 117 165 157 146 91  82  65  141 131 107 146 131 99  159 142 109 123 106 80  175 159 144 98  86  86  104 96  101 110 102 109 96  97  106 90  106 119 78  96  108 89  97  104 182 182 180 207 200 184 188 178 156 184 174 150 133 123 99  90  80  58  120 110 90  83  72  55  99  88  72  128 117 103 202 190 178 151 141 131 77  70  59  37  29  18  68  61  50  33  27  18  99  94  84  62  57  47  41  36  26  91  86  76  145 139 130 128 123 113 192 187 177 255 251 243 246 240 233 255 253 245 247 243 235 249 245 240 249 245 240 249 245 240 249 245 240 248 244 238 248 244 238 248 244 238 248 244 238 248 244 236 248 244 236 248 245 234 248 245 234 248 244 238 247 243 237 181 176 164 164 157 139 164 152 124 166 151 117 175 158 125 185 165 133 185 160 130 154 127 97  109 81  52  105 73  45  120 81  53  122 81  51  121 83  50  117 82  55  110 85  73  118 99  99  104 96  101 71  70  75  73  75  77  69  73  74  70  76  79  75  84  88  91  101 107 99  111 118 103 115 125 102 114 124 105 113 120 101 107 112 104 113 115 100 107 107 89  94  92  90  93  90  90  93  90  92  93  88  98  97  93  97  96  89  99  98  92  103 101 97  102 103 100 90  95  93  81  88  88  75  84  84  93  102 99  90  99  101 81  87  96  70  73  83  67  68  77  77  77  77  110 109 98  146 142 121 185 171 144 214 202 176 164 162 145 121 123 111 123 125 113 136 134 119 158 145 125 182 164 138 180 164 137 184 168 142 175 159 132 181 165 138 181 165 138 190 174 148 197 181 155 193 177 148 197 182 149 198 183 150 202 186 155 204 188 160 216 200 173 219 203 177 231 214 190 203 187 172 92  78  81  54  40  42  183 165 153 229 208 188 232 209 185 225 203 172 232 213 174 222 206 166 214 197 162 218 198 166 222 203 171 228 206 172 209 185 150 221 196 159 230 202 164 225 199 162 218 198 164 216 199 166 216 194 160 204 184 154 193 179 156 131 126 112 59  66  64  43  54  59  63  68  78  146 148 154 95  96  91  94  92  86  219 215 209 245 242 236 249 246 238 254 251 240 251 248 240 249 246 238 249 246 238 250 247 239 250 247 239 249 246 238 249 246 238 249 246 238 249 246 236 255 251 241 251 244 232 212 202 190 174 163 144 196 184 161 162 148 121 148 134 107 157 143 118 164 150 127 179 162 140 173 156 134 166 152 127 179 165 140 182 165 141 126 110 86  104 88  61  108 94  67  104 89  65  132 120 97  118 108 86  84  76  56  161 155 137 239 235 218 248 245 232 248 248 237 251 250 239 251 250 239 251 250 239 251 250 239 252 251 240 251 250 239 251 250 241 251 250 241 251 250 241 251 250 241 252 251 242 252 251 242 252 251 242 252 253 243 250 252 242 248 248 239 255 255 248 200 197 189 70  64  57  70  62  56  144 134 128 113 100 96  35  22  18  105 95  87  122 118 101 82  78  59  121 113 93  173 162 132 149 132 83  199 177 118 192 168 105 247 225 164 212 191 139 151 134 88  115 99  57  106 93  50  118 107 58  210 199 150 212 200 159 121 110 75  73  61  35  93  83  64  107 98  81  100 91  74  96  91  67  107 104 80  104 103 85  99  96  83  88  87  76  82  80  78  98  91  102 120 113 125 135 130 132 152 149 143 162 156 149 164 159 149 179 175 163 144 136 125 191 181 169 185 176 161 184 175 158 191 183 163 193 185 165 195 187 167 199 191 171 201 193 173 205 195 175 205 195 175 206 196 177 206 196 177 212 202 180 218 208 186 217 207 185 210 200 178 205 195 173 204 194 172 202 190 169 197 185 164 201 187 164 192 178 153 202 191 163 133 124 97  24  15  0   52  44  33  82  77  65  82  80  67  81  79  64  
191 178 148 126 115 85  115 108 83  149 145 130 229 228 217 222 224 212 215 217 205 222 221 212 223 220 212 223 220 212 223 220 212 224 221 213 224 221 213 224 221 213 224 221 213 224 221 215 224 221 213 224 222 211 224 222 211 227 223 218 173 170 164 74  71  63  118 116 103 61  57  38  36  23  4   116 84  72  178 136 130 173 132 130 168 135 128 144 119 102 144 123 101 124 103 76  134 116 85  125 110 74  76  67  27  41  34  0   53  50  3   87  86  36  77  80  31  54  59  14  74  78  36  84  89  46  27  32  0   51  55  13  71  76  34  103 108 65  75  78  34  56  59  12  72  74  30  66  68  29  29  30  0   29  29  0   72  73  29  58  60  7   120 122 69  124 124 78  73  73  32  81  85  43  56  60  24  16  17  0   17  18  0   62  59  33  34  33  0   65  66  18  80  84  30  37  43  0   62  68  20  54  59  16  59  61  24  60  61  27  30  30  0   66  66  9   88  86  28  69  63  17  60  53  10  65  59  14  74  70  26  58  55  17  15  11  0   64  63  27  33  34  2   9   8   0   29  28  5   16  17  0   21  23  0   50  52  8   60  63  17  68  74  24  67  71  22  72  73  27  70  70  27  66  67  23  118 117 79  111 109 76  96  93  65  47  44  18  36  36  6   47  49  10  89  92  48  129 131 89  26  28  0   30  29  7   22  20  5   18  16  3   81  78  68  126 126 114 139 139 127 217 215 204 209 206 196 227 224 213 217 215 204 224 218 209 224 218 209 224 218 209 224 218 209 225 220 210 225 220 210 225 220 210 225 220 210 226 221 211 228 223 213 232 227 217 234 229 219 234 229 219 235 230 220 240 235 225 240 235 225 243 239 227 232 227 215 203 198 186 218 213 201 228 223 211 235 230 218 228 223 211 237 230 218 237 230 218 242 234 223 228 220 211 203 195 187 157 149 142 106 95  90  86  75  72  78  67  64  71  60  55  93  81  76  114 102 95  123 110 101 142 131 119 168 157 140 196 185 166 208 197 176 215 205 179 206 197 171 194 185 156 210 201 172 206 199 170 199 190 162 188 177 149 172 159 129 165 150 116 153 139 100 134 124 75  81  72  30  50  40  21  18  9   0   26  20  2   52  46  16  64  48  5   142 121 65  157 132 63  123 95  29  123 91  45  136 106 66  87  66  23  132 119 73  116 107 64  100 93  55  65  59  27  114 107 82  213 205 185 201 195 174 134 130 104 15  13  0   33  30  4   21  19  0   114 110 66  147 141 95  44  38  4   27  22  0   16  12  0   17  16  0   54  58  18  61  66  19  40  45  2   20  24  0   43  48  19  65  69  47  24  27  12  5   5   0   66  63  44  87  82  56  72  65  38  65  55  19  83  65  21  89  74  29  76  73  36  33  35  0   47  49  10  39  38  0   86  85  49  130 127 89  121 119 74  124 121 70  144 143 80  138 138 72  161 159 96  133 128 73  161 155 107 136 129 89  138 129 96  148 139 110 159 149 125 138 129 100 131 123 85  130 122 84  129 123 91  167 162 136 142 138 121 223 217 208 236 232 227 229 225 222 231 230 223 231 230 223 231 230 223 231 230 223 232 231 224 232 231 224 232 231 224 232 231 224 231 230 223 231 230 223 238 237 230 229 227 221 233 232 228 233 232 228 211 210 204 139 136 128 166 157 144 121 110 98  55  45  34  57  48  35  48  35  21  142 128 114 68  56  44  94  85  70  122 115 90  131 125 95  149 142 113 133 126 96  128 121 92  128 121 94  131 125 95  148 144 114 134 132 103 94  93  71  112 112 101 115 111 106 120 108 99  174 160 147 126 115 100 103 95  79  147 135 123 145 131 118 158 140 123 150 130 110 129 110 89  121 104 85  125 109 94  118 105 87  150 139 108 144 133 100 118 107 81  118 106 83  124 112 91  141 126 104 116 103 75  97  83  54  128 115 83  198 185 151 190 178 141 204 192 151 171 160 116 137 124 76  156 144 94  150 140 89  176 165 119 139 125 86  125 108 75  164 145 120 177 160 141 170 156 140 210 203 190 236 234 221 235 232 224 235 232 224 235 232 224 235 232 224 235 232 224 235 232 224 234 230 222 234 230 222 230 227 219 236 233 225 228 225 215 234 231 220 225 220 210 210 204 195 145 139 130 171 166 156 105 100 88  37  29  18  44  35  22  34  21  5   45  31  8   52  35  9   131 111 79  183 162 124 167 146 98  152 132 75  148 127 61  180 158 93  204 181 127 161 137 88  135 111 65  159 138 97  170 158 121 190 181 152 191 183 163 240 234 220 238 232 223 236 233 225 226 222 214 237 234 226 234 228 221 234 228 221 234 228 221 235 230 222 238 232 225 238 232 225 239 233 226 240 234 227 250 242 233 240 233 224 239 232 223 249 241 232 249 241 232 204 197 188 127 122 112 162 157 147 172 164 153 102 93  78  144 130 105 147 132 100 171 153 125 197 180 159 140 128 118 112 100 100 88  78  82  101 100 107 76  93  99  97  117 124 89  97  104 203 203 201 190 181 163 175 163 140 182 169 153 153 139 126 79  65  49  117 104 88  89  78  59  72  62  41  106 96  74  170 160 141 103 95  79  65  58  44  49  42  31  65  57  46  62  57  47  91  86  76  76  71  61  30  25  16  61  55  46  162 157 147 138 132 123 212 207 197 254 248 241 247 241 234 255 252 245 249 244 236 250 246 241 250 246 241 250 246 241 250 246 241 249 245 240 249 245 240 249 245 240 249 245 240 250 249 240 245 244 235 247 244 233 251 248 238 255 255 247 233 229 221 157 152 140 187 179 161 183 169 142 184 164 132 185 162 131 184 159 129 197 170 140 156 126 97  106 74  46  117 82  55  119 80  52  121 83  52  122 84  52  124 89  64  119 94  84  125 106 108 105 97  104 74  70  78  71  71  73  72  74  75  76  80  83  84  90  95  94  102 108 100 110 118 105 115 125 103 113 121 98  107 111 97  103 105 104 110 110 102 106 105 92  92  90  94  92  88  94  92  88  95  91  88  92  91  87  90  88  84  90  88  86  92  90  91  92  92  94  85  89  93  84  91  91  80  89  88  89  99  95  82  91  93  74  80  89  73  75  86  73  74  83  82  81  82  102 101 90  127 122 101 204 188 164 220 204 180 141 135 119 83  83  69  98  98  85  114 107 89  182 166 139 197 177 145 191 172 137 216 200 162 219 202 164 217 201 163 222 205 168 215 198 161 219 202 164 226 209 171 215 199 159 217 201 163 221 204 169 224 207 174 237 219 189 238 221 190 243 225 197 207 192 172 84  78  73  46  42  39  184 175 158 235 223 197 237 224 194 227 214 180 230 221 179 221 212 167 232 223 183 233 221 184 231 216 180 222 205 168 205 186 147 214 193 152 222 199 157 221 198 158 225 205 173 227 207 177 227 202 174 228 205 178 212 195 176 158 150 141 64  68  72  29  36  45  78  82  88  144 146 146 76  77  70  141 141 130 248 244 238 250 246 241 255 254 246 245 243 232 248 245 234 248 245 234 248 244 236 248 244 236 249 246 238 249 246 238 249 246 238 249 246 238 252 249 241 253 248 238 244 237 221 186 178 158 192 183 159 180 168 143 148 134 107 152 139 111 159 145 122 166 151 131 162 147 125 169 154 132 169 155 130 177 163 138 198 182 156 134 118 92  118 102 75  105 89  63  113 97  73  111 96  74  105 93  72  93  83  64  106 97  80  224 218 202 243 240 230 241 241 232 240 239 231 243 242 233 252 251 242 252 251 242 252 251 242 251 250 241 252 249 241 252 249 241 252 249 241 252 249 241 254 250 242 254 250 242 252 251 242 253 252 243 250 249 240 254 253 245 255 255 248 240 236 228 122 117 110 58  50  43  128 117 112 142 129 125 61  48  43  96  86  78  103 97  81  79  72  54  107 97  78  123 110 80  133 114 66  159 136 78  214 190 127 221 197 134 223 205 149 185 168 119 156 144 96  180 170 121 211 199 148 218 205 157 135 124 82  78  67  34  67  55  32  106 95  78  95  86  73  99  90  75  100 94  73  105 102 80  78  76  58  74  74  60  57  57  46  67  65  63  100 93  105 122 116 127 131 126 128 150 146 141 165 160 153 167 161 152 179 175 163 138 131 119 191 181 169 185 176 161 186 178 160 191 182 165 193 185 167 195 187 169 199 191 171 201 193 173 204 193 174 206 196 177 210 199 180 212 202 182 213 203 182 217 207 185 215 204 183 211 201 179 205 195 173 205 195 173 207 194 173 207 194 173 193 179 156 199 185 160 201 190 162 135 126 100 32  24  8   54  46  38  82  77  65  84  81  68  78  74  59  
171 158 128 129 118 87  109 102 75  141 137 120 231 231 219 214 216 204 218 220 208 222 221 212 223 220 212 223 220 212 223 220 212 224 221 213 224 221 213 224 221 213 224 221 213 224 221 215 224 221 213 224 222 211 224 222 211 228 224 219 172 168 163 60  57  49  93  88  76  77  68  51  59  41  22  132 102 87  175 138 128 185 148 138 169 137 125 131 107 88  108 89  66  134 115 87  138 120 90  138 123 89  79  69  31  50  43  4   65  62  22  97  95  52  50  50  9   59  61  20  41  46  3   41  46  3   26  29  0   68  71  29  71  73  33  66  68  29  17  19  0   38  40  3   54  55  21  61  62  28  37  38  4   46  45  8   72  72  31  50  51  5   70  71  25  106 106 65  29  28  0   31  32  0   7   9   0   39  39  23  46  45  27  27  25  0   83  82  44  82  85  39  36  39  0   56  62  14  65  67  25  61  60  24  116 112 79  67  61  31  62  55  16  130 123 66  117 111 51  79  72  32  33  25  0   69  63  15  77  71  23  99  92  53  62  56  21  70  67  34  25  22  0   12  13  0   19  21  0   47  50  15  58  60  18  40  43  1   31  33  0   35  40  0   26  31  0   42  44  2   33  33  0   36  36  0   28  27  0   36  33  13  26  21  7   22  20  2   23  22  0   37  37  8   32  35  2   42  45  13  25  27  0   24  24  6   27  27  14  9   6   0   40  38  27  94  93  82  99  99  88  171 168 158 233 230 219 207 204 194 221 218 208 224 218 209 224 218 209 224 218 209 224 218 209 224 218 209 224 218 209 224 218 209 224 218 209 223 217 208 225 220 210 228 223 213 231 225 216 233 228 218 233 228 218 234 229 219 235 230 220 231 226 214 225 220 208 205 200 188 226 221 209 234 229 217 241 236 224 234 229 217 240 235 223 226 222 207 230 223 209 237 230 218 244 236 227 251 243 236 237 228 224 206 197 195 168 159 158 103 94  93  89  78  77  78  67  64  77  66  63  77  66  61  70  60  52  91  81  71  126 116 103 154 145 125 176 166 142 180 170 146 188 181 156 152 145 120 155 147 122 164 155 131 187 175 150 199 185 158 189 176 144 193 184 139 179 169 129 123 113 89  105 96  81  86  79  61  34  25  0   57  40  0   142 121 69  176 149 88  125 96  35  174 143 92  138 110 63  119 99  54  141 128 85  151 141 103 183 175 141 121 115 83  108 101 74  170 161 146 131 122 109 53  47  28  21  19  0   42  40  9   31  27  0   126 121 79  110 106 64  49  48  14  42  39  15  21  16  4   19  15  0   40  40  0   71  75  23  73  76  30  34  38  0   23  28  0   17  22  0   0   2   0   27  30  9   63  62  37  87  82  54  74  68  38  52  42  6   58  40  0   68  54  11  69  68  32  42  45  15  23  25  0   16  16  0   29  29  0   51  50  14  83  79  32  100 96  38  125 121 50  121 117 41  146 139 66  135 127 62  151 143 84  134 124 73  129 119 72  143 132 88  165 154 110 158 148 101 150 142 90  158 150 100 145 137 99  150 143 116 111 105 89  202 196 187 230 227 221 236 232 229 231 230 223 231 230 223 231 230 223 231 230 223 232 231 224 232 231 224 232 231 224 232 231 224 231 230 223 231 230 223 238 237 230 229 227 221 233 232 228 233 232 228 211 210 204 139 136 128 166 157 144 114 105 92  60  53  41  58  49  36  50  36  22  146 129 117 68  54  43  105 94  77  117 106 76  129 119 81  150 141 98  135 125 85  124 114 79  142 131 96  163 153 115 154 147 108 156 150 114 98  94  66  132 127 115 112 106 101 138 126 116 165 151 140 116 105 88  119 110 92  124 112 98  152 139 123 156 139 118 148 129 103 163 144 116 133 117 89  101 87  62  108 97  66  133 124 82  144 135 90  138 129 89  134 122 85  133 120 86  146 133 98  133 120 86  112 99  65  148 136 99  152 138 97  188 174 131 188 175 127 180 168 115 189 178 120 163 153 91  141 131 70  158 149 95  137 126 82  136 124 89  178 164 139 184 171 152 178 169 154 225 220 208 227 224 213 235 232 224 235 232 224 235 232 224 235 232 224 235 232 224 235 232 224 235 232 224 235 232 224 242 239 231 231 228 220 233 230 219 223 220 210 240 235 225 174 168 159 153 147 138 161 156 144 56  52  35  45  39  20  30  22  4   41  29  8   28  14  0   60  42  12  156 137 98  179 159 113 165 144 94  130 110 53  164 143 77  170 149 83  198 175 119 163 140 88  149 126 74  148 129 81  162 148 108 187 176 144 171 162 138 226 217 200 242 234 223 235 230 222 230 224 217 236 233 225 234 228 221 234 228 221 235 230 222 238 232 225 239 233 226 239 233 226 240 234 227 242 237 229 245 237 229 243 235 226 243 235 226 246 239 230 250 242 233 231 223 215 145 139 130 139 133 126 199 195 190 110 103 92  139 127 104 145 129 100 167 149 119 202 186 159 185 171 155 103 90  83  88  77  76  109 107 105 101 115 111 119 136 132 96  100 101 186 182 179 173 165 145 167 155 132 196 183 169 168 154 143 69  56  42  136 122 106 99  89  67  70  60  38  133 123 101 148 138 118 100 91  76  77  71  57  73  65  54  45  38  26  94  89  80  57  52  42  91  86  76  41  36  26  73  68  59  157 152 142 151 146 137 231 225 216 253 247 240 249 244 236 254 248 241 250 245 238 250 246 241 250 246 241 250 246 241 250 246 241 249 245 240 249 245 240 249 245 240 249 245 240 250 249 240 245 244 235 247 244 233 251 248 238 255 251 243 210 207 199 153 148 136 193 185 165 166 150 121 157 134 103 157 134 103 171 144 115 192 162 133 131 100 72  87  52  25  120 83  57  119 80  52  121 82  55  122 84  54  124 89  64  117 91  82  122 104 105 104 96  103 71  68  76  73  73  75  76  75  78  79  80  84  88  91  97  95  101 108 102 110 118 107 114 125 104 112 121 98  107 111 97  103 103 105 110 108 103 106 103 94  92  88  95  92  86  97  91  86  98  92  87  93  89  86  87  85  83  85  83  84  87  84  87  85  84  91  81  82  89  78  84  87  75  84  84  86  95  94  82  91  93  74  80  87  66  72  81  66  69  75  71  73  72  82  83  73  94  90  74  143 128 110 149 134 116 107 100 86  118 116 103 176 173 160 190 184 166 226 212 187 214 196 166 198 181 145 222 205 170 228 211 176 235 218 183 234 217 181 231 214 179 235 218 183 237 221 183 231 217 178 229 214 178 224 209 173 222 207 173 241 226 195 236 220 191 237 221 194 201 190 171 76  74  70  52  53  50  167 163 146 225 217 192 249 240 214 245 236 205 244 239 202 241 236 197 249 242 206 252 242 207 241 228 194 234 220 184 226 209 171 226 209 169 227 209 167 239 218 180 243 224 192 240 218 189 242 217 187 237 212 186 208 188 170 149 139 131 60  62  64  36  42  49  121 126 127 86  87  84  88  87  76  200 199 186 250 247 239 249 246 238 255 252 241 248 245 234 248 245 234 248 245 234 248 244 236 248 244 236 249 246 238 249 246 238 249 246 238 249 246 238 251 248 240 245 240 228 224 218 200 183 175 150 205 196 167 175 164 134 157 144 114 156 142 115 157 143 120 164 149 129 159 145 125 166 152 129 164 152 126 166 154 129 186 169 143 124 106 80  114 95  70  108 89  64  113 94  70  114 98  76  106 91  71  109 96  78  82  71  54  175 169 153 242 239 229 248 248 239 248 248 239 243 242 233 252 251 242 252 251 242 252 251 242 250 249 240 251 248 240 251 248 240 251 248 240 251 248 240 252 249 241 252 249 241 251 250 241 252 251 242 251 250 241 252 251 242 245 242 234 252 249 241 191 185 178 72  64  57  83  72  66  143 131 126 95  82  77  44  34  26  95  88  72  100 94  73  106 96  74  108 92  61  160 141 92  213 188 128 189 163 98  216 192 130 238 220 162 221 207 152 218 206 155 220 210 161 184 171 126 125 111 70  92  79  45  107 93  66  109 96  76  97  86  69  98  89  74  98  88  76  100 93  77  104 100 83  93  91  76  83  83  69  61  61  49  73  71  69  109 103 114 127 120 131 127 122 123 142 138 133 165 160 153 168 163 153 179 175 163 138 131 119 188 179 166 184 175 160 185 176 159 190 181 163 193 185 167 195 187 169 199 191 171 201 193 173 204 193 174 206 196 177 210 199 180 212 202 182 213 203 182 215 204 183 212 202 180 210 200 178 205 195 173 205 195 173 207 194 173 207 192 172 196 179 157 196 179 155 198 184 157 154 142 119 74  62  50  77  70  61  86  81  69  80  78  65  82  77  63  
172 158 131 133 122 92  110 103 76  135 131 114 229 229 215 214 216 204 220 222 210 222 221 212 223 220 212 223 220 212 223 220 212 224 221 213 224 221 213 224 221 213 224 221 213 224 221 215 224 221 213 224 222 211 224 222 211 227 223 218 173 170 164 53  50  42  76  69  58  96  77  65  100 80  64  138 118 102 150 130 114 142 122 106 118 101 81  121 104 85  135 118 97  133 117 93  117 101 74  115 102 72  103 92  62  76  69  39  67  63  32  82  78  47  61  59  28  53  54  24  38  38  9   43  43  13  58  58  28  57  55  26  53  50  24  57  55  28  54  51  25  55  52  26  39  36  8   83  81  50  78  77  43  87  86  54  68  66  37  68  65  39  41  38  14  86  84  57  73  71  44  66  66  41  34  35  14  123 123 109 146 145 127 80  79  45  79  79  38  69  68  32  68  67  31  90  89  53  93  89  54  96  88  54  107 96  61  116 101 67  102 87  49  137 124 74  129 119 70  101 90  57  128 117 86  102 92  55  137 127 87  133 124 86  99  91  55  72  65  36  11  8   0   4   5   0   31  36  7   62  66  26  57  59  17  42  43  6   52  53  21  35  38  6   33  36  3   38  38  9   36  36  4   46  45  8   42  40  9   49  44  32  36  31  23  6   3   0   13  14  0   28  29  9   17  21  0   12  15  0   51  54  35  50  52  38  24  23  12  18  17  6   25  24  13  62  62  50  80  79  68  113 110 99  224 222 211 208 205 195 221 218 208 224 218 209 224 218 209 224 218 209 224 218 209 224 218 209 224 218 209 224 218 209 224 218 209 220 215 205 223 217 208 226 221 211 228 223 213 230 224 215 231 225 216 233 228 218 233 228 218 238 233 221 228 223 211 203 198 186 220 215 203 236 232 220 238 233 221 221 217 202 223 218 204 247 243 226 233 229 210 226 222 205 231 226 212 232 227 217 245 239 232 242 237 229 228 223 215 243 238 229 214 206 197 181 173 165 164 156 147 132 124 118 91  83  79  63  55  53  65  57  50  65  58  40  89  82  59  114 106 84  147 142 119 151 145 122 179 171 149 177 167 145 187 175 152 164 150 127 179 165 138 156 145 110 145 135 100 163 154 125 179 171 149 158 149 134 161 150 131 141 128 94  154 136 92  142 118 74  112 83  34  176 148 94  128 106 49  118 101 52  83  71  30  138 129 96  176 170 135 114 109 68  63  57  20  79  72  47  109 101 83  65  58  40  38  33  7   43  43  4   65  62  22  136 131 94  57  51  17  21  22  0   32  32  5   23  15  4   20  13  0   36  32  0   69  67  25  79  79  40  25  26  0   24  26  0   21  27  2   5   13  0   33  40  15  33  31  0   58  53  16  62  59  24  46  37  4   66  51  13  62  49  13  55  51  23  28  30  7   2   5   0   29  32  13  18  18  0   11  9   0   45  41  0   73  67  7   129 123 48  135 128 46  134 124 45  145 134 61  146 136 69  137 126 64  139 128 68  142 132 70  161 152 84  159 150 80  119 111 45  138 132 72  142 136 92  162 155 125 131 125 106 217 211 202 238 235 229 238 234 231 231 230 223 231 230 223 231 230 223 231 230 223 232 231 224 232 231 224 232 231 224 232 231 224 231 230 223 231 230 223 238 237 230 230 229 222 233 232 228 233 232 228 211 210 204 139 136 128 165 158 144 105 95  83  69  62  51  58  49  36  51  37  23  148 132 119 66  52  41  117 104 86  127 114 80  137 127 80  152 143 91  130 120 69  136 125 83  148 136 95  178 167 121 141 130 84  168 159 117 114 106 75  136 129 115 114 105 99  151 136 130 166 152 141 113 102 85  140 132 109 153 143 119 152 141 111 167 152 116 148 132 89  159 144 99  147 134 88  146 134 90  133 125 78  147 137 83  136 127 71  142 133 77  148 138 85  145 132 82  151 138 92  145 131 90  116 101 63  103 88  52  155 138 100 158 142 100 157 142 94  199 185 130 194 181 122 178 165 101 179 169 104 183 174 116 178 167 121 163 152 117 167 157 131 169 160 143 196 189 178 245 240 228 240 237 226 235 232 224 235 232 224 235 232 224 235 232 224 235 232 224 235 232 224 235 232 224 235 232 224 242 239 231 231 228 220 233 230 219 223 220 210 231 225 216 145 139 130 163 158 148 125 120 106 41  38  12  58  53  23  50  43  16  50  38  10  42  29  0   96  80  42  167 150 99  151 132 77  144 123 69  152 132 75  190 171 104 156 137 71  184 164 105 178 157 103 155 134 79  139 120 69  158 145 99  165 155 117 170 158 130 203 192 173 241 232 219 233 226 217 234 228 221 236 231 224 234 228 221 234 228 221 236 231 224 239 233 226 240 234 227 242 237 229 242 237 229 242 237 229 243 235 226 246 239 230 246 239 230 243 235 226 242 234 225 247 240 231 190 185 175 132 129 121 151 149 147 150 147 139 130 122 102 157 143 116 164 146 116 200 182 154 197 182 162 133 120 106 119 109 99  138 133 121 138 146 125 140 146 128 137 129 122 191 179 172 181 168 152 185 172 151 185 172 151 168 155 137 96  83  65  136 123 104 82  69  51  48  35  17  122 108 92  154 143 128 105 95  83  89  82  71  34  27  16  81  74  62  137 129 120 69  62  53  87  82  73  61  55  46  108 103 94  160 154 145 170 165 155 246 241 231 250 245 238 254 248 241 249 244 236 253 247 240 250 246 241 250 246 241 250 246 241 250 246 241 249 245 240 249 245 240 249 245 240 249 245 240 248 248 239 246 245 236 248 245 234 250 247 237 252 249 241 192 189 181 149 145 130 185 177 157 160 142 114 162 140 109 158 135 104 153 126 96  159 128 100 132 96  69  127 90  64  122 83  58  119 80  52  120 81  53  122 84  54  124 89  64  113 88  78  117 101 102 101 93  101 69  66  74  78  76  79  78  78  80  82  84  88  91  95  100 95  101 108 104 109 118 107 114 125 104 112 121 101 108 110 98  105 104 104 109 107 103 106 103 95  93  89  97  91  86  100 90  82  101 91  85  92  86  81  85  80  79  80  75  79  76  73  79  80  79  86  79  80  86  78  82  86  79  86  86  81  88  90  84  90  95  74  80  85  62  68  72  62  66  69  68  71  70  72  73  66  74  71  63  80  72  63  87  77  69  79  74  66  97  91  84  125 120 108 138 131 117 153 142 123 158 146 122 174 162 139 190 179 153 193 179 154 205 191 166 204 190 165 207 193 168 212 198 173 206 194 166 170 161 132 166 157 128 160 149 121 154 143 117 153 143 119 142 132 111 147 136 117 121 113 102 87  87  89  51  53  54  96  93  83  118 112 96  126 117 101 134 125 108 137 131 108 145 140 114 180 173 148 203 192 166 204 190 163 213 198 169 219 201 170 212 194 161 205 185 153 231 211 177 252 232 198 237 215 181 235 211 178 218 192 165 194 175 154 134 124 112 62  62  60  60  64  65  123 125 125 56  57  50  131 131 117 244 244 228 254 251 240 245 242 234 252 249 239 250 247 237 248 245 234 248 245 234 248 244 236 248 244 236 249 246 238 249 246 238 249 246 238 249 246 238 255 253 245 241 236 224 192 186 165 188 181 154 201 192 161 164 153 120 173 160 130 156 142 115 155 140 120 160 147 129 157 142 122 164 150 127 158 146 120 157 145 119 179 162 136 127 106 81  117 96  71  117 96  71  116 97  74  125 108 86  120 105 85  117 104 86  99  85  69  119 110 94  222 219 209 246 245 236 255 254 244 248 245 234 254 250 242 254 250 242 254 250 244 251 248 242 251 248 240 251 248 240 251 248 240 251 248 240 252 249 241 252 249 241 251 250 241 252 251 242 251 250 241 248 248 239 244 241 233 255 255 247 243 238 231 125 117 111 55  44  39  117 104 99  142 131 126 44  34  26  77  73  56  136 133 111 157 147 126 160 144 113 155 137 84  196 172 110 176 149 88  210 186 124 230 212 152 212 198 141 208 195 145 157 146 104 116 100 69  105 89  65  102 88  65  118 103 83  108 96  72  77  67  45  101 93  73  93  84  69  96  88  80  107 102 92  29  26  14  23  22  9   13  13  2   44  41  40  96  90  101 121 114 126 132 127 131 153 149 146 165 160 153 168 163 153 179 175 163 138 131 119 186 177 164 181 173 157 181 173 155 187 179 161 193 185 167 195 187 169 199 191 171 201 193 173 204 193 174 206 196 177 210 199 180 212 202 182 215 204 183 212 202 180 209 199 177 208 197 176 205 195 173 205 195 173 206 193 172 207 192 172 201 184 162 198 182 158 194 181 153 161 149 126 102 90  78  93  85  76  92  87  77  85  82  69  100 96  81  
193 179 152 137 126 98  117 110 85  135 131 114 220 220 207 221 223 213 220 222 212 222 221 212 223 220 212 223 220 212 223 220 212 224 221 213 224 221 213 224 221 213 224 221 213 224 221 215 224 221 213 224 222 211 223 220 210 223 220 214 176 172 166 58  55  47  77  70  61  154 137 127 156 138 126 149 138 124 142 133 116 158 150 132 144 136 118 161 150 133 170 157 138 159 146 128 172 159 138 161 149 128 174 164 142 171 163 143 174 168 147 166 160 139 170 167 145 170 168 148 172 171 151 165 164 144 165 164 144 163 159 140 175 171 154 170 166 149 164 160 143 167 163 146 182 178 157 172 170 145 157 155 128 167 164 140 163 160 138 163 159 144 178 174 159 170 166 149 165 161 145 167 166 148 170 171 155 173 172 161 169 170 152 181 182 152 182 180 147 176 173 147 181 178 154 181 176 150 177 170 143 176 167 138 201 188 158 180 164 133 155 137 102 148 131 91  127 113 75  113 99  70  123 111 86  124 113 83  117 107 72  137 125 90  129 116 84  105 94  68  71  64  39  26  28  0   25  33  0   35  42  0   31  35  0   39  37  4   24  24  0   26  28  2   40  44  17  20  22  0   36  36  8   22  21  0   41  39  8   22  18  3   10  8   0   17  18  0   16  17  0   24  27  10  19  21  7   30  32  20  28  30  18  44  46  34  10  12  0   31  30  19  28  28  15  45  45  31  81  81  67  78  75  62  172 169 159 224 221 213 214 211 203 224 218 209 224 218 209 224 218 209 224 218 209 224 218 209 224 218 209 224 218 209 224 218 209 219 214 204 221 216 206 224 218 209 226 221 211 227 222 212 228 223 213 230 224 215 231 225 216 227 222 210 225 220 208 207 202 190 231 226 214 227 222 210 236 232 220 234 229 217 243 239 225 235 233 216 234 232 212 235 233 216 238 236 221 240 237 224 238 236 225 234 231 220 230 227 217 239 234 222 242 237 225 238 233 221 226 221 211 234 228 221 218 210 206 183 175 173 152 144 137 119 113 97  131 125 104 110 104 83  96  90  69  124 118 97  142 134 114 131 120 101 155 145 125 181 168 150 171 158 137 210 199 171 211 200 172 188 178 152 184 174 152 165 156 141 167 156 137 197 186 156 169 155 119 153 132 96  155 132 92  167 146 96  126 108 55  125 112 66  107 97  59  86  78  47  70  64  29  73  69  25  113 108 66  155 148 118 243 235 213 227 219 199 148 143 118 124 121 83  119 117 77  128 122 90  33  29  0   42  42  10  45  45  20  26  19  8   21  11  1   35  28  1   74  69  32  107 103 68  35  35  3   23  24  0   22  26  4   8   17  0   21  27  0   43  42  6   52  49  11  63  62  28  41  38  5   41  31  0   32  24  0   27  25  0   6   8   0   27  30  11  41  44  25  37  36  14  58  54  21  81  75  27  71  61  0   125 115 39  134 122 40  131 119 34  160 148 67  150 137 64  146 135 64  165 153 84  151 140 68  151 141 62  139 131 52  126 120 44  123 117 53  125 119 69  162 156 121 133 127 109 214 209 202 230 227 221 226 222 218 231 230 223 231 230 223 231 230 223 231 230 223 232 231 224 232 231 224 232 231 224 232 231 224 231 230 223 231 230 223 238 237 230 230 229 222 233 232 228 233 232 228 211 210 202 139 137 124 164 157 141 98  89  72  75  68  55  58  49  36  51  37  23  149 133 118 65  51  37  125 113 90  124 110 71  140 128 75  166 155 93  156 143 81  132 118 64  135 123 73  184 172 120 145 133 80  163 152 106 128 117 82  138 127 108 121 109 100 160 146 135 146 133 119 113 103 83  153 143 117 154 145 114 182 173 135 190 177 133 168 154 104 198 184 127 180 169 109 162 153 95  160 154 97  106 98  37  112 104 40  137 129 66  137 129 66  123 112 54  138 126 73  155 142 97  134 121 78  118 102 62  131 115 75  162 146 101 178 163 113 178 164 109 184 171 111 199 186 122 148 135 73  155 144 86  189 181 132 187 179 143 171 164 139 169 163 147 223 218 206 243 240 230 236 233 223 235 232 224 235 232 224 235 232 224 235 232 224 235 232 224 235 232 224 235 232 224 235 232 224 230 227 221 236 232 227 228 225 215 234 231 220 202 197 185 136 131 119 168 163 151 84  80  63  48  46  17  39  35  2   74  65  32  53  43  8   70  56  20  135 119 76  167 150 99  140 122 67  142 121 67  180 160 103 184 165 100 176 156 92  170 150 91  199 178 124 150 129 75  136 116 66  159 146 98  139 127 85  181 171 138 181 169 146 230 218 204 234 224 216 239 231 225 235 230 222 234 228 221 235 230 222 238 232 225 241 235 228 241 235 228 242 237 229 242 237 229 242 237 229 239 232 223 249 241 232 249 241 232 239 232 223 255 253 244 251 243 234 234 229 219 141 137 129 125 124 117 177 177 168 112 106 88  149 137 111 177 162 129 165 150 116 197 183 158 172 159 138 104 93  74  131 126 102 152 153 121 151 149 120 158 145 129 189 170 159 179 165 142 192 180 152 181 170 140 125 114 84  118 106 83  144 131 111 78  65  44  83  71  50  112 100 81  147 136 119 103 94  81  86  77  64  20  10  0   114 106 95  144 136 125 18  11  0   65  57  48  97  91  82  138 132 123 160 154 145 174 168 159 243 238 229 249 244 236 255 249 242 247 241 234 253 247 240 250 246 241 250 246 241 250 246 241 250 246 241 249 245 240 249 245 240 249 245 240 249 245 240 248 248 239 246 245 236 248 245 234 250 247 237 252 249 241 189 183 176 149 145 130 166 158 138 163 144 116 164 141 110 172 153 121 190 165 135 166 131 104 107 68  43  125 86  60  115 76  51  119 80  52  120 81  53  121 83  52  124 89  64  108 85  75  115 99  100 99  91  98  68  64  72  80  77  80  82  80  80  86  86  88  94  96  100 97  101 106 104 109 116 108 115 124 105 113 122 101 108 110 99  104 104 106 108 107 105 105 103 98  92  87  100 89  84  103 89  80  104 91  84  94  85  81  85  78  78  74  69  73  72  66  73  81  77  85  80  79  86  82  84  86  83  87  88  79  84  87  84  90  95  74  80  85  57  63  68  63  67  70  74  77  76  79  80  75  77  76  72  84  79  76  73  67  65  84  78  73  83  77  72  76  68  62  94  86  75  85  76  63  107 98  83  92  83  68  97  86  71  90  79  64  100 89  75  105 94  79  114 103 87  118 107 90  107 98  81  111 105 85  109 103 82  107 99  79  103 95  75  107 99  79  99  90  73  110 102 84  93  88  78  74  76  78  59  63  64  83  83  71  92  88  73  100 92  83  107 96  91  96  89  78  102 95  79  136 128 108 150 140 119 131 119 96  137 120 96  159 141 115 162 143 115 171 151 119 222 203 169 222 203 169 209 187 151 221 197 164 205 183 154 186 169 145 130 121 106 76  75  68  94  96  95  83  86  83  88  90  82  184 184 171 251 251 237 255 252 241 243 240 232 249 246 236 252 249 239 248 245 234 248 245 234 248 244 236 248 244 236 248 244 236 249 246 238 249 246 238 249 246 238 249 246 238 227 222 210 165 159 138 190 183 153 181 171 136 154 141 107 190 174 148 154 137 116 152 138 118 158 145 127 155 140 120 162 147 127 152 140 119 151 139 116 182 163 140 140 119 94  122 101 77  128 107 82  124 105 82  141 122 98  116 99  77  117 99  80  122 107 89  85  71  55  200 193 179 240 235 223 255 255 244 251 249 236 254 251 240 252 249 241 254 250 244 251 248 242 251 248 240 251 248 240 251 248 240 251 248 240 252 249 241 252 249 241 251 250 241 252 251 242 247 246 238 244 243 234 255 253 245 255 251 243 252 246 239 192 187 179 76  68  62  84  73  68  131 121 115 94  86  75  44  40  23  120 117 95  173 162 141 155 140 107 178 159 104 202 178 114 186 160 98  217 193 133 231 214 153 203 190 135 161 148 104 126 113 81  105 88  67  109 91  74  91  75  58  76  63  45  90  80  58  96  86  64  105 96  78  91  81  69  93  84  78  111 105 98  31  29  14  24  22  5   13  10  0   45  41  38  103 99  107 124 120 130 129 124 128 145 141 138 165 160 153 169 164 154 179 175 163 138 131 117 184 174 162 180 171 156 180 172 154 185 176 159 193 185 167 195 187 169 199 191 171 201 193 173 204 193 174 206 196 177 210 199 180 212 202 182 213 203 182 211 201 179 208 197 176 204 194 172 205 195 173 205 195 173 206 193 172 206 191 169 205 189 165 210 193 169 193 179 152 154 142 119 98  88  76  90  83  74  94  89  80  95  92  82  96  90  81  
197 183 158 144 132 107 109 102 77  128 124 107 218 218 206 218 219 214 210 210 208 220 219 213 222 219 211 222 219 211 222 219 211 223 220 212 223 220 212 223 220 212 223 220 212 224 221 213 219 215 207 228 225 215 223 220 210 237 234 228 158 154 149 44  41  33  71  65  58  134 127 118 124 116 108 106 101 91  101 97  85  99  94  82  108 104 92  121 116 104 132 125 114 130 123 111 125 118 107 118 111 100 114 106 95  122 114 103 122 114 103 113 108 96  103 101 88  84  81  68  79  76  64  82  80  67  85  82  69  91  88  75  93  90  80  95  92  82  89  86  78  93  90  82  98  95  84  103 101 88  108 106 93  122 120 105 122 120 105 124 119 107 124 119 107 107 102 90  112 107 95  117 114 104 120 120 109 105 104 96  94  93  82  95  93  78  107 105 90  118 113 101 121 116 104 118 113 101 111 104 91  121 112 95  130 119 100 108 95  74  64  50  25  74  58  29  99  84  53  81  68  40  105 94  66  117 106 78  121 108 78  121 106 77  113 94  66  126 102 81  116 99  73  57  62  22  36  49  1   37  45  0   67  72  27  41  39  8   33  30  4   18  19  0   15  19  0   45  50  21  31  34  1   18  20  0   42  41  7   42  40  13  26  27  0   47  51  11  24  30  0   5   7   0   0   2   0   6   7   0   9   10  3   6   7   0   21  23  11  21  23  9   29  32  15  42  43  25  57  58  40  89  87  72  120 117 106 215 211 206 237 234 228 214 211 203 224 222 211 224 222 211 219 216 205 225 220 210 225 220 210 217 211 202 220 215 205 221 216 206 221 216 206 223 217 208 224 218 209 226 221 211 228 223 213 230 224 215 230 224 215 233 228 216 228 223 211 211 206 194 218 213 201 236 231 222 234 229 219 232 227 215 231 226 214 230 228 215 231 229 216 231 229 216 231 229 216 230 227 217 235 232 222 235 232 222 230 227 217 235 232 222 233 230 219 230 227 217 228 225 215 234 231 220 235 230 220 235 230 220 235 230 220 230 225 211 211 206 192 184 180 163 165 161 145 143 136 120 127 121 105 114 107 89  112 103 85  146 135 118 150 140 123 154 143 124 162 152 130 182 171 152 192 182 163 176 165 148 163 153 131 152 141 113 157 144 112 173 157 126 175 160 126 167 150 115 153 138 102 140 127 93  129 118 85  118 109 78  154 146 112 149 142 103 167 159 121 173 164 131 249 240 212 255 245 221 240 232 207 199 194 164 138 134 103 74  67  40  37  32  6   14  13  0   71  69  49  54  47  36  20  10  0   29  20  0   83  76  44  80  76  41  50  50  18  20  22  0   23  23  5   13  16  0   28  32  8   35  35  5   37  38  6   45  46  14  44  43  11  37  32  2   35  33  2   30  30  1   25  28  0   24  29  0   59  61  33  37  37  10  44  41  3   120 111 53  136 124 55  141 126 52  136 121 42  146 133 46  152 139 52  153 141 58  144 132 54  147 134 59  156 143 70  144 133 59  116 107 33  107 101 26  104 100 31  125 120 65  152 147 108 144 137 121 206 200 195 243 239 236 224 220 217 231 230 223 231 230 223 231 230 223 231 230 223 232 231 224 232 231 224 232 231 224 232 231 224 234 230 227 234 230 227 234 230 224 233 229 223 235 231 228 237 234 228 212 209 196 114 111 91  145 140 114 108 100 78  62  53  37  54  42  30  58  44  30  147 131 116 74  60  37  136 123 91  133 120 74  136 123 61  166 156 80  153 140 62  151 138 67  163 150 86  168 158 95  165 153 98  150 140 91  143 131 92  149 137 109 145 133 110 168 153 133 143 128 108 123 111 86  138 127 97  174 164 129 170 160 120 174 160 117 187 175 122 181 172 102 179 170 96  172 165 97  159 154 89  154 146 82  166 159 95  118 110 46  102 94  33  116 104 49  126 114 61  131 119 68  138 125 77  129 114 67  142 127 79  165 150 101 157 143 90  142 128 73  151 138 81  193 180 121 195 182 125 174 162 107 153 145 98  177 169 133 158 151 126 199 192 178 235 230 220 233 230 219 241 238 227 240 236 228 233 229 221 229 226 218 233 229 221 235 230 222 235 230 222 235 230 220 235 230 222 245 238 238 227 221 218 242 237 229 224 219 207 164 160 143 170 166 147 143 139 122 29  26  6   34  29  6   35  28  0   68  60  22  65  54  12  116 102 61  157 141 101 127 109 65  161 142 94  157 138 85  167 149 91  171 151 92  163 143 84  163 142 88  163 142 90  162 144 91  144 128 76  153 139 87  150 140 91  189 179 142 174 162 137 202 191 174 244 235 224 235 227 218 227 222 214 235 230 222 236 231 224 240 234 227 241 235 228 243 238 231 242 237 229 242 237 229 243 238 231 243 238 229 243 238 229 243 238 229 242 237 227 246 241 231 254 249 239 238 232 223 197 192 180 127 125 109 166 165 147 185 178 160 158 151 126 166 155 123 189 179 142 192 179 147 197 186 156 156 148 116 150 142 109 171 164 126 181 171 134 132 118 91  198 182 156 201 188 156 205 193 154 156 145 99  175 163 121 185 172 142 88  74  49  140 129 101 140 129 101 110 98  73  142 129 108 103 92  75  106 95  81  50  39  25  126 117 101 122 113 100 93  84  71  72  62  52  119 112 101 154 147 138 161 154 145 185 180 172 245 239 232 250 245 238 253 247 240 249 244 236 252 246 239 250 247 239 250 247 239 250 247 239 249 246 238 249 246 238 248 244 236 246 245 236 246 245 236 248 248 239 246 246 234 246 246 234 250 247 237 255 253 245 162 157 147 134 128 114 157 147 126 193 177 146 189 169 135 192 175 140 185 163 129 176 142 115 121 82  57  123 81  57  113 74  48  118 79  51  119 80  52  121 83  52  114 80  55  105 82  71  99  86  86  84  78  84  65  64  71  82  79  82  82  80  80  88  88  91  100 101 105 109 112 118 112 117 125 108 115 124 105 113 120 102 108 113 100 105 106 106 106 106 102 98  97  100 91  87  109 96  89  105 88  78  107 90  82  98  85  82  88  79  79  85  78  80  84  78  82  82  79  82  83  82  85  86  86  88  87  89  91  83  85  87  90  94  97  74  80  85  70  76  81  61  65  68  73  75  77  72  73  70  83  81  77  85  84  80  86  82  77  82  76  71  91  85  80  84  76  72  96  86  82  95  85  79  106 96  88  102 92  84  101 93  84  93  85  76  104 96  88  103 95  87  112 105 94  119 114 102 99  94  82  98  93  81  98  93  81  93  89  74  88  81  67  105 96  81  112 103 85  148 137 120 95  88  74  84  89  85  50  58  51  106 108 85  126 123 101 82  74  68  102 91  90  105 97  91  101 93  82  126 117 99  138 128 106 132 119 101 140 123 104 158 139 116 159 141 113 177 160 124 212 195 157 210 191 154 224 204 170 207 184 153 199 181 153 165 151 128 116 108 90  67  66  57  115 116 111 79  80  75  102 104 96  239 238 229 254 254 243 250 249 240 244 243 234 246 246 234 241 241 230 247 247 236 247 247 236 247 247 236 247 247 236 244 243 232 254 254 243 245 244 233 248 244 236 245 242 234 193 188 179 164 157 139 199 190 162 168 159 121 148 136 99  146 129 107 141 124 107 148 132 115 152 139 121 154 138 121 148 132 117 142 128 114 140 124 109 155 133 113 153 130 106 132 111 86  128 107 82  132 111 86  140 119 94  134 115 91  113 94  70  121 102 79  89  72  50  135 122 99  242 232 211 240 234 216 254 249 235 253 248 236 253 247 240 251 248 242 251 248 242 251 248 240 252 249 241 252 249 241 252 249 241 252 249 241 252 249 241 252 251 242 252 251 242 252 251 242 252 251 242 253 252 243 255 251 243 255 253 245 241 237 229 109 106 98  55  49  42  124 116 108 119 112 101 36  32  15  68  64  43  156 149 124 136 124 87  180 160 101 196 173 104 192 166 104 210 186 126 218 200 143 178 163 115 108 92  63  149 134 114 125 108 88  108 90  71  74  60  37  65  52  31  60  49  32  92  83  68  96  87  76  95  85  77  101 93  84  112 105 92  108 105 83  160 155 131 53  44  29  51  43  36  106 103 111 122 121 130 132 129 132 151 147 144 165 160 153 171 163 152 189 182 171 129 122 108 179 170 157 180 171 156 185 176 159 185 176 159 192 183 166 195 187 169 199 190 173 201 193 175 204 193 174 206 196 177 210 199 180 212 202 182 213 203 182 211 201 179 210 200 178 208 197 176 206 197 173 205 195 171 204 194 170 204 192 169 204 188 164 201 184 160 200 186 159 154 142 119 100 91  78  51  43  34  50  45  35  47  44  36  54  51  45  
191 177 152 143 131 105 108 100 78  119 115 98  216 215 204 226 226 224 226 226 224 220 219 213 222 219 211 222 219 211 222 219 211 223 220 212 223 220 212 223 220 212 223 220 212 223 220 212 222 219 211 224 222 211 223 220 212 223 220 214 169 165 159 86  83  75  103 100 92  117 114 106 108 105 97  101 98  90  99  95  87  95  92  84  98  94  86  101 98  90  103 100 92  117 114 106 114 111 103 109 106 98  107 104 96  113 107 100 115 110 103 109 106 98  102 99  91  89  86  78  85  81  73  87  84  76  89  86  78  94  91  83  95  92  84  98  94  88  92  88  82  95  91  88  99  95  91  103 100 94  106 102 96  114 111 103 114 111 101 115 110 101 115 110 101 107 102 92  110 104 95  113 109 101 115 114 105 104 103 94  96  95  86  98  94  86  106 102 94  128 122 117 120 114 109 117 111 104 123 115 106 115 105 95  117 105 93  105 92  78  69  53  36  67  50  26  110 94  67  112 98  71  129 117 89  128 116 88  136 122 95  131 115 88  128 107 82  123 97  74  102 84  54  45  50  5   61  74  22  55  63  12  66  71  26  48  47  13  48  45  19  37  38  15  17  21  0   29  34  5   27  30  0   45  46  12  80  80  43  83  81  48  39  41  2   66  71  24  43  49  11  18  23  6   4   7   2   21  22  15  22  23  16  15  17  7   29  31  17  40  43  23  50  54  32  27  29  5   26  27  6   72  70  53  115 112 100 184 180 172 229 226 218 217 215 204 212 209 198 213 210 199 224 222 211 223 217 208 225 220 210 227 222 212 233 228 218 223 217 208 223 217 208 223 217 208 224 218 209 226 221 211 228 223 213 230 224 215 230 224 215 231 226 214 227 222 210 212 207 195 220 215 203 236 231 222 234 229 219 232 227 215 231 226 214 230 227 217 231 229 218 231 229 218 231 229 218 233 230 219 237 234 224 237 234 224 233 230 219 235 232 222 233 230 219 230 227 217 228 225 215 234 231 218 234 231 218 234 231 218 234 231 218 236 232 220 238 233 221 240 236 221 241 237 222 231 224 211 206 199 185 175 171 154 161 155 139 141 132 117 135 124 110 134 123 106 134 123 106 145 134 117 159 148 131 173 162 143 187 176 155 186 174 148 171 159 131 152 141 113 151 140 111 173 160 132 176 162 135 178 164 137 174 163 135 174 163 135 187 178 149 171 163 132 178 170 139 184 176 144 219 211 179 233 224 195 247 238 211 199 192 167 105 100 77  31  24  1   51  45  24  84  80  63  211 206 194 203 195 187 86  76  66  74  66  46  67  60  33  83  81  50  49  49  19  30  30  12  25  25  11  32  32  16  14  16  0   20  22  0   20  22  0   29  29  1   35  35  7   29  29  1   29  29  1   31  33  3   35  38  6   31  34  0   33  36  1   68  66  33  59  55  13  80  72  9   124 110 37  113 98  26  131 114 38  115 101 15  144 131 42  146 134 49  133 121 39  135 123 45  127 114 39  141 130 56  116 107 33  125 119 43  118 114 43  128 125 62  129 125 81  143 137 116 214 208 204 242 237 237 233 228 227 231 229 225 231 230 223 231 230 223 231 230 223 232 231 224 232 231 224 232 231 224 232 231 224 234 230 227 234 230 227 234 230 224 233 229 225 236 232 231 241 237 231 213 211 195 110 106 85  134 130 102 110 103 76  55  46  30  53  41  31  55  41  30  149 134 116 74  60  35  142 128 92  122 107 58  132 120 56  158 146 66  161 150 65  144 132 54  148 134 64  146 134 70  141 130 72  142 131 85  139 127 87  145 135 100 137 126 95  147 133 106 133 119 94  124 113 85  142 131 100 159 150 110 158 147 103 151 137 94  196 184 131 181 172 102 180 172 95  191 185 112 173 169 97  180 173 105 186 179 113 137 129 66  123 115 54  128 117 62  127 115 63  120 108 56  125 113 60  116 102 50  144 130 78  150 136 81  155 141 86  159 145 91  158 144 90  160 146 92  191 180 125 184 174 121 172 163 118 170 162 128 171 163 141 217 210 197 239 234 224 230 227 217 240 237 226 233 229 221 224 221 213 222 219 211 226 222 214 235 230 222 235 230 222 235 230 220 235 230 222 236 230 228 228 222 220 241 235 228 209 204 192 148 144 127 174 170 149 98  95  73  40  37  13  51  46  20  44  38  8   64  57  18  66  55  13  152 138 97  150 134 92  139 120 79  163 146 99  164 145 92  176 158 101 170 149 93  147 126 69  141 120 67  138 117 67  178 158 108 149 132 81  157 143 86  159 147 94  168 156 117 187 176 148 188 177 158 241 232 219 233 226 217 238 232 225 235 230 222 238 232 225 240 234 227 241 235 228 243 238 231 242 237 229 242 237 229 242 237 229 242 237 227 242 237 227 245 239 230 246 241 231 242 237 227 252 246 237 243 238 229 224 219 207 138 137 119 164 161 141 210 204 188 172 164 144 183 174 143 154 145 107 146 133 98  166 154 119 193 183 147 185 175 137 190 179 135 194 180 139 144 129 95  182 167 135 192 180 141 208 198 151 180 171 115 185 176 122 141 129 92  109 96  64  128 118 80  150 140 102 138 128 93  136 125 94  107 94  71  97  84  66  58  45  26  114 104 85  136 126 107 116 108 88  60  52  34  122 113 98  149 139 129 154 147 138 190 182 176 247 241 234 250 245 238 250 245 238 250 245 238 250 245 238 250 247 239 250 247 239 250 247 239 249 246 238 249 246 238 248 244 236 246 245 236 246 245 236 248 248 237 246 246 234 246 246 234 250 247 237 254 248 241 142 137 127 117 110 96  160 150 128 193 177 146 202 185 150 215 200 164 207 187 155 176 144 116 116 77  52  118 79  53  120 81  55  116 80  51  119 80  52  122 81  51  114 80  55  103 79  69  97  83  83  81  76  82  64  63  70  88  85  88  87  84  85  91  90  93  101 103 107 109 112 118 112 117 125 109 117 125 107 115 121 102 108 113 100 104 108 108 105 108 104 97  97  101 91  85  110 96  87  105 88  78  108 91  83  101 85  84  93  80  80  87  77  78  85  78  80  84  79  80  84  82  83  88  85  86  88  88  88  84  84  84  88  90  92  71  75  79  64  70  75  56  60  63  69  71  73  71  71  71  84  83  79  76  75  68  82  79  73  87  81  77  104 96  92  101 90  87  107 96  93  100 87  83  105 94  89  100 91  85  98  92  85  90  84  77  101 96  89  100 95  87  105 99  92  110 107 99  97  91  82  93  88  78  92  87  75  107 99  88  126 117 101 106 96  74  109 98  70  146 133 98  138 129 96  57  56  31  92  94  69  149 148 112 103 97  67  102 89  82  98  84  84  97  90  81  94  87  73  136 128 110 138 127 108 125 112 96  134 117 100 149 129 109 156 138 107 180 164 124 221 205 163 204 185 148 192 172 140 196 175 146 173 157 130 164 152 128 100 93  75  104 102 91  93  94  87  80  81  76  156 157 152 239 238 231 255 255 247 245 244 235 245 244 235 246 246 234 245 244 233 246 246 234 247 247 236 247 247 236 247 247 236 244 243 232 252 251 240 248 248 237 248 245 234 236 231 224 169 162 151 177 168 151 194 185 156 179 169 131 173 161 124 169 152 133 142 124 112 143 127 112 149 136 117 150 135 117 142 128 112 133 121 111 135 118 108 153 131 111 153 128 104 134 111 85  130 107 80  133 110 84  143 120 93  133 110 84  122 102 75  122 102 75  106 87  59  117 101 72  198 184 159 246 236 214 246 237 219 253 246 233 254 249 239 249 245 240 251 248 242 252 249 241 252 249 241 252 249 241 252 249 241 252 249 241 252 249 241 252 251 242 252 251 242 252 251 242 252 251 242 253 252 243 253 252 243 255 255 250 254 250 242 163 163 154 75  73  62  99  94  82  119 114 100 67  66  48  48  45  23  145 138 113 157 145 108 164 144 83  200 177 107 198 172 108 216 191 134 195 177 121 137 121 79  98  81  60  146 129 117 134 117 100 106 89  68  56  42  17  52  40  17  61  50  33  76  66  55  91  81  73  102 92  84  98  91  80  83  77  61  170 162 138 210 200 176 101 86  70  53  40  33  108 102 109 122 121 130 134 128 132 153 146 144 167 159 151 172 164 153 189 182 169 129 122 108 179 170 157 181 172 159 185 176 161 186 178 160 192 183 166 195 187 169 199 190 173 201 193 175 204 193 174 206 196 177 210 199 180 212 202 182 215 204 183 212 202 180 210 200 178 208 197 176 206 197 173 205 195 171 204 194 170 203 191 168 199 183 159 198 179 155 197 181 155 150 138 114 93  84  71  33  25  17  25  19  10  21  17  9   22  17  17  
217 202 178 161 149 126 116 108 88  122 118 101 214 213 202 217 217 213 212 212 210 220 219 213 222 219 211 222 219 211 222 219 211 223 220 212 223 220 212 223 220 212 223 220 212 222 219 211 226 222 214 222 219 209 224 221 213 233 229 223 210 207 201 174 171 163 180 177 169 189 186 178 184 180 172 186 183 175 185 182 174 187 184 176 185 182 174 183 179 171 180 177 169 188 185 177 187 184 176 186 183 175 186 183 175 189 183 176 193 188 181 189 186 178 185 182 174 187 184 176 183 179 171 185 182 174 188 185 177 189 186 178 192 189 181 194 191 183 188 185 179 193 189 184 194 190 185 195 192 186 196 193 187 196 193 185 196 193 185 198 193 183 198 193 183 199 194 186 199 194 186 200 197 189 198 198 189 195 194 185 193 192 183 193 192 183 196 193 185 198 194 188 189 186 180 188 182 175 193 185 176 129 119 109 119 107 95  110 96  83  67  52  35  73  56  32  109 92  66  119 105 78  132 118 91  128 114 87  141 127 100 126 110 84  131 109 85  123 98  72  112 97  64  52  57  10  73  86  33  51  59  9   75  78  34  65  64  28  38  38  9   38  43  14  22  28  1   22  26  2   24  26  0   24  24  0   63  61  30  79  79  40  23  25  0   71  76  32  52  58  22  23  28  10  0   2   0   9   11  1   7   9   0   0   0   0   8   11  0   52  57  28  77  82  51  23  24  0   10  11  0   63  61  43  99  97  81  142 140 122 198 196 180 236 234 221 210 208 197 223 220 210 229 226 216 214 209 199 214 209 199 236 231 222 213 208 198 224 218 209 224 218 209 224 218 209 225 220 210 226 221 211 228 223 213 230 224 215 230 224 215 227 222 210 226 221 209 214 209 197 224 219 207 236 231 222 234 229 219 232 227 217 231 225 216 233 228 218 233 228 218 233 228 218 233 228 218 236 231 222 242 237 227 242 237 227 236 231 222 235 232 222 233 230 219 231 229 218 228 225 215 235 232 220 235 232 220 235 232 220 235 232 220 233 230 217 235 232 220 240 237 224 243 239 227 246 241 227 238 233 219 233 229 214 234 230 215 224 218 202 191 182 167 152 143 128 131 122 107 131 120 103 135 124 108 136 126 109 139 128 109 162 152 128 174 164 138 188 178 152 190 179 153 166 154 129 146 134 109 138 126 101 146 134 111 132 120 97  143 131 107 153 143 121 170 160 138 175 165 141 170 161 132 194 186 150 244 235 202 144 136 114 59  50  35  48  39  23  67  58  45  139 132 121 176 169 160 239 231 225 221 213 204 206 199 183 134 129 108 62  59  35  19  18  0   18  18  4   10  12  0   36  38  24  19  21  7   19  19  3   18  19  0   28  26  6   42  40  20  40  40  17  32  31  9   36  35  10  49  49  19  32  33  0   15  17  0   60  57  19  62  56  10  76  65  5   124 110 41  112 96  27  138 123 48  111 97  15  146 134 49  139 127 42  131 122 39  117 108 27  94  84  5   108 98  21  99  91  16  104 97  24  116 112 40  140 137 70  124 121 70  131 126 98  218 213 203 231 227 226 237 232 234 231 229 225 231 230 223 231 230 223 231 230 223 232 231 224 232 231 224 232 231 224 232 231 224 234 230 227 234 230 227 234 230 224 234 230 227 237 233 232 245 242 236 214 212 197 103 99  78  119 115 87  112 108 80  46  37  22  52  39  30  52  38  27  152 137 120 73  59  34  148 134 98  116 101 52  130 118 54  140 128 48  161 150 65  142 130 52  139 125 55  137 125 61  139 127 72  139 127 83  142 130 93  149 139 99  133 124 86  131 120 88  125 114 84  130 118 95  160 149 121 159 148 104 201 191 142 184 171 126 172 159 109 180 169 107 169 160 90  172 166 93  175 171 98  189 182 111 197 190 121 190 182 116 150 142 79  142 131 74  131 119 64  130 118 63  138 126 71  113 102 47  90  79  23  138 127 69  169 158 102 120 106 51  139 125 73  160 148 95  145 133 80  173 163 114 175 166 126 166 157 128 180 172 152 237 230 216 242 237 227 229 226 216 238 236 225 229 226 218 222 219 211 220 216 208 223 220 212 235 230 222 235 230 222 235 230 220 235 230 220 234 228 221 234 228 221 235 230 222 177 172 162 154 149 135 162 159 137 56  53  27  53  51  19  55  52  17  89  84  47  46  37  6   85  72  40  177 164 123 131 116 71  165 148 101 153 136 87  158 139 84  168 150 93  169 151 94  159 141 85  173 154 103 147 128 80  171 151 105 112 95  46  159 146 89  173 161 106 152 141 99  167 156 126 173 162 141 221 212 197 237 230 218 239 234 224 236 231 224 240 234 227 242 237 229 242 237 229 242 237 229 242 237 229 243 238 231 243 238 231 239 234 224 241 236 226 246 241 231 249 244 234 240 235 225 248 243 233 248 245 234 249 246 234 186 184 169 135 131 114 190 184 168 199 191 171 205 196 167 140 130 97  122 109 77  144 132 97  154 144 109 182 173 133 198 187 143 195 181 140 161 146 112 176 161 130 183 171 132 192 182 133 165 157 96  186 178 117 127 117 68  151 140 96  176 165 119 190 179 131 175 164 115 170 159 117 134 120 91  97  82  60  126 112 87  172 160 132 170 158 130 55  46  15  84  76  44  109 99  75  140 130 117 144 134 128 195 187 181 252 244 238 250 245 238 250 245 238 250 245 238 250 245 238 250 247 239 250 247 239 250 247 239 249 246 238 249 246 238 248 244 236 246 245 236 246 245 236 247 247 236 247 247 236 247 246 238 249 246 238 252 246 239 129 124 114 107 100 84  162 154 131 228 214 187 221 208 176 222 209 177 214 196 164 169 137 109 116 79  53  122 85  59  120 83  57  116 80  51  118 79  51  120 80  50  114 80  55  97  77  65  92  81  80  78  72  79  61  59  67  94  91  94  92  90  91  93  93  95  103 105 109 109 112 118 112 117 125 109 117 125 107 115 121 104 110 114 103 105 109 106 104 107 104 97  97  102 92  86  110 96  87  105 88  78  108 91  83  102 84  84  95  79  80  88  77  78  85  78  78  84  79  78  86  81  83  88  85  86  90  88  88  95  91  90  97  95  95  74  76  80  64  68  74  59  62  68  74  76  80  82  80  78  98  93  90  85  81  73  93  90  82  100 95  87  121 113 104 110 100 92  118 106 96  111 97  88  116 103 94  111 104 93  107 104 94  99  96  85  111 109 98  109 106 96  107 104 94  117 111 102 110 103 92  110 102 86  118 107 90  116 103 87  108 91  69  117 100 65  163 146 95  170 157 86  135 122 49  137 126 66  120 110 57  153 139 87  124 108 68  118 100 83  104 87  79  92  83  66  111 105 87  128 119 104 130 118 104 126 113 99  151 133 116 149 130 107 156 138 105 180 165 120 221 205 161 199 182 144 168 151 118 179 161 133 154 139 115 152 141 120 104 98  82  129 126 116 76  75  68  93  94  89  217 217 213 247 246 240 253 252 243 240 240 229 246 246 234 247 247 236 245 245 231 247 247 236 247 247 236 247 247 236 248 248 237 245 244 233 248 248 237 254 251 240 245 243 232 209 203 194 152 145 131 192 184 164 199 190 164 181 171 136 178 165 133 153 136 116 140 122 110 145 132 116 152 139 123 154 138 123 145 131 118 133 121 111 135 120 109 159 135 116 162 136 111 137 113 82  134 109 77  137 113 80  145 121 88  151 127 94  144 122 88  143 121 87  132 110 77  113 93  63  169 153 127 255 242 219 246 235 216 253 244 228 255 253 242 246 240 233 254 250 244 252 249 241 252 249 241 252 249 241 252 249 241 252 249 241 252 249 241 252 251 242 252 251 242 252 251 242 252 251 242 253 252 243 253 252 243 255 255 249 255 255 249 227 227 218 107 104 94  61  56  44  119 114 100 108 106 89  36  34  14  96  89  66  173 161 126 158 138 79  196 173 104 210 184 117 220 195 135 174 155 104 107 90  52  113 96  77  146 130 115 141 124 105 113 96  75  56  42  17  95  83  60  133 122 105 93  84  71  59  49  41  77  67  59  86  78  67  83  74  56  166 154 131 182 165 143 103 83  69  50  31  26  111 101 109 127 118 130 137 127 132 156 145 144 167 159 151 172 164 153 189 182 169 129 122 108 179 170 157 181 172 159 185 176 161 186 178 160 192 183 166 195 187 169 199 190 173 201 193 175 204 193 174 206 196 177 210 199 180 212 202 182 215 204 183 212 202 180 210 200 178 208 197 176 206 197 173 205 195 171 203 193 169 203 191 168 207 188 165 205 186 162 204 188 162 157 145 121 101 92  79  33  25  17  22  17  9   21  17  11  24  20  19  
211 197 172 160 148 127 114 105 88  135 131 116 227 227 216 229 231 223 224 224 220 220 219 213 222 219 211 222 219 211 222 219 211 222 219 211 222 219 211 222 219 211 222 219 211 221 218 210 228 225 217 219 216 205 226 222 214 219 215 207 221 217 212 216 213 205 214 211 203 206 203 195 208 205 197 213 210 202 220 216 208 221 218 210 220 216 208 217 214 206 216 213 205 217 214 206 220 216 208 221 218 210 221 218 210 221 216 208 227 222 214 226 222 214 223 220 212 222 219 211 217 214 206 220 216 208 222 219 211 222 219 211 223 220 212 226 222 214 220 216 208 226 222 214 224 221 215 223 220 214 223 220 212 219 215 207 219 215 207 220 215 207 220 215 207 227 222 214 224 221 213 223 220 212 222 221 212 223 222 213 224 223 214 224 223 214 223 222 213 229 225 220 233 229 223 231 225 218 224 216 208 140 130 119 128 117 105 117 103 90  66  51  33  85  69  45  97  81  54  100 86  59  111 97  70  114 100 73  133 117 91  113 94  68  119 98  73  124 101 75  92  77  44  20  26  0   68  79  27  57  63  14  61  64  20  57  58  21  38  41  8   24  30  0   31  38  10  28  32  8   24  25  2   19  19  0   51  50  18  85  85  46  42  42  1   35  36  0   35  38  8   27  29  15  12  16  6   23  25  13  20  22  8   8   10  0   16  19  0   27  31  3   72  77  46  9   10  0   0   0   0   31  29  16  72  69  57  116 114 97  157 155 138 189 187 174 236 233 223 222 219 209 203 201 190 232 227 217 231 225 216 212 207 197 228 223 213 224 218 209 224 218 209 224 218 209 225 220 210 226 221 211 227 222 212 228 223 213 228 223 213 225 220 208 225 220 208 214 209 197 226 221 209 236 231 222 234 229 219 232 227 217 231 225 216 233 228 218 233 228 218 233 228 218 233 228 218 239 234 224 243 238 229 243 238 229 239 234 224 234 231 220 233 230 219 231 229 218 228 225 215 235 232 220 235 232 220 235 232 220 235 232 220 238 236 223 237 235 222 235 232 220 234 231 218 238 233 219 234 230 215 236 232 218 243 239 225 240 234 220 239 233 217 228 221 205 214 205 190 181 173 157 150 139 125 135 124 110 136 126 109 135 125 106 136 126 105 148 138 116 163 153 131 178 168 147 174 162 141 173 160 140 172 159 138 158 146 122 146 134 113 146 135 118 152 141 124 145 134 115 139 129 105 189 180 149 237 228 199 159 151 131 53  44  29  142 133 120 110 101 88  160 153 142 209 202 190 245 238 227 254 247 236 247 241 227 181 176 162 33  32  14  16  16  0   20  22  8   3   7   0   11  16  3   9   14  0   30  30  14  30  30  12  37  35  18  51  50  30  39  38  18  22  21  0   19  18  0   31  31  4   57  56  20  43  43  2   38  34  0   76  69  19  89  78  20  102 90  26  117 103 34  124 110 37  110 98  17  132 120 37  109 100 16  116 107 23  130 120 39  104 95  14  93  83  4   102 94  17  86  80  5   107 102 31  142 140 70  114 112 56  117 113 80  214 210 195 220 213 213 235 230 232 230 228 224 230 229 222 230 229 222 230 229 222 231 230 223 231 230 223 231 230 223 231 230 223 234 230 227 235 231 228 235 231 226 234 230 227 237 233 232 248 244 238 215 213 198 98  95  73  109 104 76  115 110 82  39  31  15  50  39  27  50  35  24  155 139 122 73  59  34  153 138 102 120 105 55  132 120 56  124 112 31  154 143 58  143 131 53  140 126 56  145 133 69  156 145 90  142 131 89  150 138 101 157 147 107 137 127 87  136 126 88  136 125 94  139 127 104 173 162 134 166 156 109 185 176 122 193 180 132 187 174 124 176 165 109 152 145 81  123 117 44  164 160 84  159 153 80  166 160 89  157 150 82  139 131 65  128 118 58  137 126 68  167 156 98  196 185 127 124 113 55  139 128 68  156 145 88  146 135 77  148 133 81  156 141 89  141 129 78  162 150 101 156 145 101 163 152 117 166 156 132 211 202 184 240 233 222 240 235 225 228 225 215 237 234 224 233 229 221 226 222 214 223 220 212 226 222 214 234 228 221 235 230 222 234 229 219 235 230 220 240 235 225 242 237 227 227 222 212 147 142 132 168 163 149 117 113 92  41  39  8   69  66  29  82  80  37  81  77  35  50  42  10  106 93  63  141 127 87  172 157 110 139 122 73  150 134 80  143 124 69  148 130 73  169 151 96  194 175 122 203 184 134 133 113 68  144 127 83  147 130 81  149 136 76  180 169 111 154 143 99  125 115 82  168 158 134 187 179 161 229 222 208 227 222 210 236 231 222 240 234 227 242 237 229 242 237 229 242 237 229 242 237 229 243 238 231 243 238 231 235 230 220 240 235 225 247 242 232 252 246 237 243 238 229 245 239 230 245 243 232 255 252 241 216 214 201 146 141 127 172 165 149 250 242 222 223 213 189 160 149 121 141 127 98  141 128 96  149 138 103 172 160 121 179 165 122 197 183 142 175 160 126 182 167 135 180 169 129 164 154 105 193 185 124 134 126 65  146 136 82  168 157 108 142 132 81  171 162 108 196 186 130 187 178 124 157 146 102 146 132 93  146 132 93  162 150 111 143 131 94  148 136 99  154 145 107 102 91  63  133 123 110 136 126 120 199 190 184 254 246 240 250 245 238 250 245 238 250 245 238 250 245 238 250 247 239 250 247 239 250 247 239 249 246 238 249 246 238 248 244 236 246 245 236 246 245 236 247 247 236 247 247 236 247 246 238 249 246 238 248 242 235 131 125 116 110 104 87  164 156 136 206 193 170 179 167 139 178 166 138 183 167 139 156 126 99  123 88  61  130 95  68  112 78  51  116 80  51  115 79  50  116 78  48  114 80  55  96  75  64  89  78  77  75  70  76  58  57  64  99  97  100 97  95  95  95  95  97  104 106 108 109 113 116 112 118 122 110 118 125 109 115 122 105 109 114 103 105 109 106 104 107 104 97  97  102 92  86  110 96  87  105 88  78  109 92  85  102 84  84  95  79  80  88  77  78  87  77  78  85  78  78  86  81  81  88  85  86  92  87  86  108 102 100 110 103 103 83  82  85  71  72  76  68  70  74  86  86  88  97  90  90  113 107 102 105 100 90  111 105 96  112 107 95  131 122 109 133 122 107 145 132 116 146 130 113 156 141 123 133 122 105 130 122 104 122 114 96  135 126 111 133 124 108 124 116 100 133 124 108 131 120 101 122 108 85  130 113 89  144 125 102 159 137 105 163 141 94  192 172 103 184 168 73  185 169 72  153 137 56  135 116 48  184 162 101 183 161 113 155 132 108 148 131 112 98  89  62  98  91  63  140 132 109 130 119 100 121 107 91  145 127 110 158 139 118 159 141 111 178 162 121 212 196 153 199 182 146 170 152 121 163 148 119 151 137 112 136 126 107 126 119 106 129 126 118 70  69  63  139 139 135 249 250 245 248 247 241 251 250 241 240 240 229 245 244 233 247 247 234 248 248 235 247 247 236 247 247 236 246 246 234 248 248 237 246 246 234 245 244 233 255 253 243 246 241 229 176 169 156 166 155 138 194 183 162 217 205 180 196 185 155 173 159 134 134 119 101 158 142 129 154 141 125 159 148 131 160 147 131 154 141 127 138 126 116 142 127 116 169 145 126 174 146 119 164 138 104 161 135 96  164 139 100 173 147 108 168 142 103 149 124 85  141 116 76  140 116 78  145 121 88  165 142 113 234 215 189 244 230 210 253 242 225 255 255 242 243 238 229 254 250 242 252 249 241 252 249 241 252 249 241 252 249 241 252 249 241 252 249 241 254 250 242 252 251 242 252 251 242 252 251 242 253 252 243 253 252 243 251 248 240 252 249 241 255 255 250 159 156 146 50  45  33  98  93  79  123 121 106 64  62  44  48  39  21  151 138 106 158 137 83  196 170 103 211 185 117 203 179 119 155 135 90  113 95  64  112 95  76  134 118 103 159 141 122 158 141 117 143 131 103 159 149 123 171 163 143 85  76  61  51  41  31  91  81  71  102 95  81  81  72  57  193 180 161 213 198 180 159 138 129 79  61  60  111 101 109 125 119 130 137 127 130 154 146 142 166 158 149 172 164 153 189 182 169 129 122 108 179 170 157 181 172 159 185 176 161 186 178 160 191 182 165 194 186 168 198 189 172 200 192 174 203 192 173 205 195 175 209 198 179 211 200 181 213 203 182 211 201 179 209 199 177 208 197 176 206 197 173 205 195 171 203 193 169 202 190 167 202 183 160 200 181 156 199 184 155 152 140 117 100 91  78  32  24  16  23  18  11  29  25  20  21  16  15  
172 158 133 136 123 102 100 91  76  128 123 111 216 215 204 208 210 202 215 217 209 220 219 213 222 218 213 222 218 213 222 218 213 222 218 213 222 218 213 222 218 213 222 218 213 222 219 211 224 221 213 215 212 204 227 223 215 223 220 212 208 205 197 216 213 205 213 210 202 210 207 199 212 208 200 216 213 205 221 218 210 220 216 208 220 216 208 220 216 208 220 216 208 221 218 210 221 218 210 222 219 211 222 219 211 224 218 211 224 218 211 223 220 212 222 219 211 222 219 211 221 218 210 221 218 210 221 218 210 222 219 211 222 219 211 222 219 211 222 219 211 222 219 211 222 219 211 222 219 211 222 219 211 222 219 211 222 218 213 222 218 213 222 219 211 223 220 212 223 220 212 223 220 212 223 220 212 224 221 213 224 221 213 223 222 213 223 222 213 224 223 216 220 216 211 224 218 211 233 226 217 142 132 122 141 129 117 139 126 112 54  38  21  118 101 77  104 88  61  84  68  42  87  70  44  106 90  64  124 108 81  106 87  61  114 95  70  125 104 77  79  67  32  29  32  0   55  63  12  67  71  22  46  46  2   53  57  19  26  31  0   24  32  0   17  24  0   16  20  0   33  35  11  35  34  9   53  51  19  77  76  38  62  61  23  26  27  0   33  35  11  43  45  31  30  34  21  43  46  29  35  38  21  19  21  7   27  30  13  19  23  0   40  43  19  2   5   0   0   0   0   16  12  7   25  22  16  50  47  36  102 99  89  138 135 125 174 171 161 210 208 197 224 222 211 218 213 203 224 218 209 231 225 216 226 221 211 224 218 209 224 218 209 225 220 210 225 220 210 226 221 211 227 222 212 228 223 213 228 223 213 224 219 207 221 216 204 209 204 192 218 213 201 227 222 212 230 224 215 233 228 218 234 229 219 233 228 218 234 229 219 234 229 219 234 229 219 239 234 224 243 238 229 243 238 229 239 234 224 234 231 220 233 230 219 231 229 218 233 230 219 235 232 220 235 232 220 235 232 220 235 232 220 237 235 222 237 235 222 237 235 222 237 235 222 239 234 222 239 234 222 236 234 221 238 233 221 236 232 218 235 231 216 235 231 216 239 232 219 249 242 228 242 233 220 212 202 190 177 168 153 144 135 120 134 125 110 126 117 101 133 124 108 139 127 113 149 138 124 153 141 127 157 147 128 155 146 117 152 143 114 164 154 135 156 145 131 165 151 140 137 123 110 121 110 94  118 107 88  144 136 118 178 169 152 174 168 147 195 189 168 188 182 161 194 189 165 244 239 215 230 224 203 241 237 222 136 133 121 10  9   0   8   10  0   4   11  0   1   9   0   5   15  0   35  43  24  28  29  9   26  26  3   23  22  0   24  23  3   19  18  0   14  12  0   18  13  0   27  24  2   45  41  6   69  64  20  49  43  0   112 105 53  115 106 50  82  71  11  92  82  17  108 97  25  106 95  19  114 104 23  115 105 24  107 97  16  125 116 33  129 120 36  103 94  11  111 104 22  105 99  21  89  86  9   116 114 39  109 108 47  112 109 74  204 198 182 238 232 227 233 228 227 229 227 223 229 227 221 230 229 222 230 229 222 230 229 222 230 229 222 231 230 223 231 230 223 229 225 222 235 231 228 235 231 226 229 225 222 234 229 229 236 232 229 219 216 203 111 107 86  105 101 73  115 110 82  35  26  9   60  48  36  52  38  27  148 132 117 67  53  28  151 136 100 113 98  48  119 104 41  107 95  15  144 133 48  146 133 55  148 134 64  157 145 80  169 158 102 118 106 64  157 145 108 140 131 91  123 114 73  144 134 96  138 127 97  115 103 79  142 130 102 178 168 119 180 172 113 197 187 134 185 176 122 150 141 87  179 171 112 173 166 98  156 150 75  156 150 75  170 164 89  158 152 79  190 183 114 144 134 69  184 174 112 124 113 53  144 133 73  170 160 98  127 117 54  163 153 93  156 145 88  125 111 59  148 133 83  162 150 101 163 152 108 164 154 116 163 154 125 187 179 159 239 229 216 246 239 230 246 240 233 241 238 227 234 234 223 229 228 217 229 228 217 230 227 217 230 227 217 234 229 219 231 225 216 234 229 219 240 235 225 245 240 228 245 240 228 193 189 177 148 143 131 173 166 150 70  65  42  41  38  5   59  56  16  73  69  23  56  50  6   51  40  7   127 114 80  139 126 80  166 152 100 143 127 73  144 129 72  128 113 54  167 151 93  188 170 114 198 180 127 207 187 137 180 160 114 136 118 74  153 136 87  142 129 67  199 189 129 163 153 104 108 98  60  173 163 137 169 161 141 230 223 207 240 234 220 238 230 222 242 234 227 241 235 228 242 237 229 243 238 231 243 238 231 243 238 231 243 238 231 242 237 227 240 235 225 242 237 227 249 244 234 246 241 231 246 241 231 244 241 231 244 241 231 251 248 238 184 179 167 131 124 108 191 182 165 213 203 182 172 160 136 152 139 111 125 111 82  177 164 130 170 158 119 138 124 81  183 169 128 180 165 131 198 183 152 173 158 120 144 131 85  168 156 103 134 123 67  176 164 113 195 182 134 155 142 97  172 159 109 184 174 114 191 181 116 205 195 130 193 180 118 219 205 148 130 116 64  157 141 97  149 132 92  109 92  57  104 90  63  135 124 112 136 128 121 210 202 196 254 248 241 249 244 236 249 244 236 249 244 236 249 244 236 249 246 238 249 246 238 249 246 238 249 246 238 249 246 238 249 246 238 247 246 238 247 246 238 246 248 236 246 248 236 247 246 238 249 246 238 246 241 231 138 133 121 115 108 94  135 126 109 111 100 81  75  65  43  83  75  50  132 117 93  136 109 84  123 91  66  123 91  64  109 78  48  116 81  54  113 76  48  114 76  46  116 81  58  99  77  69  89  78  79  75  69  78  69  68  75  99  97  100 96  93  94  97  97  97  103 105 107 107 111 115 107 113 118 109 117 123 113 118 126 111 115 120 107 108 112 108 105 108 103 96  96  100 89  84  108 93  85  102 86  76  107 90  82  102 84  84  96  80  83  89  78  79  87  77  78  80  74  74  91  86  85  97  95  93  99  95  91  117 109 105 143 134 130 92  87  88  65  65  67  76  75  78  99  94  95  123 114 110 131 121 113 119 112 103 107 99  88  117 108 95  145 134 117 173 158 138 177 160 139 193 174 149 212 193 165 201 183 155 207 189 159 200 180 151 206 186 158 205 184 157 197 176 149 199 179 151 188 167 138 179 160 128 197 177 143 221 198 167 215 192 152 204 179 124 174 153 76  151 134 30  152 135 29  150 129 45  150 127 57  208 184 121 220 193 145 216 192 157 175 155 125 92  79  45  128 121 82  174 169 132 146 137 106 130 118 93  139 122 102 150 130 112 160 141 120 175 157 129 201 183 153 187 169 139 166 148 118 155 139 111 154 143 117 138 130 110 142 138 123 96  93  85  98  97  91  210 208 204 246 244 240 251 250 243 247 246 238 248 248 237 248 248 237 248 248 235 248 248 235 247 247 234 252 252 238 246 246 234 248 248 237 247 247 236 245 244 233 255 255 247 225 220 208 170 159 143 175 160 140 189 174 150 201 190 162 210 198 175 167 155 134 132 121 104 161 150 135 160 148 134 157 146 132 156 142 126 153 139 126 141 131 121 140 126 115 168 144 125 178 151 122 146 120 83  153 126 85  161 134 93  167 140 99  171 143 102 158 130 90  153 126 85  153 125 87  165 136 103 167 140 110 205 182 156 255 237 214 255 249 230 255 252 237 249 246 234 252 249 239 251 248 240 253 247 240 253 247 240 253 247 240 254 248 241 254 248 241 252 249 241 252 249 241 255 254 246 245 242 234 255 255 250 250 247 239 251 248 240 248 244 236 254 250 242 221 218 208 85  80  68  60  55  41  130 128 113 116 114 99  37  28  13  109 95  70  207 185 138 211 184 123 222 194 126 193 169 106 145 124 83  108 89  64  106 91  73  136 121 103 212 195 174 218 202 176 239 228 198 254 245 216 247 239 216 105 99  81  46  37  24  85  76  63  93  84  69  81  72  57  220 210 200 255 245 240 239 226 223 117 106 107 101 97  107 122 123 131 135 135 133 145 142 134 163 158 146 173 166 152 178 171 157 141 135 121 184 174 162 188 179 166 181 173 157 186 177 162 191 182 167 194 185 170 198 189 172 200 192 174 203 192 173 205 195 175 209 198 179 211 200 181 213 203 182 211 201 179 209 199 177 206 196 175 206 197 173 205 195 171 203 193 169 202 190 167 206 187 164 203 185 159 203 187 158 156 143 120 103 94  81  52  44  37  20  14  7   19  16  10  24  20  19  
180 167 139 156 143 124 117 109 93  131 126 114 219 218 210 217 218 208 229 231 223 220 219 213 222 218 213 222 218 213 222 218 213 221 217 212 221 217 212 221 217 212 221 217 212 224 221 213 222 219 211 217 214 206 226 222 214 228 225 217 219 215 207 221 218 210 220 216 208 210 207 199 212 208 200 216 213 205 221 218 210 220 216 208 220 216 208 219 215 207 219 215 207 217 214 206 217 214 206 217 214 206 217 214 206 219 213 206 219 213 206 220 216 208 220 216 208 220 216 208 220 216 208 221 218 210 221 218 210 222 219 211 222 219 211 222 219 211 222 219 211 222 219 209 222 219 209 222 219 209 222 219 211 222 218 213 222 218 213 222 218 213 222 218 213 223 220 212 223 220 212 223 220 212 223 220 212 224 221 213 224 221 213 223 222 213 223 222 213 230 229 222 224 223 216 221 218 210 223 217 208 130 123 111 121 112 99  134 123 108 60  47  29  108 94  69  108 91  65  84  68  42  88  72  45  98  82  56  110 94  67  107 88  63  125 107 81  124 108 79  78  67  32  62  62  17  61  67  17  63  64  16  33  33  0   56  60  22  25  33  0   35  45  14  10  17  0   12  16  0   52  52  27  39  36  10  26  24  0   40  39  1   61  60  24  39  39  12  30  31  10  31  34  19  21  25  10  27  30  11  28  31  10  20  23  6   28  31  14  50  54  32  24  28  6   22  25  8   23  22  11  14  10  2   17  14  8   11  8   0   93  90  82  123 120 110 128 125 114 160 158 147 204 199 189 220 215 205 223 217 208 225 220 210 226 221 211 224 218 209 224 218 209 225 220 210 225 220 210 226 221 211 226 221 211 227 222 212 227 222 212 224 219 207 221 216 204 209 204 192 218 213 201 227 222 212 230 224 215 233 228 218 234 229 219 233 228 218 234 229 219 234 229 219 234 229 219 236 231 222 241 236 226 241 236 226 236 231 222 233 230 219 233 230 219 231 229 218 233 230 219 235 232 220 235 232 220 235 232 220 235 232 220 233 230 217 233 230 217 233 230 217 233 230 217 233 228 216 235 230 218 238 236 223 241 238 225 236 234 219 245 240 226 245 240 226 238 233 219 232 227 213 239 232 219 249 242 228 240 234 220 240 233 222 197 190 179 151 143 132 129 121 110 122 112 102 130 117 108 154 142 132 170 159 145 174 164 140 164 155 129 164 154 135 147 136 121 165 151 140 154 140 131 147 135 125 120 108 96  92  83  68  134 125 108 210 204 186 249 243 222 233 228 205 194 189 163 192 187 159 242 240 213 206 204 186 56  56  43  28  30  18  35  39  24  41  49  26  34  45  18  17  30  5   24  35  11  27  28  7   25  24  4   25  24  4   30  29  7   38  37  15  40  37  13  46  43  19  53  48  20  48  42  5   65  59  14  83  76  24  130 123 68  130 120 69  88  79  23  79  71  8   95  86  16  105 97  22  115 105 28  132 122 44  99  89  8   107 97  16  130 121 37  110 101 16  116 109 23  111 106 23  80  75  0   114 110 36  125 121 61  119 113 78  203 197 179 234 229 219 233 227 222 229 225 220 227 226 220 229 227 221 229 227 221 229 227 221 229 227 221 230 229 222 230 228 224 231 227 226 234 230 227 234 230 224 231 227 224 229 225 224 233 229 225 222 220 207 123 122 100 106 104 75  112 108 80  35  26  9   55  43  31  55  41  30  147 131 116 75  58  34  146 129 94  103 85  37  111 96  33  113 101 21  134 123 38  149 137 59  143 130 59  144 132 68  151 139 84  142 131 87  163 151 114 132 123 83  116 106 68  140 130 97  143 132 101 128 115 92  142 131 100 187 177 128 175 166 107 170 162 101 194 186 127 151 142 88  161 152 95  177 169 104 178 172 99  156 150 73  164 159 81  171 165 90  163 156 86  159 149 82  175 165 100 167 157 94  169 159 94  135 126 61  97  87  22  134 124 61  158 146 89  150 136 83  129 114 67  131 117 74  155 143 104 167 156 126 163 154 129 197 188 172 235 227 216 227 222 214 231 225 218 235 232 222 233 233 220 229 228 217 229 228 217 230 227 217 230 227 217 233 228 218 231 225 216 233 228 218 240 235 225 247 242 230 239 234 222 170 166 151 173 166 150 144 136 116 64  57  32  49  46  13  52  47  8   45  38  0   55  49  3   60  51  11  163 152 110 170 158 110 129 115 63  169 153 99  133 117 59  137 122 61  193 178 117 200 185 126 171 152 99  190 171 121 211 194 145 161 143 97  157 143 90  147 137 72  198 190 125 138 131 78  139 130 90  173 164 135 164 154 133 195 187 169 246 239 226 237 229 220 242 234 227 241 235 228 242 237 229 243 238 231 243 238 231 243 238 231 243 238 231 242 237 227 240 235 225 242 237 227 249 244 234 246 241 231 246 241 231 244 241 231 244 241 231 250 247 239 213 210 199 135 131 114 134 128 110 195 187 169 134 124 104 129 117 91  148 134 105 197 184 150 184 172 133 138 124 81  161 147 106 163 148 115 213 198 165 152 138 99  97  84  38  128 117 64  190 179 123 177 166 111 184 173 118 186 173 123 199 188 133 172 162 95  198 187 111 210 200 124 175 165 89  171 159 90  186 171 110 177 161 107 171 154 107 104 85  44  149 131 100 136 125 111 132 124 118 211 205 198 253 247 240 249 244 236 249 244 236 249 244 236 249 244 236 249 246 238 249 246 238 249 246 238 249 246 238 249 246 238 249 246 238 247 246 238 247 246 238 246 248 236 246 248 236 247 246 238 249 246 238 245 239 230 157 149 138 134 125 110 117 109 91  52  44  26  35  26  9   46  40  19  95  83  60  107 81  58  114 84  57  123 93  65  121 91  60  116 84  57  114 77  51  115 77  49  118 83  61  100 78  70  89  78  79  77  71  79  69  67  77  95  92  95  91  89  88  93  93  93  99  101 102 106 110 113 107 113 118 108 116 122 112 117 125 112 116 121 108 109 113 109 106 109 104 97  97  99  88  83  107 92  83  101 85  74  106 89  81  102 84  84  96  80  83  89  78  79  87  77  78  89  82  82  96  92  91  101 99  97  100 96  93  119 108 103 144 134 128 92  88  84  67  64  65  75  73  73  98  91  89  122 112 106 131 118 111 120 110 100 114 105 92  130 119 102 156 143 122 195 178 154 202 184 156 216 196 164 229 207 171 222 198 163 228 204 169 221 195 161 227 201 167 223 196 162 216 192 157 216 192 157 196 175 137 178 156 118 211 191 150 226 206 165 191 169 122 196 174 113 181 159 83  164 145 49  140 122 26  147 129 55  105 88  28  195 172 118 214 190 144 218 194 154 183 164 125 161 148 104 192 183 140 147 140 99  138 130 94  135 123 95  141 126 104 158 140 123 160 141 122 172 153 130 199 180 155 191 172 144 159 143 114 164 150 123 143 131 105 145 137 117 128 124 107 98  95  84  140 139 133 247 246 242 233 232 228 248 247 241 247 246 238 248 248 237 248 248 237 248 248 235 248 248 235 247 247 234 252 252 238 245 244 233 248 248 237 246 246 234 245 244 233 247 247 236 198 194 179 150 137 118 191 175 151 192 178 151 170 156 131 195 182 164 134 123 106 142 133 118 154 145 129 155 146 131 154 143 128 152 138 125 148 137 122 137 128 117 135 124 112 163 141 121 175 148 118 196 168 132 197 167 127 196 166 126 193 165 124 179 151 110 167 140 99  150 122 81  151 121 83  154 121 89  170 136 107 185 158 131 238 217 192 255 240 220 253 244 228 251 249 234 251 249 236 253 248 238 253 247 240 253 247 240 253 247 240 254 248 241 254 248 241 252 249 241 252 249 241 255 253 245 249 246 238 255 255 247 251 248 240 252 249 241 255 253 245 248 244 236 255 253 243 136 131 119 45  43  28  109 109 95  135 132 119 65  55  45  64  49  29  209 187 144 210 182 125 227 202 131 188 164 102 117 97  61  91  74  53  102 89  71  161 146 126 223 206 182 199 184 155 158 147 114 167 158 127 169 161 136 60  54  35  59  50  35  103 95  79  102 94  76  74  66  48  155 149 133 174 165 152 174 161 154 111 102 101 98  97  102 114 115 121 132 132 128 156 156 145 164 159 147 174 167 154 180 173 159 144 137 123 184 174 162 188 179 166 181 173 157 186 177 162 190 181 166 193 184 169 197 188 170 199 190 173 202 191 172 204 193 174 208 197 178 210 199 180 212 202 180 210 200 178 208 197 176 206 196 175 206 197 173 205 195 171 203 193 169 202 190 167 210 191 168 208 189 164 208 192 163 160 148 125 114 105 92  80  72  65  19  13  6   19  16  10  23  19  18  
176 162 135 145 132 114 84  74  62  105 100 90  209 208 199 213 215 205 218 219 210 220 219 213 222 218 213 222 218 213 222 218 213 221 217 212 221 217 212 221 217 212 221 217 212 226 222 214 217 214 206 221 218 210 224 221 213 219 215 207 220 216 208 214 211 203 212 208 200 212 208 200 212 208 200 216 213 205 221 218 210 220 216 208 220 216 208 221 218 210 221 218 210 222 219 211 222 219 211 224 221 213 224 221 213 224 221 213 224 221 213 226 222 214 226 222 214 221 218 210 221 218 210 221 218 210 221 218 210 222 219 211 222 219 211 222 219 209 222 219 209 222 219 209 222 219 209 222 219 209 222 219 211 222 218 213 222 218 213 222 218 213 222 218 213 223 220 214 223 220 214 223 220 212 223 220 212 224 221 213 224 221 213 223 222 213 223 222 213 216 215 208 222 220 214 228 225 217 230 224 215 130 123 111 103 94  81  130 118 104 65  52  33  90  75  51  103 87  60  77  58  32  81  63  37  92  73  47  106 87  61  114 95  70  119 103 77  118 104 75  53  45  9   56  57  11  73  76  27  89  88  40  43  43  0   54  57  22  44  51  19  26  35  7   17  23  0   37  42  13  63  63  33  51  50  16  34  33  0   35  34  0   66  64  35  39  38  16  13  14  0   12  14  0   11  16  1   21  25  1   35  39  15  35  38  21  43  46  29  62  65  44  33  37  12  24  29  2   23  24  1   35  33  15  24  22  7   38  35  27  122 119 111 162 157 147 120 115 105 121 116 106 163 158 148 179 171 162 208 200 191 230 222 213 222 214 205 225 220 210 225 220 210 226 221 211 226 221 211 226 221 211 226 221 211 227 222 212 227 222 212 224 219 207 221 216 204 209 204 192 218 213 201 227 222 212 230 224 215 233 228 218 234 229 219 234 229 219 234 229 219 234 229 219 234 229 219 234 229 219 239 234 224 239 234 224 234 229 219 233 230 217 233 230 217 233 230 217 233 230 217 236 234 221 236 234 221 236 234 221 236 234 221 240 237 224 240 237 224 240 237 224 240 237 224 241 238 225 238 236 223 235 232 220 231 229 216 236 234 221 229 227 214 229 227 214 236 234 221 243 241 228 240 235 223 236 232 220 230 225 213 241 236 226 245 239 230 240 235 225 208 200 191 157 149 140 120 110 102 109 99  93  131 121 113 151 141 131 152 143 128 155 146 129 131 120 103 149 138 124 152 140 128 161 149 139 143 133 125 100 90  82  63  53  43  140 133 122 218 211 198 249 242 224 215 209 186 221 219 192 149 146 122 159 158 138 23  23  7   28  30  16  21  26  6   34  44  11  46  59  23  38  53  18  39  51  24  20  20  7   18  12  3   25  20  6   36  33  11  54  52  21  63  62  24  73  71  28  78  74  30  79  75  31  82  76  28  90  84  27  111 105 48  110 102 53  78  70  18  86  80  18  77  69  4   84  75  5   88  79  7   111 103 28  94  86  9   110 102 23  130 123 39  126 120 31  135 130 38  109 106 16  98  93  10  115 111 37  124 119 64  127 121 89  202 196 177 228 224 209 232 227 217 229 226 218 227 226 220 229 227 221 229 227 221 229 227 221 229 227 221 230 229 222 231 229 225 233 228 227 231 227 224 231 228 222 234 230 224 230 226 225 230 227 221 223 221 208 131 130 108 114 112 81  114 109 79  41  32  12  53  41  27  58  44  30  141 125 108 82  66  39  134 117 79  96  78  30  106 91  28  131 118 38  128 117 32  150 138 60  142 129 58  139 127 63  142 131 74  140 129 83  148 136 97  117 107 72  114 103 72  123 112 84  133 122 96  131 120 92  129 119 83  149 138 92  177 168 110 178 171 103 171 164 96  177 168 110 168 159 102 151 143 80  150 143 73  156 150 73  165 160 80  184 178 103 155 148 75  170 161 93  132 122 57  163 153 89  155 145 80  126 117 47  99  90  22  120 110 47  155 144 86  152 140 87  117 104 56  120 107 64  158 146 111 161 152 125 169 161 141 222 213 200 236 228 219 226 220 213 225 219 212 230 227 217 232 232 218 229 228 217 229 228 217 230 227 217 230 227 217 233 228 218 231 225 216 233 228 218 240 235 225 245 239 230 212 207 195 157 153 136 181 176 152 92  85  58  77  70  40  45  41  10  43  37  3   54  46  8   49  43  0   104 97  45  155 145 92  154 141 93  149 134 84  136 122 67  145 132 73  162 149 85  179 167 102 181 168 109 179 163 109 171 155 103 151 136 87  143 128 81  187 173 121 146 136 71  186 179 113 117 110 56  161 152 110 161 152 121 162 152 128 171 163 143 234 225 210 237 229 220 242 234 227 241 235 228 242 237 229 243 238 231 243 238 231 242 239 231 242 239 231 243 238 229 240 235 225 243 238 229 249 244 234 246 241 231 246 241 231 244 241 231 244 241 233 240 236 230 237 234 226 161 156 142 140 134 116 220 211 196 188 177 160 137 125 102 128 115 85  182 169 137 222 207 171 203 190 146 173 159 116 167 152 116 180 165 131 124 110 71  112 99  53  191 180 123 203 193 128 155 143 76  160 148 84  138 125 66  174 162 98  215 205 124 211 200 113 212 200 118 185 173 95  185 172 97  186 169 102 173 156 93  150 132 74  194 175 122 187 171 131 139 128 111 127 119 113 216 210 203 252 246 239 249 244 236 249 244 236 248 244 236 248 244 236 249 246 238 249 246 238 249 246 238 249 246 238 249 246 238 249 246 238 247 246 238 247 246 238 246 248 236 246 248 236 247 246 238 249 246 238 241 236 226 169 162 151 155 146 131 110 102 84  50  41  28  46  39  25  45  39  20  83  71  50  96  73  49  118 90  63  121 95  63  123 94  63  120 88  60  117 81  54  119 80  52  121 86  64  100 78  70  89  78  79  77  71  79  69  67  77  89  86  89  87  85  83  87  87  87  93  95  96  98  102 105 98  104 109 100 108 114 104 109 116 106 110 116 105 104 109 103 100 103 99  92  92  96  86  80  104 90  81  99  82  72  104 87  79  102 84  84  96  80  83  91  77  79  87  77  78  100 93  93  106 101 100 105 104 100 104 98  93  120 107 103 146 133 128 93  87  84  67  65  63  73  69  68  96  90  85  120 108 101 130 115 107 124 112 102 123 111 97  135 122 103 150 136 111 189 171 143 200 181 146 209 190 151 212 192 151 214 191 153 220 196 159 212 188 151 218 194 156 218 194 156 216 193 155 211 190 152 183 165 123 177 159 115 201 186 139 193 178 129 184 168 114 188 170 110 159 141 74  157 137 64  166 149 82  116 105 61  75  65  30  179 162 125 195 174 133 185 165 119 205 188 139 193 180 132 154 146 101 131 123 85  140 132 98  146 134 109 143 128 108 154 139 119 152 135 113 168 152 125 205 190 161 191 176 145 165 149 120 165 152 124 134 125 98  141 136 113 117 112 96  120 117 106 184 183 177 248 247 243 231 229 225 247 246 240 246 245 236 248 248 237 248 248 235 248 248 235 248 248 235 247 248 232 252 252 238 245 245 231 250 250 236 245 244 233 244 243 232 231 231 219 160 155 141 169 154 134 212 193 167 197 181 153 173 159 134 161 148 134 123 111 99  141 135 119 145 138 122 148 138 126 147 135 123 143 132 120 141 129 117 129 121 110 128 117 105 156 134 114 168 140 113 171 140 107 169 136 100 165 132 95  159 129 92  166 136 99  159 129 92  134 104 66  141 108 74  143 105 73  160 124 93  175 146 117 215 192 165 240 225 205 244 236 218 255 253 237 250 248 235 253 248 238 253 247 240 253 247 240 253 247 240 254 248 241 254 248 241 252 249 241 254 250 242 254 250 242 252 249 241 255 251 243 254 250 242 247 243 235 255 253 245 251 248 240 255 252 241 198 195 182 71  68  55  76  76  64  137 134 126 116 108 101 47  31  16  145 121 86  208 181 126 232 207 135 183 162 96  88  71  38  92  77  59  107 94  75  150 138 114 175 157 131 137 119 89  117 107 72  167 159 125 177 169 145 65  59  38  57  48  33  88  79  64  91  85  67  84  76  51  127 119 85  125 115 82  130 117 89  122 108 92  111 107 106 120 118 121 131 127 124 149 143 136 168 161 150 176 169 156 183 176 163 147 140 127 184 174 162 188 179 166 181 173 157 186 177 162 190 181 166 193 184 169 197 188 170 199 190 173 202 191 172 204 193 174 208 197 178 210 199 180 212 202 180 210 200 178 208 197 176 206 196 175 206 197 173 205 195 171 203 193 169 202 190 167 203 184 161 203 182 157 201 185 156 153 141 118 112 102 90  108 100 93  14  8   3   22  18  15  23  19  18  
200 187 155 146 136 114 60  51  36  89  83  74  215 212 204 222 224 214 212 213 204 220 219 213 222 218 213 222 218 213 222 218 213 221 217 212 221 217 212 221 217 212 221 217 212 227 223 215 215 212 204 224 221 213 223 220 212 220 216 208 231 228 220 219 215 207 217 214 206 212 208 200 212 208 200 216 213 205 221 218 210 220 216 208 220 216 208 220 216 208 220 216 208 219 215 207 219 215 207 220 216 208 220 216 208 220 216 208 220 216 208 221 218 210 221 218 210 221 218 210 221 218 210 221 218 210 221 218 210 222 219 211 222 219 211 222 219 209 222 219 209 222 219 209 222 219 209 222 219 209 222 219 211 222 219 211 222 218 213 222 218 213 222 218 213 223 220 214 223 220 214 223 220 212 223 220 212 224 221 213 224 221 213 223 222 213 223 222 213 222 220 214 227 226 220 228 225 217 220 215 205 134 127 116 93  84  69  120 109 92  58  45  26  71  54  33  95  77  51  64  45  19  71  52  26  87  68  43  109 92  66  119 103 77  103 87  58  112 99  65  71  64  23  70  69  24  87  88  40  80  78  31  73  71  28  46  49  16  21  25  1   12  18  0   46  52  28  65  70  39  49  50  15  40  38  5   48  46  15  39  36  8   50  50  22  49  47  27  17  17  1   19  21  5   33  36  16  36  40  16  42  46  22  22  25  6   12  15  0   40  43  21  69  73  49  44  49  20  51  53  25  85  84  59  21  19  0   33  31  18  57  54  41  207 203 186 178 175 155 136 133 113 105 101 84  131 124 110 144 136 125 176 169 158 215 208 196 225 220 208 225 220 210 226 221 211 226 221 211 226 221 211 226 221 211 227 222 212 227 222 210 224 219 207 221 216 204 209 204 192 218 213 203 227 222 212 230 224 217 233 227 220 234 228 221 234 229 219 233 228 218 234 229 219 234 229 219 232 227 217 236 231 222 236 231 222 232 227 217 233 230 217 233 230 217 233 230 217 233 230 217 236 234 221 236 234 221 236 234 221 236 234 221 235 232 220 235 232 220 235 232 220 235 232 220 235 232 220 235 232 220 237 235 222 238 236 223 234 234 221 238 238 224 238 238 224 234 234 221 240 237 224 231 229 216 231 229 216 237 235 222 235 232 222 233 229 221 243 238 231 243 238 229 231 223 215 196 188 180 141 133 127 113 102 97  120 110 102 143 133 123 164 155 140 147 138 120 127 118 101 98  89  74  86  76  66  79  69  61  76  65  57  87  77  71  45  37  28  125 118 107 217 210 197 125 119 103 65  62  42  50  46  27  28  26  10  24  24  10  6   8   0   12  18  0   17  27  0   42  55  18  40  55  20  38  49  23  21  21  10  11  5   0   11  6   0   26  23  0   46  44  10  62  60  18  74  73  23  76  72  23  72  66  21  78  72  24  66  59  4   82  75  21  64  55  8   57  49  0   118 112 53  96  91  27  88  81  13  85  76  6   92  84  11  116 107 33  111 103 26  109 101 22  127 121 36  120 114 27  127 123 33  119 114 29  101 96  25  117 112 59  133 126 98  201 194 178 225 220 206 232 227 217 229 226 218 227 226 220 229 227 221 229 227 221 229 227 221 229 227 221 230 229 222 230 228 224 236 232 231 230 226 223 230 227 221 236 232 227 240 236 232 233 229 223 222 220 207 132 132 109 126 124 93  119 115 85  50  42  22  56  45  30  59  45  32  136 123 104 87  70  44  125 109 71  97  80  31  110 95  31  148 136 56  131 119 34  149 137 59  143 131 62  144 133 71  151 139 84  157 146 100 164 152 113 146 136 103 161 150 122 145 133 108 161 150 122 168 158 125 154 145 103 198 188 139 175 166 107 177 170 100 170 163 93  170 162 99  196 187 126 164 156 93  180 173 105 170 164 89  176 170 92  176 170 94  165 159 86  159 150 80  132 122 55  158 148 83  148 139 71  147 138 68  132 123 53  127 117 54  148 137 81  132 120 67  121 109 61  138 124 83  171 158 126 159 148 127 193 184 169 249 241 230 239 232 223 240 234 227 230 227 219 227 224 213 230 230 216 229 228 217 229 228 217 230 227 217 230 227 217 233 228 218 231 225 216 233 228 218 240 235 225 239 232 223 181 174 161 164 158 137 172 167 141 59  53  23  83  76  44  45  39  7   30  24  0   35  27  0   54  48  2   118 112 53  115 107 46  120 108 58  147 134 86  130 116 62  158 145 86  145 133 69  157 145 80  192 179 119 184 170 113 185 170 118 149 134 84  157 142 92  124 112 59  133 124 63  170 162 99  110 103 47  161 154 104 145 136 96  164 156 125 177 167 143 208 200 182 239 228 220 242 234 227 243 235 228 240 234 227 243 238 231 243 238 231 242 239 231 242 239 231 243 238 229 240 235 225 243 238 229 249 244 234 246 241 231 246 241 231 244 241 231 244 241 233 240 236 232 255 255 249 195 190 176 133 127 111 157 148 133 228 218 201 164 151 130 114 100 75  118 102 75  191 176 143 215 201 160 184 171 128 168 154 115 133 119 80  92  79  34  193 181 126 176 167 97  172 164 87  182 172 94  201 191 113 195 185 109 194 185 104 221 211 121 212 202 110 218 206 124 177 165 87  155 140 68  164 148 78  171 155 85  164 147 80  170 151 86  178 161 114 140 129 110 124 116 112 221 213 206 249 244 236 249 244 236 249 244 236 248 244 236 248 244 236 249 246 238 249 246 238 249 246 238 249 246 238 249 246 238 249 246 238 247 246 238 247 246 238 247 247 236 247 246 238 247 246 240 249 245 240 236 231 224 172 164 153 168 159 141 119 108 91  29  19  9   45  38  26  46  40  21  86  73  52  111 88  64  134 107 80  123 93  65  115 85  57  122 90  64  118 83  59  120 83  57  122 89  70  100 78  70  89  78  77  77  71  77  69  68  75  85  83  84  80  81  78  84  84  84  89  92  91  86  91  92  89  93  96  90  96  98  92  98  103 97  101 104 93  95  96  94  91  92  87  83  82  93  82  79  99  87  80  94  79  71  100 83  77  102 84  86  98  79  83  91  77  79  88  77  76  110 99  98  115 106 104 112 106 101 105 99  92  119 108 103 143 134 130 92  87  86  67  65  63  69  67  66  93  87  82  116 107 96  126 114 102 124 115 102 121 112 97  125 113 92  130 116 91  181 163 133 195 175 139 202 182 136 200 178 131 201 181 137 207 186 145 198 177 139 206 182 145 215 192 154 216 195 156 207 189 149 174 155 116 162 146 103 207 191 147 163 148 100 173 159 107 190 173 113 213 194 130 198 179 112 157 141 85  118 110 76  62  55  27  160 145 111 209 191 147 185 166 111 177 162 101 137 126 66  135 127 75  134 127 88  154 145 114 158 146 118 142 130 104 140 128 105 140 125 101 165 152 122 218 203 169 189 174 142 177 164 132 157 146 115 132 122 96  138 133 109 113 111 93  144 143 132 223 222 215 240 239 233 246 245 238 247 246 238 243 242 231 248 248 237 248 248 235 248 248 235 248 248 235 247 248 232 252 252 236 244 244 230 250 249 238 245 242 234 245 242 234 222 219 209 134 128 112 196 181 159 201 185 156 175 161 132 188 176 153 131 119 109 142 132 124 127 123 108 138 133 119 141 134 123 141 131 121 137 128 117 135 125 115 122 117 108 122 113 100 150 131 108 163 136 107 155 124 89  155 122 86  154 121 85  154 121 85  145 115 78  148 117 82  122 93  57  137 107 71  131 96  62  151 115 84  185 156 124 186 163 134 219 204 182 242 233 216 249 247 230 250 248 235 253 248 238 253 247 240 253 247 240 253 247 240 254 248 241 254 248 241 252 249 241 252 249 241 252 249 241 255 251 243 252 249 241 252 249 241 237 234 226 250 247 239 255 255 249 242 239 229 242 239 227 130 128 115 47  44  36  124 121 113 133 125 119 46  32  19  87  64  35  203 179 130 210 189 121 180 163 100 83  68  36  105 92  76  103 93  71  121 108 85  131 113 85  121 103 71  215 200 164 247 234 200 210 201 172 70  62  40  70  61  46  106 96  84  101 95  76  76  69  41  146 137 97  182 168 127 179 162 127 136 122 99  100 94  89  124 121 122 141 135 130 152 144 135 171 163 152 179 172 158 185 178 164 148 142 128 182 175 162 188 179 166 181 173 157 186 177 162 190 181 166 195 183 169 198 187 170 201 190 173 202 191 172 204 193 174 208 197 178 210 199 180 212 202 180 210 200 178 208 197 176 206 196 175 206 197 173 205 195 171 203 193 169 202 190 165 209 191 165 207 189 161 205 191 162 159 147 124 98  88  76  118 112 105 7   3   0   25  21  18  24  20  19  
245 237 199 170 161 134 69  60  42  112 107 95  214 211 203 219 215 209 224 223 216 221 217 212 221 217 212 221 217 212 221 217 212 221 217 212 221 217 212 221 217 212 221 217 212 222 219 211 222 219 211 222 219 211 222 219 211 222 219 211 221 218 210 219 215 207 216 213 205 212 208 200 213 210 202 216 213 205 220 216 208 220 216 208 220 216 208 220 216 208 220 216 208 220 216 208 220 216 208 220 216 208 220 216 208 221 218 210 221 218 210 221 218 210 221 218 210 221 218 210 221 218 210 221 218 210 221 218 210 222 219 211 222 219 211 222 219 211 222 219 211 221 218 208 221 218 208 222 219 211 222 219 211 222 219 211 222 219 211 223 220 214 223 220 214 224 221 213 224 221 213 224 221 213 224 221 213 224 221 213 224 221 213 223 222 213 223 222 213 218 219 212 226 225 219 228 225 217 223 217 208 131 124 112 124 116 100 133 122 105 57  44  25  74  57  35  96  77  54  61  42  19  73  54  31  104 87  63  87  73  48  114 100 75  146 132 100 166 157 112 111 105 55  60  57  10  56  55  8   94  93  43  53  51  8   17  17  0   13  14  0   11  11  0   44  48  26  46  49  16  52  53  19  25  22  0   47  44  20  84  83  58  31  31  6   43  42  19  12  13  0   14  16  0   23  24  3   28  30  7   33  35  11  26  29  7   21  24  3   34  35  14  55  57  33  31  32  9   33  33  8   33  33  10  23  22  0   28  24  5   46  43  19  135 133 102 207 206 170 218 215 178 174 170 137 107 101 78  124 118 99  141 135 119 143 136 120 171 164 150 216 209 197 241 236 224 218 213 201 227 222 210 220 215 203 223 218 206 231 226 214 228 223 211 220 215 203 210 204 195 210 204 195 230 224 217 231 225 220 232 226 221 233 227 222 233 228 218 233 228 216 231 226 214 230 225 213 238 232 223 239 234 224 241 236 226 242 237 227 234 231 218 234 231 218 234 231 218 234 231 218 235 232 220 235 232 220 235 232 220 235 232 220 235 232 220 235 232 220 235 232 220 235 232 220 236 234 221 236 234 221 236 234 221 236 234 221 236 236 222 236 236 222 236 236 222 236 236 222 236 234 221 236 234 221 236 234 221 236 234 221 236 234 221 240 237 226 236 233 223 228 223 211 240 235 223 241 236 224 214 209 197 159 152 140 104 97  86  123 116 102 151 144 130 153 147 131 109 103 84  53  44  29  57  48  35  83  73  62  66  58  49  76  69  60  49  42  33  29  21  12  102 94  85  180 172 163 33  26  15  13  8   0   6   2   0   6   5   0   0   2   0   21  26  6   24  32  7   16  28  0   8   20  0   29  37  18  30  28  13  18  12  0   13  8   0   23  18  0   38  34  1   61  58  20  88  85  45  84  79  37  56  50  6   71  65  19  95  88  45  48  41  0   78  72  28  83  77  29  103 98  41  103 98  33  132 127 61  116 110 39  91  84  13  78  72  0   84  75  3   77  69  0   92  84  11  120 112 35  137 133 48  100 95  13  95  90  23  156 150 102 151 143 121 196 189 178 235 230 220 235 230 222 229 225 220 227 226 220 227 226 220 227 226 220 229 227 221 229 227 221 229 227 221 229 227 223 231 227 226 230 226 223 230 227 221 231 228 222 236 232 229 231 228 222 229 227 214 131 130 108 129 128 96  116 110 80  66  53  35  66  50  37  39  25  12  147 134 116 76  60  33  113 94  57  103 85  37  123 106 43  150 135 58  122 111 28  134 121 48  122 110 45  135 124 69  130 120 71  150 139 95  137 127 89  146 135 105 166 154 129 170 158 130 177 166 133 167 159 114 168 161 109 176 167 111 185 177 116 175 167 101 151 144 76  176 169 100 166 159 91  170 162 97  185 178 110 179 173 102 197 190 119 184 177 107 161 154 83  168 160 92  144 137 69  151 144 76  192 185 117 205 198 128 179 172 104 126 117 56  213 204 150 158 145 95  160 147 101 172 160 121 157 146 115 148 139 122 215 208 196 233 226 217 223 217 208 234 228 221 226 222 214 235 232 222 233 230 219 229 226 216 237 234 224 234 231 220 242 239 229 230 227 217 234 231 220 244 241 231 239 234 222 230 221 208 164 155 138 169 161 138 123 116 89  47  38  7   57  49  15  70  62  26  69  62  23  56  50  6   75  70  17  144 138 74  149 141 78  148 136 88  124 111 65  135 124 69  151 140 78  125 115 48  130 120 53  149 139 77  156 146 86  198 187 132 144 132 79  135 124 71  97  87  35  120 110 59  119 109 56  106 97  39  148 139 81  166 159 104 164 155 110 161 153 119 170 160 141 234 224 216 233 222 219 252 244 238 239 233 226 243 237 233 237 234 228 250 247 239 243 240 232 242 239 229 243 240 230 243 238 229 245 239 230 246 241 231 246 241 231 244 241 231 244 241 233 246 245 238 248 244 238 231 226 212 158 151 135 121 112 95  199 188 172 207 193 177 152 137 122 91  74  55  180 164 137 195 181 142 184 171 128 100 84  43  146 131 84  143 130 70  193 182 110 175 167 81  193 185 92  224 216 126 213 205 112 243 234 137 235 226 127 224 214 117 205 195 105 194 179 102 140 124 55  144 127 62  207 190 123 202 187 110 183 169 90  218 203 129 207 193 139 135 122 103 142 131 130 206 197 193 255 254 247 250 245 238 249 246 238 249 245 240 247 246 240 249 246 238 249 246 238 249 246 238 249 246 238 249 246 238 249 246 238 249 246 238 249 246 238 245 243 232 255 254 246 239 238 231 252 249 243 243 238 231 193 185 174 181 168 152 132 119 103 30  20  10  33  26  13  48  39  19  67  55  32  127 104 80  130 100 76  130 97  77  127 94  73  117 86  65  117 86  65  119 85  67  115 86  73  104 83  76  91  78  75  72  67  69  58  58  60  79  79  79  82  81  82  84  84  84  86  86  86  83  86  85  90  93  92  94  96  95  89  94  92  86  93  91  88  92  91  89  92  89  92  91  87  97  88  87  100 87  85  102 86  85  104 85  87  97  76  81  101 82  86  95  77  79  104 89  87  128 112 108 128 115 111 112 99  94  105 98  89  108 105 95  113 114 107 77  76  79  65  64  69  72  72  72  90  89  80  110 109 91  121 120 97  108 106 89  118 114 97  120 112 90  167 155 130 160 142 116 190 168 135 205 183 136 190 168 116 201 181 133 171 153 109 186 168 126 216 195 154 195 174 133 194 173 134 199 180 143 163 144 109 170 152 119 165 148 115 155 137 102 161 143 99  177 157 95  223 205 134 178 160 89  165 147 87  104 90  51  77  64  32  159 143 101 180 162 106 191 176 102 156 144 64  152 147 71  152 146 84  154 147 106 157 149 116 171 161 123 167 157 120 140 129 101 165 153 125 164 153 118 213 201 164 190 177 143 176 163 131 153 142 112 141 134 107 125 122 98  120 118 100 168 168 156 240 239 233 238 237 228 245 244 235 246 246 234 245 244 233 247 247 236 247 247 236 246 248 236 246 248 234 248 251 234 243 243 227 244 244 230 251 248 238 252 246 241 246 238 234 178 170 159 157 147 130 200 188 162 211 197 168 195 184 154 164 151 130 124 114 108 137 128 124 127 122 110 131 126 114 128 123 115 130 122 115 131 121 113 130 123 111 134 131 120 123 116 102 149 130 107 191 164 133 165 132 93  170 139 95  178 147 105 189 159 117 178 148 108 175 147 109 153 127 90  147 121 84  164 133 98  184 153 118 207 181 147 192 172 142 214 200 177 244 236 218 233 231 213 255 253 237 253 248 238 253 247 240 253 247 240 253 247 240 254 248 241 254 248 241 254 248 241 254 248 241 254 248 241 253 247 240 251 248 240 252 249 241 253 247 240 253 247 240 253 248 238 253 248 238 249 244 234 211 206 196 72  69  61  64  58  51  152 144 137 118 106 94  19  4   0   174 158 120 206 191 132 167 150 97  67  54  26  96  85  68  99  89  67  136 124 98  109 91  63  151 128 97  193 169 134 172 150 116 159 141 111 66  52  27  70  59  44  97  90  79  99  95  78  77  69  46  138 123 89  188 168 132 182 160 127 131 112 91  120 114 111 106 104 105 134 130 122 148 144 129 168 163 149 176 172 155 183 179 162 148 144 127 176 172 155 186 179 163 183 177 161 188 182 166 194 182 168 199 185 171 199 185 169 196 185 168 203 192 175 209 198 181 210 199 180 208 197 178 208 197 178 211 200 181 215 204 183 215 204 183 208 197 176 208 197 176 206 197 173 204 193 167 204 191 159 200 187 155 197 186 156 161 152 125 116 109 93  94  89  80  10  7   1   30  26  23  18  14  13  
140 133 94  140 133 105 123 115 97  126 119 108 217 211 204 231 228 222 227 223 218 221 217 212 221 217 212 221 217 212 221 217 212 221 217 212 221 217 212 221 217 212 221 217 212 222 219 211 222 219 211 222 219 211 222 219 211 222 219 211 221 218 210 219 215 207 216 213 205 212 208 200 213 210 202 216 213 205 220 216 208 220 216 208 220 216 208 220 216 208 220 216 208 220 216 208 220 216 208 220 216 208 220 216 208 221 218 210 221 218 210 221 218 210 221 218 210 221 218 210 221 218 210 221 218 210 221 218 210 222 219 211 222 219 211 222 219 211 222 219 211 221 218 208 221 218 208 222 219 211 222 219 211 222 219 211 222 219 211 223 220 214 223 220 214 224 221 213 224 221 213 224 221 213 224 221 213 224 221 213 224 221 213 223 222 213 223 222 213 225 226 219 218 219 212 219 218 210 228 225 215 156 151 139 127 121 105 128 119 102 60  48  27  123 104 81  130 107 80  96  75  48  110 92  64  154 138 109 142 127 98  150 137 107 154 141 107 130 120 73  90  83  31  47  41  0   41  37  0   65  62  11  56  55  10  35  33  4   21  17  0   28  27  4   25  25  0   33  35  0   37  38  1   15  13  0   85  82  58  141 141 111 81  81  52  61  61  34  35  34  9   24  23  1   9   10  0   13  15  0   32  33  10  46  48  22  37  38  13  37  38  15  17  18  0   23  22  0   31  30  8   40  40  17  21  20  0   27  24  0   100 98  69  124 124 80  154 155 105 154 154 97  155 155 103 173 170 130 125 121 93  97  92  69  116 110 91  141 135 119 121 114 100 153 148 134 198 194 179 220 216 201 225 220 206 226 222 207 219 215 200 223 218 206 219 214 202 217 211 202 223 217 208 235 230 222 233 227 220 230 223 219 227 222 214 232 227 217 234 229 217 239 234 222 241 236 224 242 237 227 240 235 225 236 231 222 233 228 218 234 231 218 234 231 218 234 231 218 234 231 218 235 232 220 235 232 220 235 232 220 235 232 220 235 232 220 235 232 220 235 232 220 235 232 220 236 234 221 236 234 221 236 234 221 236 234 221 236 236 222 236 236 222 236 236 222 236 236 222 236 234 221 236 234 221 236 234 221 236 234 221 235 232 220 237 235 222 236 234 221 231 229 216 240 236 221 245 240 226 240 236 221 226 222 207 178 174 159 112 107 93  102 95  81  133 126 113 125 119 103 112 106 90  98  89  74  79  70  57  81  74  60  75  68  57  89  82  71  89  82  71  75  68  57  116 109 97  39  32  20  22  13  7   18  11  9   15  11  8   6   6   0   9   12  0   22  28  3   47  55  32  34  44  24  13  21  2   28  26  6   41  36  15  24  19  0   34  30  2   53  49  18  56  53  20  56  53  18  73  69  34  53  48  13  61  53  19  43  35  1   46  38  0   72  66  23  57  51  3   56  51  0   97  93  31  100 95  26  122 117 46  125 121 48  106 100 27  108 102 29  104 95  23  101 91  22  95  86  14  108 103 21  134 129 48  116 110 46  133 127 81  143 135 113 202 194 186 224 218 209 230 224 217 229 225 220 227 226 220 227 226 220 227 226 220 229 227 221 229 227 221 229 227 221 229 227 223 231 227 226 231 227 224 231 228 222 231 228 222 234 230 227 230 227 221 230 228 215 135 132 110 132 128 98  120 113 84  69  53  36  63  47  34  58  44  30  137 124 106 64  45  19  121 102 65  125 106 58  138 120 60  139 124 49  125 112 35  137 125 57  126 115 55  114 104 53  152 141 97  147 138 96  143 133 95  152 141 113 136 124 98  159 148 120 158 147 114 170 161 116 166 158 108 163 153 100 170 161 105 170 161 103 159 152 88  164 157 91  141 133 68  137 129 66  155 147 84  144 137 71  135 127 62  164 157 91  179 172 106 193 186 118 155 148 80  139 132 61  143 136 66  182 175 104 205 197 132 142 133 77  193 183 132 176 164 113 173 160 114 168 156 117 154 143 115 176 167 152 226 219 210 231 225 216 226 221 211 230 227 219 228 225 217 237 234 224 234 231 220 231 229 218 238 236 225 233 230 219 238 236 225 238 236 225 229 226 216 237 234 224 241 236 224 206 197 182 162 152 132 166 155 134 88  78  52  50  42  10  54  46  10  69  62  23  50  44  0   42  36  0   107 103 47  109 104 37  111 106 40  104 94  42  125 112 66  111 100 44  117 107 44  111 101 34  123 113 46  147 137 72  147 137 74  194 183 125 158 146 91  156 147 93  112 102 51  116 106 59  108 98  49  111 102 43  148 140 77  160 154 93  153 146 92  159 149 112 162 152 128 211 201 190 243 232 229 240 232 226 243 235 228 247 241 236 243 239 234 247 243 235 244 241 233 242 239 229 243 240 230 243 238 229 245 239 230 246 241 231 246 241 231 244 241 231 244 241 233 239 238 231 247 246 238 242 239 227 190 186 169 125 119 101 151 143 125 197 186 171 160 146 133 112 97  77  183 167 141 213 199 163 112 99  55  122 106 64  155 140 88  153 142 73  151 142 56  174 167 72  174 168 68  215 209 108 193 187 82  192 186 72  202 195 83  212 203 104 204 193 106 152 137 60  185 169 99  118 101 36  191 175 106 198 184 103 240 227 141 191 177 96  187 174 113 137 124 104 131 121 117 189 181 177 252 244 238 250 245 238 249 246 238 247 246 240 247 246 240 249 246 238 249 246 238 249 246 238 249 246 238 249 246 238 249 246 238 249 246 238 249 246 238 248 243 233 255 251 243 243 239 234 251 248 242 247 241 234 197 187 177 176 160 145 142 126 111 42  30  18  34  24  11  50  42  22  79  70  46  116 97  76  124 100 81  138 108 95  115 86  73  116 90  71  116 90  71  116 89  75  115 89  79  100 78  74  89  75  73  77  72  71  66  66  68  88  88  91  86  86  88  84  83  86  82  81  84  84  83  86  91  91  91  94  94  94  89  92  91  88  96  93  88  96  91  90  95  91  93  94  91  93  86  86  96  85  86  97  83  85  99  82  85  106 87  91  87  69  70  95  77  77  105 87  86  105 87  84  123 106 101 116 101 95  108 98  90  95  94  83  104 108 100 77  76  79  69  68  75  75  74  77  98  99  92  111 114 92  105 109 85  98  101 84  108 108 92  131 127 108 146 136 114 155 138 117 167 146 117 185 163 118 192 171 119 178 162 108 180 165 116 178 161 114 195 176 135 210 191 152 192 173 138 169 149 119 152 134 106 142 127 98  160 143 112 132 113 76  166 147 96  184 166 94  182 163 83  201 185 104 214 198 128 128 113 61  73  58  11  171 152 97  190 171 102 205 189 103 170 160 68  139 132 48  149 144 73  164 155 108 161 152 114 161 153 108 178 169 124 167 157 124 162 154 122 167 157 122 178 168 130 186 174 139 159 148 116 132 123 92  136 129 102 104 100 79  137 135 120 216 215 206 240 239 233 238 237 228 245 244 233 246 246 234 245 244 233 247 247 236 247 247 236 246 248 236 246 248 236 246 248 234 245 245 229 247 244 231 250 245 236 255 251 250 230 219 216 156 145 133 169 159 137 209 198 170 216 205 175 206 194 166 149 139 120 127 116 111 134 126 124 127 122 112 131 129 116 128 122 117 128 122 117 130 122 113 130 122 113 127 123 115 123 116 102 153 134 111 194 167 133 193 164 119 194 163 114 192 163 116 187 160 115 179 152 108 176 151 109 133 109 69  159 136 98  160 134 97  169 145 110 187 165 129 172 154 124 186 173 152 255 251 233 248 244 225 240 237 222 253 248 238 253 247 240 253 247 240 253 247 240 254 248 241 254 248 241 254 248 241 254 248 241 253 247 240 253 247 240 251 248 240 251 248 240 253 247 240 253 247 240 253 247 240 253 247 240 250 245 238 235 230 222 115 112 104 73  68  59  143 135 124 140 130 117 50  40  21  105 91  62  205 193 143 159 146 98  60  48  23  95  84  67  100 90  69  118 107 81  103 85  55  122 99  68  161 135 100 167 140 106 157 138 103 61  45  18  58  47  33  105 95  85  112 108 91  81  74  51  137 121 92  175 153 122 170 145 117 130 110 92  118 109 108 116 113 116 144 141 131 162 157 143 172 165 149 190 184 168 195 189 172 147 141 125 183 177 161 176 170 154 169 163 147 188 180 164 183 172 157 186 172 159 190 177 163 197 186 169 204 193 176 211 200 183 208 197 180 196 185 168 197 186 169 197 186 167 201 190 171 204 193 174 209 198 179 203 193 171 199 189 168 198 188 164 201 190 160 194 183 151 211 202 173 171 164 139 90  84  68  72  67  57  26  20  15  10  6   3   21  17  13  
93  86  48  115 108 81  131 123 105 125 118 107 213 208 200 226 222 216 219 215 209 221 217 212 221 217 212 221 217 212 221 217 212 221 217 212 221 217 212 221 217 212 221 217 212 222 219 211 222 219 211 222 219 209 222 219 209 222 219 211 221 218 210 219 215 207 216 213 205 213 210 202 213 210 202 216 213 205 220 216 208 220 216 208 220 216 208 220 216 208 220 216 208 220 216 208 220 216 208 220 216 208 220 216 208 221 218 210 221 218 210 221 218 210 221 218 210 221 218 210 221 218 210 221 218 210 221 218 210 222 219 211 222 219 211 222 219 211 222 219 211 221 218 210 221 218 210 222 219 211 222 219 211 222 219 211 222 219 211 223 220 212 223 220 212 224 221 213 224 221 213 224 221 213 224 221 213 224 221 213 224 221 213 223 222 213 223 222 213 225 226 219 218 219 212 219 218 210 228 225 215 149 144 132 117 110 94  140 131 113 108 96  72  131 111 79  156 132 95  148 124 87  150 128 90  137 119 80  122 106 66  142 125 87  160 146 105 186 172 129 98  87  41  40  29  0   53  45  0   60  55  0   42  39  0   36  31  0   66  63  25  73  70  30  71  71  30  58  59  15  32  31  0   30  29  0   53  52  15  79  80  36  56  56  13  66  66  27  40  38  7   29  26  2   14  12  0   4   3   0   32  32  7   57  57  25  30  33  0   37  39  9   23  25  0   48  50  22  32  32  7   26  26  1   28  25  1   48  45  23  140 138 107 153 153 108 162 165 103 131 136 59  131 136 59  212 213 152 159 158 110 98  94  64  101 95  74  106 102 85  99  95  80  97  92  78  108 104 90  115 111 96  177 173 158 225 220 208 224 219 207 225 220 208 219 214 202 212 207 195 214 209 197 226 221 209 230 225 213 233 228 216 235 230 218 234 229 217 232 227 213 228 223 211 225 220 208 231 226 214 233 228 216 238 233 221 240 235 223 234 231 218 234 231 218 234 231 218 234 231 218 235 232 220 235 232 220 235 232 220 235 232 220 235 232 220 235 232 220 235 232 220 235 232 220 236 234 221 236 234 221 236 234 221 236 234 221 237 235 222 237 235 222 237 235 222 237 235 222 236 234 221 236 234 221 236 234 221 236 234 221 235 232 220 233 230 217 234 231 218 238 236 223 232 227 213 238 233 219 242 238 223 249 245 230 234 230 215 179 175 161 126 121 107 108 104 90  150 143 127 157 150 134 146 140 124 136 130 111 168 162 144 147 141 123 154 145 127 155 146 129 135 126 109 154 145 127 107 100 82  45  38  22  20  15  5   8   5   0   13  14  0   20  24  0   31  38  10  53  62  34  35  46  19  11  20  0   31  30  8   44  41  17  30  28  1   43  41  12  72  67  37  56  53  20  32  28  0   40  36  8   33  27  9   29  20  3   46  39  12  45  40  3   40  34  0   57  52  1   62  57  4   78  74  14  95  91  19  103 100 23  121 117 41  135 131 55  128 124 48  120 114 39  104 98  22  91  85  7   74  69  0   132 126 50  129 123 59  140 134 86  124 117 92  195 188 177 224 218 209 228 223 215 229 225 220 227 226 220 227 226 220 227 226 220 229 227 221 229 227 221 229 227 221 229 227 223 231 227 226 231 227 224 231 228 220 231 228 220 230 226 223 229 225 220 233 230 217 139 135 114 134 131 98  124 118 86  71  56  36  57  41  26  68  55  39  180 167 147 100 82  54  117 97  61  119 100 52  127 110 50  139 125 53  148 135 60  131 119 55  158 146 91  132 121 72  162 151 107 145 136 96  167 157 122 181 170 140 166 155 127 187 175 150 165 153 125 168 157 127 174 164 129 185 173 134 192 181 137 179 169 120 144 135 81  125 115 59  127 118 60  123 115 56  115 107 48  159 151 92  155 147 86  127 119 58  125 117 53  161 154 85  137 131 60  141 134 62  130 124 51  155 148 77  178 170 107 141 131 78  158 148 97  192 182 131 177 166 120 154 141 105 143 134 108 204 198 182 236 231 222 228 223 213 227 224 213 233 230 219 230 227 217 238 236 225 234 231 220 236 233 223 240 237 226 231 229 218 237 234 224 242 239 229 231 229 218 238 233 221 239 232 219 169 160 145 161 150 131 150 140 119 38  28  2   47  38  7   40  32  0   65  58  20  54  47  4   55  50  0   124 119 62  122 117 50  99  93  27  98  88  37  109 99  50  130 122 63  106 98  35  112 105 36  120 113 45  137 130 62  123 116 50  166 158 97  133 124 65  135 126 72  92  82  33  128 119 74  88  80  32  107 98  42  144 136 75  151 143 82  139 129 75  154 145 103 154 145 116 178 169 154 249 239 231 237 229 220 246 238 232 246 240 233 247 243 235 240 239 231 243 242 233 243 240 232 243 240 232 245 239 230 245 239 230 246 241 231 246 241 231 244 241 231 244 241 233 239 238 231 243 242 233 249 246 234 228 224 207 152 146 127 112 103 85  184 173 159 173 160 142 140 129 101 123 111 76  194 179 141 121 108 67  103 87  45  160 146 92  155 145 66  163 155 62  167 160 63  172 166 63  182 177 70  196 192 78  195 189 68  202 196 77  195 186 86  129 119 31  210 196 116 187 172 97  188 172 100 197 182 106 205 192 106 196 183 94  174 161 74  168 157 90  150 139 108 126 115 108 175 167 161 246 238 232 250 245 238 249 246 238 247 246 238 247 246 238 247 246 238 247 246 238 249 246 238 249 246 238 249 246 238 249 246 238 249 246 238 248 244 236 249 244 234 252 246 239 248 244 238 250 246 241 253 247 240 201 192 181 165 150 134 154 138 123 46  34  20  30  21  6   46  38  18  67  59  39  85  74  58  108 94  83  122 106 103 108 93  89  120 102 90  122 101 88  124 100 92  122 100 96  107 89  88  94  82  84  77  74  78  69  71  75  95  97  101 93  94  98  90  92  96  88  90  94  88  90  94  95  97  99  99  101 102 93  98  99  88  95  95  88  96  93  90  95  93  92  94  93  92  87  88  93  86  86  94  84  85  95  84  85  93  80  80  95  81  79  109 95  93  107 91  89  100 84  80  100 85  78  118 101 93  162 150 140 87  82  73  101 99  93  71  69  72  60  57  62  75  74  79  88  89  84  108 113 93  125 131 109 113 115 103 94  93  84  104 102 89  108 101 85  117 103 90  116 99  77  130 113 76  182 165 116 144 129 70  157 142 83  149 134 82  150 134 90  192 175 140 166 148 120 153 136 112 146 129 105 117 101 74  148 130 95  182 165 114 200 183 116 215 200 112 223 207 109 222 208 115 238 225 138 150 137 64  114 100 32  181 163 92  184 165 85  183 166 74  153 141 47  127 118 32  144 138 63  172 166 106 174 166 117 176 166 115 161 150 103 161 152 114 147 137 104 153 143 110 147 137 102 158 148 110 168 159 121 145 136 105 136 131 103 132 131 111 159 159 145 226 225 217 237 236 229 239 238 229 245 244 235 246 245 236 245 244 235 247 246 238 247 246 238 246 247 238 245 246 234 245 247 232 247 247 234 249 247 232 248 243 233 255 248 244 199 188 183 142 131 117 184 174 150 214 203 172 231 220 190 203 193 167 130 119 102 130 120 114 131 122 119 127 122 110 134 131 118 128 122 117 128 122 117 130 122 115 128 123 113 128 125 117 127 121 107 153 136 112 184 160 125 199 172 126 206 178 128 213 184 137 208 181 136 215 193 148 200 179 136 134 114 73  164 142 104 157 135 99  153 132 96  163 144 107 149 134 103 132 120 99  233 224 207 255 254 235 238 234 217 253 248 236 253 248 238 253 247 240 253 247 240 255 249 242 255 249 242 255 249 242 255 249 242 254 248 241 254 248 241 252 249 241 252 249 241 253 247 240 253 247 240 253 247 242 253 247 242 252 246 241 255 249 242 181 175 166 73  69  55  110 104 87  159 151 133 98  87  72  39  27  4   173 162 120 163 152 110 76  65  39  90  77  59  110 98  77  130 116 91  151 133 105 137 114 83  126 101 68  132 111 75  130 113 78  63  49  22  74  61  45  86  77  64  94  88  69  95  88  65  117 100 76  133 112 87  127 104 82  109 91  76  99  87  91  109 104 108 128 122 117 145 138 126 168 158 145 184 173 161 185 174 162 136 125 113 180 168 156 174 162 150 176 166 154 209 197 185 187 175 163 216 204 192 235 224 212 232 223 207 207 198 183 201 192 177 205 196 181 216 207 192 221 212 197 214 206 188 218 209 191 228 220 202 226 217 200 213 205 185 206 198 178 208 200 180 202 192 168 197 189 164 185 178 153 148 143 122 108 101 87  52  44  35  9   3   0   32  26  21  29  24  16  
100 93  55  101 94  67  130 122 104 132 125 114 228 223 215 226 222 216 227 223 218 221 217 212 221 217 212 221 217 212 221 217 212 221 217 212 221 217 212 221 217 212 221 217 212 222 219 211 222 219 211 222 219 209 222 219 209 222 219 211 221 218 210 219 215 207 216 213 205 213 210 202 213 210 202 216 213 205 220 216 208 220 216 208 220 216 208 220 216 208 220 216 208 220 216 208 220 216 208 220 216 208 220 216 208 221 218 210 221 218 210 221 218 210 221 218 210 221 218 210 221 218 210 221 218 210 221 218 210 222 219 211 222 219 211 222 219 211 222 219 211 221 218 210 221 218 210 222 219 211 222 219 211 222 219 211 222 219 211 223 220 212 223 220 212 224 221 213 224 221 213 224 221 213 224 221 213 224 221 213 224 221 213 223 222 213 223 222 213 218 219 212 225 226 219 226 225 217 221 218 208 141 136 124 108 101 87  147 138 122 142 129 106 127 108 73  153 130 92  174 151 113 201 180 141 188 169 130 177 158 119 178 162 121 168 152 112 116 102 61  69  56  12  61  49  0   120 111 55  105 100 38  81  77  17  67  62  7   81  79  25  78  75  21  83  83  30  70  69  22  72  73  29  76  76  33  60  60  14  68  69  16  86  88  33  53  54  5   23  23  0   26  23  0   34  31  9   23  20  0   64  64  36  108 110 71  78  80  38  33  35  0   24  26  0   48  50  22  34  36  10  28  27  4   33  29  10  28  24  5   93  90  66  177 177 138 170 172 117 128 134 59  148 154 75  165 170 100 114 113 59  101 98  58  184 182 153 193 190 168 177 173 154 107 104 84  94  91  72  100 97  77  101 98  78  117 112 96  150 146 129 210 205 191 209 204 192 209 204 192 216 211 199 233 228 216 232 227 215 231 226 214 230 225 213 233 228 216 234 229 217 235 230 218 236 232 220 235 230 218 234 229 217 233 228 216 233 228 216 234 231 218 234 231 218 234 231 218 234 231 218 235 232 220 235 232 220 235 232 220 235 232 220 235 232 220 235 232 220 235 232 220 235 232 220 236 234 221 236 234 221 236 234 221 236 234 221 236 234 221 236 234 221 236 234 221 236 234 221 235 232 220 235 232 220 235 232 220 235 232 220 234 231 218 229 227 214 234 231 218 243 241 228 236 232 218 235 231 216 235 231 216 238 233 219 233 229 214 231 226 212 178 174 159 112 107 93  107 100 84  154 148 132 164 157 141 164 157 139 116 110 91  110 104 85  89  81  61  89  81  61  89  81  61  99  91  71  84  79  58  51  44  28  43  38  26  5   0   0   8   6   0   20  21  2   21  24  3   22  28  3   25  33  8   53  60  33  34  36  8   26  26  0   33  30  4   48  46  17  48  46  17  45  41  10  42  38  8   27  22  0   27  20  7   8   1   0   52  48  17  95  93  50  107 104 53  69  64  9   75  71  13  98  95  32  114 110 36  102 99  20  103 102 23  123 122 42  114 110 32  103 100 21  95  90  12  94  89  11  90  84  8   100 95  24  114 108 44  139 133 85  107 100 73  180 173 159 235 230 218 230 227 219 226 225 219 226 225 219 227 226 220 227 226 220 227 226 220 227 226 220 229 227 221 229 227 223 231 227 226 231 227 224 231 228 220 231 228 220 227 223 218 228 224 219 233 230 217 141 140 117 134 133 99  129 123 91  73  58  38  54  38  23  65  51  35  211 199 178 128 110 82  105 84  48  143 123 75  132 114 56  162 148 78  171 159 90  140 129 69  173 161 108 154 143 94  177 166 122 171 161 123 208 197 165 202 191 161 208 197 169 204 193 167 221 209 185 215 203 178 213 201 173 198 185 153 170 158 121 150 139 97  163 152 106 161 150 101 162 152 99  165 156 102 170 161 105 171 162 106 157 148 90  155 147 86  154 146 82  140 133 64  133 126 55  159 154 78  144 138 65  128 121 53  146 137 76  157 147 96  128 117 71  166 156 107 164 153 109 149 138 103 161 152 125 221 214 198 235 230 220 227 224 213 230 227 217 234 231 220 231 229 218 237 234 224 234 231 220 238 236 225 241 238 227 233 230 219 240 237 226 240 237 226 237 234 224 242 237 225 231 224 211 155 146 131 183 173 153 120 110 88  34  25  0   52  43  12  39  31  0   55  48  9   50  44  0   81  76  23  143 140 79  147 142 76  126 121 55  120 111 55  122 113 59  148 140 79  140 132 68  132 124 58  133 126 57  143 136 68  132 124 56  133 125 61  101 93  34  127 117 64  114 103 57  126 118 73  96  88  41  118 108 54  118 109 50  113 104 46  115 106 52  165 154 110 179 168 135 164 154 135 235 226 213 237 228 217 244 237 225 243 238 229 249 246 238 238 237 228 243 242 233 243 240 232 243 240 232 245 239 230 245 239 230 246 241 231 246 241 231 244 241 231 244 241 231 243 242 233 238 237 228 237 235 222 252 247 233 195 189 172 110 104 87  150 141 126 167 157 135 174 164 131 129 119 81  208 196 159 148 134 96  103 87  47  139 125 71  167 158 77  172 164 71  144 137 41  179 172 74  208 202 99  184 178 71  190 184 67  178 171 60  146 136 39  183 172 87  190 176 99  147 132 59  221 205 131 183 169 92  152 138 56  196 183 96  207 193 107 201 190 121 164 154 116 127 118 103 174 164 158 249 240 236 250 245 236 249 246 236 247 246 238 247 246 238 247 246 238 247 246 238 249 246 238 249 246 238 249 246 238 249 246 238 249 246 238 249 246 238 250 245 236 249 244 236 250 246 241 249 245 240 255 252 245 205 195 185 158 143 127 162 146 129 92  78  62  53  42  25  146 140 120 119 113 95  83  78  64  108 103 96  109 104 106 131 126 128 131 122 119 133 122 117 134 120 121 134 120 123 123 113 118 108 102 109 89  92  98  77  86  92  90  98  105 93  101 107 95  103 109 97  105 112 93  101 107 100 108 114 103 112 116 100 108 112 104 115 118 104 115 118 105 114 116 107 113 116 110 112 116 112 111 116 113 111 114 113 111 114 121 116 120 110 105 109 94  87  90  104 95  96  124 114 110 107 97  87  123 112 95  183 173 151 101 95  74  161 156 142 123 120 112 57  52  52  96  93  98  114 114 116 128 132 121 130 133 116 115 114 101 116 114 101 115 112 92  107 101 80  139 128 109 143 129 102 161 148 102 192 178 121 162 148 82  160 145 80  165 152 93  153 140 94  149 136 106 133 118 96  147 135 114 131 119 96  126 112 83  179 165 122 230 218 154 224 210 128 209 196 98  199 184 80  200 187 85  218 204 106 188 176 82  166 153 64  176 157 77  166 145 63  174 155 63  146 129 35  151 141 49  165 158 74  171 165 92  152 145 79  194 184 119 183 173 110 184 175 117 134 124 71  137 127 76  198 188 139 170 161 114 185 175 135 145 139 107 136 131 105 136 134 117 188 187 176 233 232 226 239 237 233 239 238 231 245 244 235 246 245 236 245 244 235 247 246 238 247 246 238 246 247 238 246 247 238 241 243 231 250 250 236 251 249 236 246 241 229 244 236 229 172 162 154 147 136 117 195 185 159 208 197 165 235 224 193 185 176 152 121 110 96  133 122 114 131 123 117 125 119 110 132 130 119 128 122 117 128 122 117 130 122 115 128 123 113 137 134 126 134 128 114 151 134 110 171 147 114 216 189 148 215 188 143 213 185 142 206 181 142 186 165 126 172 153 117 117 97  63  130 113 78  100 82  50  107 89  57  137 120 85  144 128 97  132 120 97  217 206 187 255 251 228 234 230 211 253 248 236 253 248 238 253 247 240 253 247 240 255 249 242 255 249 242 255 249 242 255 249 242 254 248 241 254 248 241 252 249 241 252 249 241 253 247 240 253 247 242 253 246 244 253 246 244 248 242 239 249 243 238 236 232 220 108 104 87  89  83  65  134 128 110 144 135 120 41  30  11  90  80  47  163 150 116 121 107 82  118 103 83  120 105 85  112 98  73  175 157 129 185 165 133 198 179 144 184 165 130 186 171 135 165 152 122 151 138 120 99  88  74  101 93  71  157 148 122 202 185 161 202 183 162 196 177 158 193 177 166 187 172 175 203 194 197 208 200 193 218 211 200 229 220 209 234 222 213 234 222 213 194 181 172 225 213 203 223 211 201 222 213 202 244 235 224 216 207 196 235 225 215 246 239 228 245 238 227 239 232 221 235 225 215 234 224 214 236 226 216 243 233 223 233 223 213 236 226 216 250 241 228 251 242 229 233 223 211 223 214 201 228 219 204 220 211 194 219 214 193 239 234 213 208 202 183 177 168 155 164 154 144 123 115 106 24  16  7   25  18  7   
77  70  31  96  90  62  149 140 123 138 131 119 211 205 198 229 225 220 222 220 214 221 217 214 221 217 214 221 217 214 221 217 214 221 217 212 221 217 212 221 217 212 221 217 212 222 219 211 222 219 211 222 219 209 222 219 209 222 219 211 221 218 210 219 216 205 216 213 203 213 210 202 213 210 202 216 213 205 220 216 208 220 216 208 220 216 208 220 216 208 220 216 208 220 216 208 220 216 208 220 216 208 220 216 208 221 218 210 221 218 210 221 218 210 221 218 210 221 218 210 221 218 210 221 218 210 221 218 210 222 219 211 222 219 211 222 219 211 222 219 211 221 218 210 221 218 210 222 219 211 222 219 211 222 219 211 222 219 211 224 221 213 224 221 213 224 221 213 224 221 213 226 222 214 226 222 214 226 222 214 226 222 214 224 223 214 224 223 214 222 224 216 222 224 216 224 223 214 226 223 212 154 149 137 119 112 99  136 127 112 101 88  67  76  55  28  93  70  39  112 90  59  126 106 74  132 112 80  126 106 74  125 108 75  103 86  51  93  76  39  81  66  21  90  79  21  140 130 67  114 107 41  105 97  31  102 96  32  125 122 57  110 109 46  77  75  16  72  71  21  86  84  37  65  64  14  58  57  3   73  73  14  74  74  15  58  57  5   42  40  0   41  38  5   86  81  53  54  50  22  87  86  52  107 107 64  75  75  30  53  54  20  25  25  0   30  31  6   33  35  11  35  33  15  10  8   0   11  8   0   23  21  8   93  91  74  108 109 77  128 132 78  165 171 107 122 127 66  91  93  38  104 104 59  153 152 114 176 174 143 141 139 110 126 124 95  140 138 109 89  86  58  97  95  66  122 120 91  83  80  56  84  80  63  113 109 94  154 149 137 183 178 166 220 215 203 231 225 216 239 234 224 239 234 224 227 222 212 230 225 213 233 228 216 236 232 220 232 227 215 241 236 224 243 239 227 236 232 220 234 231 218 234 231 218 234 231 218 234 231 218 236 234 221 236 234 221 236 234 221 236 234 221 236 234 221 236 234 221 236 234 221 236 234 221 236 234 221 236 234 221 236 234 221 236 234 221 236 234 221 236 234 221 236 234 221 236 234 221 235 232 220 235 232 220 235 232 220 235 232 220 243 241 228 238 236 223 231 229 216 227 224 211 236 232 218 236 232 218 236 232 218 236 232 218 235 231 216 228 224 209 227 223 208 178 174 159 97  92  78  114 110 95  158 154 140 117 112 96  56  50  34  63  57  41  48  39  23  43  34  19  52  43  30  34  24  11  34  27  14  58  50  39  27  21  14  12  6   1   18  15  9   9   8   0   3   5   0   17  22  5   28  36  15  46  52  28  43  48  17  39  42  9   42  42  10  49  49  19  26  27  0   21  19  0   39  36  10  48  45  21  39  35  16  28  25  1   38  35  0   69  68  18  129 130 68  106 105 39  78  76  8   125 123 53  117 114 37  110 107 28  98  97  18  78  78  0   76  73  0   99  95  17  108 103 25  97  91  15  101 95  24  73  68  1   68  62  1   114 109 58  101 95  63  186 180 161 238 233 221 216 213 205 226 225 219 226 225 219 226 225 219 226 225 219 227 226 220 227 226 220 227 226 220 227 226 222 229 227 225 229 227 223 229 228 219 229 228 219 226 225 219 226 225 219 229 228 217 137 136 116 128 126 95  133 126 94  90  75  55  94  75  61  66  53  37  203 191 170 131 113 85  116 94  58  137 115 68  112 94  37  129 117 50  152 142 77  161 149 96  154 143 94  136 126 79  185 174 130 182 173 135 194 183 151 184 173 142 175 164 136 147 136 110 172 160 136 178 166 142 166 154 129 178 165 135 113 100 66  99  87  48  172 161 119 187 177 130 164 154 105 148 138 85  158 149 93  191 180 125 168 157 99  116 105 45  137 126 64  159 149 82  161 152 82  133 124 54  128 119 50  111 103 37  130 122 63  179 169 120 113 102 58  143 134 89  147 138 96  138 127 95  187 177 153 235 231 216 236 233 223 229 226 216 231 229 218 234 231 220 234 231 220 237 234 224 235 232 222 238 236 225 226 223 212 238 236 225 245 243 232 236 232 220 248 243 231 247 242 230 190 183 170 151 142 127 184 174 154 75  65  43  56  47  20  65  54  23  58  48  12  44  34  0   45  36  0   112 106 49  142 136 72  152 147 78  160 155 86  118 109 48  156 147 89  154 146 82  151 143 80  166 159 95  165 158 92  169 162 91  151 145 74  126 119 50  132 123 62  100 90  39  84  73  29  88  79  36  107 98  53  132 122 70  84  74  21  85  74  19  109 97  44  148 138 89  173 164 124 162 153 126 198 188 168 247 238 221 242 235 221 243 239 227 243 240 232 240 239 231 241 241 232 243 240 232 243 240 230 245 239 230 245 239 230 246 241 231 246 241 231 244 241 231 244 241 231 255 254 244 238 236 225 248 245 234 255 250 238 228 221 207 137 130 114 128 119 102 160 150 128 137 126 95  185 174 139 198 185 151 194 179 145 103 86  51  178 163 113 199 188 112 201 193 102 184 176 85  194 186 95  222 213 127 221 212 124 162 152 58  148 139 42  177 166 79  176 164 84  158 145 74  163 149 83  211 197 127 184 171 98  191 178 105 190 177 102 186 174 94  180 169 100 164 153 109 125 115 91  174 164 156 251 242 238 249 244 234 249 246 236 247 246 238 247 246 238 247 246 238 247 246 238 249 246 238 249 246 238 249 246 238 249 246 238 249 246 238 249 246 238 250 245 238 249 244 236 250 246 241 249 245 240 248 242 235 221 211 201 162 146 131 169 153 136 125 113 92  131 121 99  56  51  28  51  48  26  107 105 90  86  87  80  107 109 110 107 111 117 109 112 118 109 112 120 112 110 120 112 110 122 100 100 113 99  104 116 80  92  104 54  70  82  47  63  76  52  69  81  51  67  80  45  62  74  48  64  77  48  64  77  50  67  77  50  67  77  57  74  84  55  71  82  53  67  76  51  65  74  57  69  78  58  68  78  60  69  80  62  70  81  63  70  86  70  77  93  78  82  97  81  82  91  79  80  77  61  59  44  128 126 95  151 148 108 160 153 112 156 148 112 135 128 103 107 102 90  120 114 122 99  97  109 88  90  92  100 102 92  83  79  60  143 136 109 135 129 95  109 101 63  152 143 103 180 171 119 210 201 131 181 171 93  155 142 67  158 145 74  163 150 88  161 150 103 126 115 89  133 122 105 163 155 133 156 147 118 139 129 92  164 155 101 157 146 70  202 189 98  213 200 97  187 172 65  210 195 91  220 207 102 216 205 93  178 165 60  133 113 29  138 114 38  173 151 65  159 140 48  177 163 63  192 183 84  181 173 83  201 192 106 226 217 131 163 154 66  189 182 89  201 195 102 201 195 104 215 207 128 190 181 121 166 157 112 143 137 105 134 131 109 121 118 105 212 211 205 244 240 237 240 236 232 239 238 231 244 243 234 246 245 236 246 245 236 247 246 238 247 246 238 247 246 238 247 246 238 248 250 238 245 244 233 245 243 230 255 251 239 212 205 196 141 131 119 178 169 145 195 186 155 175 165 130 220 209 178 149 139 120 136 125 113 141 131 121 132 124 116 135 130 120 125 122 114 133 127 122 133 127 122 134 126 120 134 129 119 132 129 121 136 129 115 148 132 108 153 129 98  181 154 122 174 147 115 174 150 119 161 139 110 111 90  65  89  70  47  60  41  20  59  42  18  57  41  15  39  23  0   61  46  12  93  80  48  104 92  69  157 147 126 250 243 218 251 246 222 250 243 229 253 248 238 253 248 238 251 248 238 255 249 242 255 249 242 255 249 242 255 249 242 254 248 241 254 248 241 254 248 241 254 248 241 254 248 241 254 248 243 254 248 245 254 248 245 252 243 242 252 244 240 255 249 238 172 165 149 96  90  72  96  90  72  155 149 133 92  83  66  57  44  21  231 216 192 245 228 206 113 96  77  90  73  53  131 114 92  206 191 162 196 181 147 180 163 128 170 156 120 187 172 136 189 176 144 153 141 120 83  71  50  88  79  50  167 156 126 183 169 142 206 191 169 241 228 209 241 226 215 235 219 218 231 218 215 227 218 205 225 218 205 228 223 213 236 230 226 242 236 231 245 239 234 245 239 234 245 239 234 234 228 223 231 225 220 246 240 235 239 233 228 240 234 229 249 243 238 245 239 234 252 244 240 254 246 242 252 244 240 254 246 242 254 246 242 254 246 242 254 246 240 253 245 239 251 243 236 249 240 234 246 239 230 255 250 236 244 237 221 255 254 236 250 242 224 255 244 228 255 255 238 237 225 211 110 102 86  72  63  48  
109 99  61  118 108 82  145 137 119 141 134 123 212 206 199 219 215 209 222 220 214 221 217 214 221 217 214 221 217 214 221 217 214 221 217 212 221 217 212 221 217 212 221 217 212 222 219 211 222 219 211 222 219 209 222 219 209 222 219 211 221 218 210 219 216 205 216 213 203 213 210 202 213 210 202 216 213 205 220 216 208 220 216 208 220 216 208 220 216 208 220 216 208 220 216 208 220 216 208 220 216 208 220 216 208 221 218 210 221 218 210 221 218 210 221 218 210 221 218 210 221 218 210 221 218 210 221 218 210 222 219 211 222 219 211 222 219 211 222 219 211 221 218 210 221 218 210 222 219 211 222 219 211 222 219 211 222 219 211 224 221 213 224 221 213 224 221 213 224 221 213 226 222 214 226 222 214 226 222 214 226 222 214 224 223 214 224 223 214 222 224 216 222 224 216 224 223 214 226 223 212 158 154 142 124 119 105 129 122 106 76  66  44  73  56  30  75  58  27  78  60  29  80  62  32  64  46  15  68  51  20  77  62  31  75  60  26  84  70  30  96  84  33  113 103 38  152 143 71  111 102 32  88  82  11  73  69  0   99  94  25  105 102 37  79  78  17  63  63  11  67  66  14  75  75  18  96  97  35  87  87  28  79  79  22  82  82  27  74  73  25  75  72  32  100 96  61  74  71  35  77  75  35  75  74  26  58  59  11  63  63  22  56  57  22  38  39  7   28  28  0   14  13  0   14  12  0   22  19  7   14  11  0   24  21  11  29  28  7   45  47  10  40  43  0   26  29  0   46  49  3   84  87  38  72  75  26  97  97  54  86  86  47  61  60  22  79  79  40  70  69  31  43  43  4   58  58  19  85  84  48  89  86  58  99  96  72  99  96  74  89  85  66  98  93  79  118 113 101 155 150 138 185 180 168 227 222 212 232 227 217 236 232 220 241 236 224 230 225 213 233 228 216 235 230 218 234 229 217 233 230 217 233 230 217 233 230 217 233 230 217 236 234 221 236 234 221 236 234 221 236 234 221 236 234 221 236 234 221 236 234 221 236 234 221 236 234 221 236 234 221 236 234 221 236 234 221 235 232 220 235 232 220 235 232 220 235 232 220 234 231 218 234 231 218 234 231 218 234 231 218 234 231 218 234 231 218 236 234 221 236 234 221 238 233 219 236 232 218 236 232 218 236 232 218 232 227 213 231 226 212 236 232 218 220 216 201 161 156 142 119 114 100 124 119 103 124 119 103 48  42  26  60  53  37  51  42  27  59  50  35  62  53  37  64  55  40  70  64  50  30  22  11  46  40  31  30  25  18  13  8   5   4   2   0   23  27  16  32  39  23  27  35  14  12  21  0   29  37  2   47  53  14  31  34  0   37  38  6   45  45  18  35  34  9   26  26  1   49  46  22  23  21  0   49  47  16  33  33  0   25  24  0   56  57  0   105 104 40  84  81  14  99  97  27  115 111 37  112 109 33  98  97  20  83  82  5   75  72  0   94  90  14  104 98  22  97  88  18  84  76  13  97  91  30  90  84  23  138 131 78  140 132 98  209 204 180 232 227 213 229 226 216 225 224 215 225 224 218 226 225 219 226 225 219 226 225 219 226 225 219 227 226 220 227 226 222 229 227 225 229 227 223 229 228 219 229 228 219 229 227 221 227 226 220 227 227 216 135 133 113 118 116 85  134 128 95  90  75  55  98  80  66  79  65  49  201 186 166 142 122 94  113 92  56  141 119 72  140 122 67  139 127 65  142 132 72  189 178 129 183 172 126 143 133 86  193 182 138 217 208 168 190 180 145 229 218 187 235 223 195 213 201 175 170 158 132 143 132 101 145 134 102 186 173 141 162 149 115 139 127 87  159 148 104 182 171 124 196 185 136 187 178 124 150 141 83  181 171 108 181 171 106 153 143 78  146 136 71  106 96  31  130 120 55  126 116 51  110 100 37  101 93  32  101 92  38  141 130 86  101 90  48  150 141 98  147 138 100 140 129 101 230 219 198 235 231 216 233 230 219 230 227 217 230 227 217 233 230 219 234 231 220 236 233 223 235 232 222 236 233 223 230 227 217 238 236 225 243 240 230 235 230 218 247 242 230 232 227 215 171 164 150 163 152 138 150 140 121 36  26  5   54  42  17  50  39  8   60  50  15  52  42  4   66  58  10  123 117 57  137 132 65  153 148 80  140 136 67  133 125 59  164 156 93  151 144 78  129 122 56  157 149 88  161 153 89  175 168 95  156 150 75  147 140 69  165 157 94  129 119 70  74  63  21  133 124 84  131 122 80  159 149 102 121 111 60  133 121 68  126 115 59  136 127 73  172 162 115 167 157 124 171 162 138 235 227 205 242 233 216 246 239 228 245 239 230 243 239 234 241 240 234 243 240 232 243 240 230 245 239 230 245 239 230 246 241 231 246 241 231 244 241 231 244 241 231 247 244 233 247 244 233 250 247 237 247 242 232 237 230 218 179 172 156 112 103 83  142 134 112 166 156 132 165 153 127 226 212 183 184 169 138 130 113 80  172 157 112 205 193 124 179 170 86  195 186 101 199 190 104 216 207 126 195 186 103 171 161 71  174 163 73  154 142 60  203 190 115 156 142 74  195 180 114 143 130 59  213 200 127 177 163 93  178 165 92  178 166 88  212 200 129 168 158 106 115 104 73  164 152 145 254 242 242 251 243 234 250 245 236 249 246 238 247 246 238 247 246 238 247 246 238 249 246 238 249 246 238 249 246 238 249 246 238 249 246 238 249 246 238 249 244 236 253 247 240 248 244 238 250 246 241 254 248 241 235 225 217 182 165 153 173 158 141 137 124 104 57  48  24  61  56  31  72  69  45  82  81  63  87  89  77  116 118 118 103 106 112 103 111 120 103 110 122 105 109 124 106 108 124 104 106 121 100 106 120 84  98  112 65  81  94  68  84  96  70  86  99  65  81  94  58  74  87  59  76  88  58  74  87  57  74  84  56  72  83  56  70  82  55  69  80  54  69  77  53  67  76  50  62  71  50  62  71  49  61  70  47  59  71  60  72  86  42  51  66  59  66  79  59  62  70  68  69  61  120 119 94  206 204 159 161 156 101 203 193 137 168 158 104 167 158 118 149 141 119 121 116 120 118 114 127 109 111 113 81  81  67  110 102 68  180 170 123 190 180 129 204 195 139 220 209 154 201 191 126 200 190 109 160 148 63  163 151 71  192 179 108 170 157 93  151 141 94  106 96  74  103 97  81  113 111 84  131 128 90  178 173 124 183 175 109 172 163 77  189 177 81  205 191 93  196 180 81  189 174 72  199 185 78  202 191 77  153 138 32  130 108 22  151 124 47  174 149 64  166 146 50  169 156 53  211 201 95  222 214 114 207 198 101 175 165 70  170 161 64  218 210 105 205 199 92  213 207 104 212 204 113 213 204 135 163 155 105 128 122 88  129 126 104 160 158 147 237 235 231 231 227 226 220 216 213 239 238 231 244 243 234 246 245 236 246 245 236 247 246 238 247 246 238 247 246 238 247 246 238 248 250 238 244 243 232 248 245 232 248 243 231 192 184 173 151 142 127 196 187 160 182 174 140 163 153 115 197 186 156 132 121 104 134 122 112 137 128 117 127 120 109 131 125 118 122 118 113 129 123 121 131 122 119 131 123 117 129 124 114 129 126 118 132 125 112 141 125 101 138 115 86  156 131 103 151 126 100 161 138 114 160 138 116 83  64  43  54  37  17  49  32  15  37  22  4   55  40  18  71  57  30  121 108 76  150 137 107 167 155 132 157 144 123 234 225 198 255 247 223 250 243 227 253 248 238 251 248 238 251 248 238 255 249 242 255 249 242 255 249 242 255 249 242 254 248 241 254 248 241 254 248 241 254 248 241 254 248 241 254 248 241 254 248 243 254 248 243 255 249 247 255 247 243 243 235 226 217 210 199 104 98  82  87  81  62  127 121 103 127 118 101 43  32  18  155 139 124 240 220 201 186 167 146 180 160 142 163 146 127 197 183 156 212 199 167 218 205 171 221 209 172 226 214 177 217 204 171 181 169 146 151 139 116 146 136 103 170 159 124 184 171 141 209 197 172 237 230 207 213 204 189 220 203 195 217 200 190 210 199 180 207 199 179 182 177 165 205 201 193 222 219 211 224 221 213 228 223 215 236 231 224 239 233 226 245 239 232 229 226 218 231 228 220 233 229 221 233 229 221 233 227 220 232 226 219 240 234 227 252 246 239 236 231 224 232 226 219 226 220 213 223 217 210 217 211 204 219 213 208 221 215 211 224 218 211 212 207 195 210 206 189 200 194 173 172 164 142 176 166 142 182 170 147 204 192 169 207 195 171 203 191 168 
164 154 116 150 141 115 135 126 109 141 134 123 213 208 200 230 227 221 225 224 218 221 217 214 221 217 214 221 217 214 221 217 214 221 217 212 221 217 212 221 217 212 221 217 212 222 219 211 222 219 211 222 219 209 222 219 209 222 219 211 221 218 210 219 216 205 216 213 203 213 210 202 213 210 202 216 213 205 220 216 208 220 216 208 220 216 208 220 216 208 220 216 208 218 218 206 218 218 206 220 216 208 220 216 208 219 219 208 219 219 208 221 218 210 221 218 210 219 218 210 219 218 210 219 218 210 219 218 210 220 220 211 220 220 211 220 220 211 220 220 211 221 218 210 221 218 210 222 219 211 222 219 211 222 219 211 222 219 211 224 221 213 224 221 213 224 221 213 224 221 213 226 222 214 226 222 214 226 222 214 226 222 214 224 223 214 224 223 214 222 224 216 222 224 216 224 223 214 226 223 212 143 138 126 122 118 103 130 123 107 63  55  33  43  34  6   47  36  6   52  41  10  55  44  14  57  46  15  57  46  15  53  42  12  60  50  13  71  61  12  123 115 54  141 135 57  139 133 53  113 107 32  144 138 65  126 122 49  100 95  26  91  87  27  83  80  24  62  62  9   56  56  2   65  66  2   69  71  6   53  53  0   51  50  0   64  60  12  60  57  8   58  54  8   48  43  0   48  43  0   51  47  1   49  48  0   60  59  9   62  62  9   71  73  22  61  61  16  40  40  0   14  13  0   25  22  0   40  36  15  24  23  3   21  19  1   12  13  0   26  28  4   28  30  7   18  17  0   21  21  0   61  64  18  72  76  22  60  64  11  84  87  36  65  69  17  59  63  12  75  76  25  83  84  34  90  91  41  69  70  20  56  57  9   78  78  35  96  95  57  98  97  63  98  95  69  89  85  66  84  80  63  85  81  66  114 109 97  141 136 124 177 172 160 204 199 187 226 221 209 233 228 216 243 239 227 248 243 231 232 227 215 232 227 215 232 227 215 230 228 215 236 234 221 234 234 221 234 234 221 234 234 221 234 234 221 234 234 221 234 234 221 234 234 221 234 234 221 234 234 221 234 234 221 234 234 221 233 233 220 233 233 220 233 233 220 233 233 220 232 232 218 232 232 218 232 232 218 232 232 218 230 228 215 233 230 217 237 235 222 241 238 225 236 232 218 236 232 218 236 232 218 233 229 214 230 225 211 232 227 213 232 227 213 235 231 216 216 211 195 136 132 115 104 100 81  141 137 118 117 111 90  122 116 95  117 110 87  110 100 78  114 104 83  122 114 92  141 136 113 109 103 82  119 113 97  73  69  57  6   2   0   0   0   0   22  26  13  18  25  7   27  38  9   25  38  2   30  44  1   47  56  15  28  34  0   31  34  1   55  57  29  42  44  21  23  24  1   30  29  5   30  31  0   28  29  0   43  42  6   77  74  37  48  43  1   81  75  27  62  57  2   71  65  3   104 100 31  92  87  16  82  80  8   88  86  13  91  89  17  71  66  0   79  72  2   114 105 40  69  60  1   82  76  17  86  80  18  149 141 87  132 124 88  193 188 162 217 213 196 221 218 208 225 224 215 225 224 218 226 225 219 226 225 219 226 225 219 226 225 219 227 226 220 227 226 222 229 227 225 229 227 223 229 228 219 229 228 219 233 232 226 229 227 221 226 226 215 131 130 110 105 103 72  130 124 94  80  65  45  88  70  55  80  67  51  168 153 133 134 113 88  112 91  55  138 119 68  165 150 91  163 153 93  173 164 108 176 165 119 199 190 145 162 152 103 169 158 112 177 167 125 163 153 115 218 207 179 224 212 187 200 188 160 159 148 116 110 101 59  125 117 70  112 100 59  139 127 85  128 117 73  112 101 53  144 134 83  177 167 114 189 179 123 133 125 61  149 141 68  189 181 106 203 194 122 169 160 92  152 142 77  158 147 87  95  83  28  83  71  18  125 115 59  88  79  27  105 93  52  123 112 72  151 141 101 138 128 93  161 152 125 237 229 209 234 230 215 228 225 215 229 226 216 229 226 216 233 230 219 234 231 220 236 233 223 235 232 222 234 231 220 241 238 227 235 232 222 235 232 222 243 239 227 240 235 223 207 200 186 154 144 131 168 157 142 125 112 94  45  32  12  37  25  0   42  28  0   66  54  19  66  54  17  85  74  28  116 110 48  136 131 62  136 131 62  117 112 43  143 138 67  138 133 64  146 142 73  110 105 38  102 94  33  134 126 63  182 175 102 158 153 75  152 146 73  164 156 93  162 151 105 134 122 83  172 160 121 121 110 68  146 134 90  130 120 71  146 134 83  141 130 74  132 123 64  157 147 96  167 157 120 152 143 114 215 208 183 247 239 219 246 239 226 245 239 230 243 239 234 241 240 234 243 240 232 243 240 230 245 239 230 245 239 230 246 241 231 246 241 231 244 241 231 244 241 231 240 237 224 250 248 235 247 244 233 242 237 227 249 241 230 209 202 186 129 121 101 123 115 95  166 154 142 90  77  63  162 148 123 210 195 163 151 134 101 158 142 102 203 190 133 188 177 108 208 198 117 177 168 82  149 140 52  164 156 63  182 173 73  199 190 93  211 199 117 189 176 103 121 107 39  183 169 101 168 155 80  222 210 134 189 176 103 170 157 82  192 181 96  162 152 73  185 177 116 104 94  59  142 130 121 244 233 232 251 243 234 250 245 236 249 246 238 247 246 240 247 246 238 247 246 238 249 246 238 249 246 238 249 246 238 249 246 238 249 246 238 249 246 238 248 242 235 255 251 243 244 241 235 251 248 242 255 251 243 249 239 231 203 186 174 172 157 139 172 159 138 78  69  44  47  43  15  86  81  53  108 105 81  105 101 84  125 122 114 115 112 113 117 120 126 115 120 130 120 118 128 122 118 128 122 118 128 114 115 123 102 108 115 94  102 108 86  94  100 90  98  105 89  97  104 82  90  97  81  89  95  77  86  92  74  82  86  72  78  83  82  85  91  83  87  92  84  88  91  85  89  93  76  80  83  74  78  81  69  73  76  64  70  73  59  66  68  64  68  72  89  91  95  80  76  75  81  74  60  157 146 113 209 197 144 192 179 115 213 199 133 171 158 96  177 167 114 183 175 141 128 122 119 97  94  100 95  99  91  120 120 92  211 200 144 231 215 143 196 183 110 199 186 115 203 188 123 183 169 101 193 182 99  198 185 101 165 150 75  196 182 114 159 146 85  119 108 62  106 98  78  97  93  76  109 112 79  137 141 92  164 161 98  189 181 104 233 222 135 185 172 81  186 170 85  202 184 97  200 184 89  211 195 98  190 174 75  158 139 43  142 119 34  178 154 69  178 155 61  176 156 55  176 161 59  207 196 95  160 151 51  178 169 74  179 165 79  186 172 86  233 221 127 216 206 111 200 192 103 173 163 85  225 216 148 174 167 113 127 121 86  107 104 84  202 199 191 226 224 223 224 220 219 242 238 235 240 239 233 244 243 234 246 245 236 246 245 236 247 246 238 247 246 238 247 246 238 247 246 238 250 249 240 241 241 230 250 248 235 238 233 219 175 168 155 171 162 145 198 190 158 166 156 119 156 146 108 166 155 125 134 123 106 136 124 115 141 131 119 131 124 112 134 128 121 125 122 116 133 126 124 134 126 122 136 126 120 134 127 118 128 125 117 140 133 120 153 136 112 145 122 93  174 151 123 147 124 98  136 115 91  127 108 84  71  54  33  59  44  24  66  53  35  82  69  51  132 120 97  156 144 118 185 174 143 179 168 137 190 175 153 170 155 133 204 190 163 255 243 217 250 243 227 253 248 236 251 248 238 251 248 238 255 251 243 255 249 242 255 249 242 255 251 243 255 249 242 255 249 242 255 249 242 255 249 242 254 248 241 254 248 241 254 248 241 254 248 241 255 252 248 255 248 246 245 237 233 253 245 239 155 148 139 102 95  81  125 121 100 130 124 105 76  64  54  90  73  65  186 166 148 197 175 155 215 195 177 211 194 175 214 202 174 217 209 175 227 216 183 236 226 190 231 221 184 229 218 185 240 226 201 246 231 207 244 232 197 236 224 187 255 243 209 244 233 203 208 203 177 107 99  79  102 87  69  105 88  69  104 93  65  107 98  72  87  79  59  105 99  83  101 94  78  75  69  53  112 106 90  111 105 89  124 117 101 132 126 110 151 147 131 139 135 118 139 138 120 152 151 133 173 171 156 180 178 163 181 179 164 173 171 156 185 183 168 180 178 163 176 173 158 171 169 154 162 159 144 163 160 147 166 164 151 169 166 151 177 175 157 179 176 154 200 198 171 166 162 131 107 99  68  142 131 98  199 188 153 193 181 144 189 174 138 
129 119 83  140 131 104 137 129 111 115 110 101 193 189 184 238 237 230 211 210 204 221 217 214 221 217 214 221 217 214 221 217 214 221 217 212 221 217 212 221 217 212 221 217 212 222 219 211 223 220 212 222 219 209 222 219 209 222 219 211 221 218 210 219 216 205 216 213 203 213 210 199 213 210 202 216 213 205 220 216 208 220 216 208 218 217 208 218 217 208 218 218 206 218 218 206 218 218 206 220 216 208 220 216 208 219 219 206 219 219 206 219 219 208 221 218 210 219 218 210 219 218 210 219 218 210 219 218 210 220 220 211 220 220 211 220 220 211 220 220 211 219 218 210 221 218 210 222 219 211 222 219 211 222 219 211 222 219 211 224 221 213 224 221 213 224 221 213 224 221 213 226 222 214 226 222 214 226 222 214 226 222 214 224 223 214 224 223 214 224 223 216 224 223 214 224 224 212 226 223 212 148 143 133 128 123 111 124 117 101 39  33  12  48  41  13  48  41  11  46  40  10  48  39  10  42  33  4   43  34  6   35  26  0   53  45  9   67  60  7   105 97  31  114 109 27  118 114 26  120 114 37  123 117 44  89  85  13  69  64  0   83  79  21  71  68  14  71  68  16  73  73  18  52  54  0   69  67  4   81  78  27  65  61  15  55  52  0   67  65  11  83  80  26  59  57  3   89  87  33  73  71  17  65  62  9   72  71  17  65  65  8   70  71  14  65  65  8   63  65  12  55  55  10  43  42  6   40  38  9   23  20  0   25  25  0   39  40  17  30  31  10  23  23  5   23  22  2   42  42  12  63  66  19  73  78  21  73  78  19  74  79  21  75  81  20  78  83  22  78  81  21  53  55  0   82  84  26  80  83  25  76  78  21  76  78  23  75  76  25  73  74  28  85  85  46  83  81  50  73  71  42  61  58  34  56  52  33  68  64  47  84  80  63  96  92  75  118 113 99  148 144 129 188 183 169 205 201 186 230 225 211 230 225 213 231 224 213 230 225 211 236 234 219 234 235 219 234 235 219 234 234 221 234 234 223 234 234 223 234 234 223 234 234 223 234 234 221 234 234 221 234 234 221 234 234 221 234 234 221 233 233 220 233 233 220 233 233 222 231 231 219 232 232 220 232 232 220 232 232 218 234 231 218 235 232 220 235 232 220 236 234 221 236 232 218 236 232 218 236 232 218 236 232 218 221 217 202 232 227 213 225 220 206 236 232 218 243 239 225 181 177 160 132 128 109 126 123 101 167 162 138 144 137 112 136 127 101 169 160 133 183 174 147 145 135 109 117 110 83  120 113 86  152 145 122 130 124 105 39  34  18  9   9   0   17  22  7   13  23  3   27  41  12  34  50  10  49  63  17  39  51  6   35  41  3   37  40  7   24  26  0   28  30  5   41  43  17  30  32  4   49  53  15  30  34  0   57  57  18  53  50  12  45  37  1   55  48  5   64  59  8   60  55  0   79  76  11  60  57  0   63  62  0   84  83  15  90  87  20  66  61  0   74  67  1   113 103 38  121 113 52  76  70  9   72  66  4   133 126 72  119 111 75  186 180 157 239 234 220 233 229 221 225 224 218 225 224 218 226 225 219 226 225 219 226 225 219 226 225 219 227 226 220 227 226 220 229 227 223 229 227 223 229 228 219 229 228 219 236 234 228 231 230 223 226 226 215 126 127 108 94  94  65  126 119 89  64  49  27  68  48  32  87  72  54  104 87  65  92  71  46  130 108 72  139 120 69  165 150 91  191 180 123 227 218 164 178 169 124 195 187 142 182 172 120 170 160 109 164 155 108 203 194 152 199 188 153 123 112 80  89  79  44  137 128 85  116 109 56  136 129 72  118 108 56  123 113 64  139 129 77  182 172 120 182 172 118 129 120 66  134 125 69  132 124 60  148 140 67  146 138 63  175 166 94  165 155 86  156 146 82  142 131 74  97  85  34  118 106 55  131 119 66  121 111 60  132 120 76  156 144 105 122 112 72  132 122 89  213 204 180 227 218 201 231 226 214 228 225 215 228 225 215 229 226 216 233 230 219 234 231 220 236 233 223 235 232 222 230 227 217 248 245 234 236 233 223 226 223 212 255 251 239 232 227 215 185 178 164 147 138 122 169 159 139 119 107 86  101 89  63  60  49  21  40  27  0   67  55  20  62  50  11  88  78  31  85  79  17  133 128 62  109 104 37  104 99  33  131 126 57  119 115 46  107 102 35  118 113 49  149 140 82  130 122 61  164 157 89  132 125 52  159 152 84  155 147 86  149 138 92  111 99  59  121 110 68  101 90  48  169 158 114 165 155 108 168 155 107 183 171 118 146 136 80  132 122 70  156 146 108 157 149 118 191 184 157 237 230 207 246 240 224 245 239 230 243 239 234 243 239 234 243 240 230 243 240 230 245 239 230 245 239 230 246 241 231 246 241 231 244 241 231 244 242 229 240 237 222 248 245 232 238 236 225 245 239 230 255 250 238 244 237 223 164 158 137 113 104 87  146 134 124 96  84  72  104 93  67  193 180 148 191 176 143 114 97  59  207 192 143 166 154 90  173 164 83  167 160 67  206 198 103 217 211 113 154 145 47  179 169 79  184 171 96  146 132 64  155 141 75  172 158 90  141 129 51  217 205 124 153 140 62  192 181 98  199 189 97  216 208 120 204 197 128 100 91  46  124 112 98  229 218 215 252 244 236 250 245 236 249 246 238 247 246 240 247 246 238 247 246 238 249 246 238 249 246 238 249 246 238 249 246 238 249 246 238 249 246 238 248 242 235 255 254 246 241 237 231 252 249 243 252 246 239 251 243 234 210 196 185 164 151 132 163 154 129 124 118 88  79  72  43  126 122 92  192 187 159 145 140 116 148 142 128 154 148 143 158 158 158 157 159 160 160 157 160 162 156 160 157 152 154 147 145 146 141 141 141 138 141 140 125 128 127 136 138 139 142 144 145 142 144 145 139 141 143 136 136 138 130 130 130 125 125 125 136 133 134 141 136 135 142 140 139 145 143 141 138 136 134 133 131 130 125 125 123 120 120 118 100 101 98  98  99  94  102 99  93  110 103 92  121 108 87  183 169 133 149 133 79  178 161 96  187 171 101 220 206 138 226 212 155 198 186 147 147 135 125 118 110 106 101 99  82  154 149 109 216 202 131 220 202 117 200 184 101 197 182 106 191 175 106 204 189 117 191 177 96  190 176 95  178 162 88  186 172 106 157 144 84  107 96  50  104 95  68  98  94  66  135 138 91  150 154 91  186 182 108 214 204 123 216 205 115 165 152 61  202 186 103 211 193 110 230 212 123 218 201 107 183 167 72  192 172 81  161 139 50  211 187 97  208 185 86  204 184 81  212 196 97  202 191 92  178 169 72  188 176 82  235 220 130 214 199 109 221 207 109 187 175 79  160 148 63  179 171 94  210 202 134 154 149 94  127 121 86  140 136 117 230 227 219 225 223 222 237 233 232 233 229 225 241 240 234 245 244 235 246 245 236 246 245 236 247 246 238 247 246 238 247 246 238 247 246 238 250 249 240 242 239 229 253 248 236 232 225 212 174 166 150 191 181 161 186 175 144 154 144 109 158 148 110 139 128 98  148 138 118 136 125 111 150 140 123 142 133 116 145 138 124 137 129 118 143 135 126 144 135 124 144 135 122 144 135 122 133 128 116 157 148 133 176 160 136 169 148 121 186 166 139 159 141 113 160 142 116 162 146 122 161 146 124 184 171 150 163 150 129 194 183 162 198 188 166 219 209 185 215 204 176 193 181 153 204 189 167 208 194 171 192 178 151 238 226 203 250 243 227 251 249 236 251 248 238 251 248 238 255 251 243 255 249 242 255 249 242 255 251 243 255 249 242 255 249 242 255 249 242 255 249 242 254 248 241 254 248 241 254 249 239 254 248 241 255 248 246 254 246 244 255 254 252 245 237 233 211 203 197 116 109 95  136 133 111 133 128 107 115 105 97  34  20  13  137 118 104 144 124 106 144 126 107 143 128 108 133 124 97  128 119 91  147 136 106 153 143 110 149 138 103 167 157 124 171 157 132 186 172 147 201 188 156 205 192 158 210 196 167 228 216 188 230 223 198 132 122 98  168 151 127 180 162 136 193 177 144 202 192 159 208 198 172 219 209 185 191 181 157 142 133 109 227 218 194 204 196 171 219 211 187 235 227 205 236 230 209 231 227 206 233 230 208 235 234 212 238 237 217 240 238 218 245 244 224 251 250 230 249 248 225 249 248 225 249 248 225 249 248 228 255 253 235 252 251 233 250 249 229 248 247 224 251 250 228 251 251 226 255 254 227 233 229 199 224 216 180 225 212 176 232 218 179 238 224 183 240 224 181 
112 101 71  141 132 105 133 124 106 83  77  72  206 201 201 236 234 228 210 209 200 218 217 211 218 217 213 220 216 213 220 216 213 221 217 214 221 217 214 221 217 214 221 217 212 218 217 208 223 222 213 224 224 212 216 215 204 225 224 215 219 218 210 222 221 210 219 219 206 215 215 201 220 220 209 219 219 208 212 212 201 229 228 217 227 229 217 222 224 212 221 224 209 222 225 210 220 220 209 224 218 213 229 226 218 215 218 201 228 233 213 219 219 208 215 214 205 226 226 215 225 225 213 214 213 202 226 226 215 225 224 215 225 224 215 234 234 225 216 215 206 220 219 213 219 218 212 218 217 211 217 216 209 225 224 218 226 225 219 229 227 221 230 229 222 224 223 214 229 228 219 225 225 213 217 217 205 224 222 211 222 219 209 223 220 210 228 225 217 227 223 218 221 218 210 221 219 204 226 223 210 146 140 135 121 115 110 125 118 107 36  29  11  44  38  15  46  41  13  42  38  10  56  49  22  43  34  8   53  43  17  32  22  0   55  47  13  60  52  3   116 111 44  113 109 23  114 110 21  122 117 37  119 112 39  71  64  0   76  71  7   92  88  30  83  78  25  53  50  0   55  52  0   67  66  5   81  77  17  61  55  5   81  75  25  60  55  0   67  63  3   70  66  6   91  87  27  86  83  22  70  66  6   89  85  25  73  72  11  45  43  0   55  53  0   74  75  11  94  95  33  63  65  10  51  52  6   35  33  4   23  20  0   50  50  20  43  43  11  31  31  2   29  29  0   56  57  18  74  77  33  61  65  16  49  53  0   58  61  5   68  71  10  72  76  11  93  97  30  69  73  6   69  73  8   64  67  7   80  83  25  62  62  5   68  68  11  72  71  17  72  71  19  80  79  29  67  66  18  69  68  21  81  79  36  76  72  40  81  76  50  98  93  68  95  90  66  105 100 79  123 117 98  101 94  78  129 122 106 136 129 113 164 157 143 201 192 179 222 215 199 229 228 208 228 232 210 232 233 214 233 233 220 233 232 224 234 233 227 239 238 231 243 242 233 225 227 215 226 228 214 239 241 225 226 229 212 237 237 223 234 234 221 232 232 220 231 230 221 231 230 223 230 229 222 232 231 222 234 234 223 234 234 223 233 233 222 233 233 220 235 232 220 235 232 220 235 232 220 235 232 220 235 232 220 227 224 211 229 227 214 237 235 222 223 221 208 239 234 220 230 225 211 148 144 129 118 114 95  145 140 114 158 152 122 126 117 88  142 133 104 120 111 82  118 109 80  106 97  68  112 103 72  100 92  61  110 104 74  51  49  20  24  23  1   36  40  25  22  32  15  27  41  14  18  34  0   50  65  16  57  70  22  49  53  15  36  36  4   46  46  19  17  17  0   55  60  26  30  36  0   42  48  10  54  59  16  51  52  6   102 98  54  79  73  30  55  49  3   90  85  32  95  93  35  78  77  13  66  66  0   60  62  0   46  46  0   64  61  0   99  93  29  104 94  31  103 93  28  104 97  26  101 96  27  62  57  0   135 127 75  123 115 79  182 176 156 227 222 212 233 229 225 225 224 218 225 224 218 225 224 218 225 224 218 226 225 219 226 225 219 227 226 220 227 226 220 229 227 223 229 227 221 230 229 218 230 229 218 229 227 223 232 231 227 227 227 218 119 120 101 93  93  63  119 116 83  90  73  49  82  60  38  122 103 80  190 168 146 119 96  70  115 93  57  136 117 64  143 130 70  186 177 121 164 156 104 149 140 93  173 165 115 129 122 65  154 148 91  138 131 76  156 148 98  171 166 115 153 147 97  108 100 48  117 110 56  161 155 96  123 117 57  132 126 67  142 135 76  135 128 71  130 121 65  171 162 108 160 148 95  158 146 93  149 138 83  142 132 72  121 112 47  144 134 65  151 141 72  157 145 80  152 139 80  179 165 111 209 195 143 201 189 136 164 154 103 157 146 100 138 129 85  123 114 73  156 148 116 230 219 200 233 223 211 231 226 214 229 226 216 228 225 215 229 226 216 233 230 219 235 232 222 234 234 223 231 231 219 236 235 224 236 235 224 237 235 222 237 235 222 234 229 217 234 230 215 153 146 133 166 158 140 149 136 113 127 113 86  128 115 85  128 115 83  83  74  36  46  37  0   62  53  11  93  84  37  80  73  16  104 98  39  107 100 41  107 100 41  123 117 57  123 117 57  112 106 47  99  92  35  125 115 59  144 132 77  146 135 77  145 134 76  152 140 85  128 117 64  127 115 67  161 148 102 111 100 55  123 112 68  188 175 129 205 192 147 149 136 91  151 138 92  180 167 119 155 144 100 147 137 102 170 161 132 155 148 120 233 225 203 245 239 223 240 235 223 245 242 234 238 235 227 245 239 230 245 240 228 245 240 228 245 240 228 246 241 229 246 241 229 246 241 229 246 241 229 244 242 227 244 242 229 239 234 224 249 244 234 239 234 222 241 237 222 206 202 185 111 105 87  126 117 97  156 147 122 87  75  47  168 155 123 193 177 144 87  72  34  194 179 134 172 159 98  212 204 111 195 190 85  220 214 109 167 160 63  113 103 20  136 125 53  134 122 55  146 134 72  150 134 78  189 174 113 186 174 98  156 145 62  175 163 81  206 196 106 199 191 87  215 209 108 204 197 117 153 146 94  124 114 92  216 206 198 250 242 231 250 245 236 255 255 247 251 248 242 249 245 240 249 245 240 249 245 240 249 245 240 249 245 240 249 245 240 249 245 240 249 245 240 249 246 238 250 247 239 243 239 234 255 249 244 249 244 236 251 243 236 237 227 219 162 153 138 155 148 118 173 168 133 164 157 128 207 201 171 228 222 190 181 175 147 169 160 143 153 146 135 158 155 147 156 156 147 156 156 147 158 157 148 162 158 152 159 156 150 160 159 152 162 161 155 165 161 156 166 162 159 169 164 161 173 169 166 163 159 155 176 169 167 181 174 172 175 169 164 184 178 173 182 176 169 188 182 175 199 196 188 201 198 190 200 197 189 199 196 188 198 194 186 181 177 174 188 182 175 206 199 185 204 193 174 206 192 167 216 201 167 170 155 107 195 179 121 189 175 107 212 198 130 217 201 145 229 213 173 212 192 173 206 188 174 201 184 158 205 190 142 194 179 104 207 191 106 200 183 105 181 164 90  172 154 83  206 189 113 187 171 88  198 185 101 171 155 81  196 181 116 213 199 144 176 163 117 170 159 115 196 188 139 173 168 99  163 157 80  181 171 93  185 174 91  200 187 96  152 140 46  219 203 117 209 194 108 215 201 108 234 220 122 168 152 55  214 198 101 185 166 72  212 191 98  234 213 118 209 191 94  181 168 70  209 197 101 224 215 115 236 225 124 221 207 102 220 206 97  183 169 58  207 195 85  205 196 97  205 199 112 173 169 97  142 139 85  127 124 89  192 189 167 226 222 214 229 225 222 231 227 224 234 230 227 244 241 235 247 243 235 249 246 238 249 246 238 249 246 238 248 244 236 246 245 236 246 245 236 254 250 242 240 235 225 254 249 237 196 190 174 152 141 122 204 192 169 167 156 128 148 135 103 161 150 120 170 158 130 180 168 143 187 175 152 184 174 150 182 172 148 180 170 146 177 167 145 185 175 154 188 178 156 191 181 157 195 185 163 183 173 151 180 169 148 187 173 148 196 182 155 199 185 158 194 181 153 187 173 148 184 170 145 175 163 140 175 163 142 175 163 142 175 163 142 158 145 125 159 146 126 150 138 114 154 142 119 160 148 127 142 129 108 154 142 121 208 197 178 254 249 235 249 246 234 248 245 234 255 252 241 255 253 245 252 249 241 252 249 243 255 252 247 252 249 241 252 249 241 252 249 239 252 249 239 254 249 239 254 249 239 254 249 239 254 248 241 255 249 249 250 244 244 255 253 248 252 246 239 245 237 229 150 143 129 117 112 88  126 121 98  134 128 114 46  36  28  91  79  69  142 131 117 130 117 99  145 133 112 134 124 102 134 124 100 123 112 84  114 103 72  132 121 91  132 121 93  136 122 99  120 103 84  132 115 93  135 118 99  144 126 109 140 122 106 141 126 106 156 139 118 186 168 140 204 184 152 215 198 161 225 211 172 231 217 185 234 223 192 238 227 197 171 160 129 242 231 200 247 239 207 244 235 204 248 241 212 247 242 219 247 242 221 249 243 222 247 244 222 248 245 223 249 246 224 250 247 225 250 247 225 249 247 220 249 247 218 249 247 220 249 246 222 253 249 232 255 253 233 248 245 221 250 250 223 246 248 220 241 243 218 250 250 223 249 244 216 234 226 192 232 219 183 242 225 190 239 219 185 245 226 187 
176 163 131 159 148 120 116 108 88  83  77  70  194 190 187 211 210 202 223 222 213 218 217 211 218 217 213 220 216 213 220 216 213 221 217 214 221 217 214 221 217 214 221 217 214 214 212 206 220 220 209 224 224 210 224 224 212 226 225 217 203 202 193 170 170 159 169 169 156 164 167 150 171 174 157 179 182 165 183 186 169 164 167 150 165 168 151 164 169 151 163 166 149 162 165 146 166 164 149 162 155 146 148 143 133 144 148 126 142 148 125 139 141 126 159 158 147 148 148 137 150 147 137 157 154 144 141 141 128 136 135 122 134 134 121 136 136 120 127 128 112 123 123 109 126 126 112 130 130 116 133 133 119 126 126 112 127 127 114 130 130 116 131 131 117 133 134 117 144 142 127 148 146 128 143 141 124 150 146 129 169 165 148 168 164 147 147 142 128 155 151 136 146 142 125 150 147 125 167 163 142 133 126 115 130 122 113 136 129 113 52  44  22  43  36  7   41  35  0   41  35  0   31  25  0   55  47  13  46  35  3   48  38  5   52  42  4   52  44  0   104 96  30  102 98  13  113 110 17  104 99  16  88  82  9   101 94  26  112 104 40  95  89  29  90  83  29  68  62  12  55  50  0   88  84  24  93  86  27  75  68  16  42  38  0   68  65  0   100 98  30  89  86  19  97  94  27  99  93  27  78  72  6   90  87  20  81  78  11  91  90  26  84  83  17  99  99  28  123 125 56  91  93  29  78  80  27  63  63  22  53  52  15  77  76  38  58  60  18  45  47  8   50  52  10  71  75  23  82  87  31  73  77  23  71  75  21  65  68  10  69  72  12  66  70  5   83  87  22  66  70  5   71  75  10  66  69  9   78  81  21  68  68  11  67  67  10  67  67  10  70  71  14  74  74  17  68  68  11  63  64  7   59  58  6   66  64  19  54  51  13  89  86  50  84  81  48  79  74  44  97  93  65  108 103 77  118 113 88  105 100 77  112 104 81  121 111 90  124 116 96  143 142 120 163 167 145 198 199 181 224 222 207 237 234 226 236 232 227 233 229 221 226 226 215 234 234 221 237 237 221 243 243 227 233 234 218 236 236 222 234 234 221 232 232 220 230 229 220 233 232 226 238 237 230 234 234 225 223 222 211 233 233 222 233 233 222 233 233 220 233 233 220 235 232 220 235 232 220 235 232 220 235 232 220 228 225 213 229 227 214 233 230 217 227 224 211 235 231 216 231 226 212 192 187 175 133 129 112 136 131 103 163 157 125 149 141 109 124 115 84  93  85  54  104 95  64  120 112 80  150 142 109 119 111 75  78  72  36  75  72  34  42  42  12  19  21  5   14  21  7   24  36  16  9   23  0   37  51  6   50  59  13  45  49  11  35  33  2   53  51  19  61  59  28  59  62  25  47  53  12  37  41  1   31  34  0   69  65  16  121 116 67  95  86  41  60  53  8   64  61  7   77  78  19  98  101 39  53  56  0   44  45  0   74  75  13  69  67  6   82  76  17  102 91  33  106 96  33  108 101 31  104 100 29  105 100 36  119 112 60  106 98  64  185 179 158 226 220 213 228 224 221 225 224 218 225 224 218 225 224 218 225 224 218 226 225 219 226 225 219 227 226 220 227 226 220 229 227 223 229 227 221 230 229 218 230 229 218 229 227 223 233 232 228 229 228 219 119 120 101 72  72  42  117 113 80  118 102 73  120 99  74  117 96  71  214 191 164 148 122 97  126 105 69  127 111 57  129 116 56  123 114 60  112 105 53  120 115 64  142 138 82  129 122 63  123 117 55  121 114 55  118 112 53  119 115 55  102 98  38  75  69  10  73  67  7   118 112 53  131 125 63  156 150 88  124 118 56  129 122 63  135 126 70  134 122 69  130 117 67  141 129 78  113 101 49  116 104 51  114 103 46  119 110 42  133 124 54  118 106 40  125 113 51  207 193 136 219 204 152 181 169 118 162 150 99  157 147 98  138 129 85  132 124 86  188 179 150 235 225 208 239 229 218 231 225 216 229 226 216 229 226 216 229 226 216 233 230 219 235 232 222 232 232 220 234 234 223 240 240 229 240 240 229 242 239 227 242 239 227 245 240 226 209 204 190 148 142 128 166 158 140 129 117 91  109 96  66  112 99  67  128 115 81  108 98  60  96  86  49  94  84  44  97  88  46  93  84  37  107 99  49  102 94  44  100 91  44  119 111 64  118 110 63  112 104 57  105 97  50  115 105 58  141 128 83  142 129 84  118 105 61  130 116 73  133 119 78  146 132 91  158 144 103 128 117 75  116 105 63  152 138 97  166 152 111 131 117 78  137 122 84  153 139 100 120 108 71  129 117 82  159 148 118 157 148 122 200 192 170 249 242 224 239 234 220 238 236 225 244 241 231 245 240 228 245 240 228 245 240 228 245 240 228 246 241 229 246 241 229 246 241 229 246 241 229 244 242 227 244 242 229 239 234 222 249 244 234 243 239 227 246 241 229 226 222 207 145 139 120 122 114 92  157 148 122 168 157 127 183 170 138 181 166 132 141 127 91  151 135 95  196 183 124 205 197 106 205 199 94  230 225 117 215 208 110 135 124 48  138 126 62  104 91  32  144 131 74  128 113 54  168 153 88  155 143 63  158 148 60  193 182 97  216 205 115 236 228 126 200 193 93  186 179 95  146 140 79  99  91  59  188 180 164 245 238 225 255 252 243 247 243 235 252 249 243 249 245 240 249 245 240 249 245 240 249 245 240 249 245 240 249 245 240 249 245 240 249 245 240 250 247 239 250 247 239 245 239 234 255 249 244 253 247 240 248 242 235 239 231 227 172 165 151 154 150 120 178 175 137 185 178 149 212 205 178 213 207 175 181 175 145 177 169 149 210 204 188 198 194 179 196 194 179 196 194 179 198 196 180 198 195 182 195 193 180 198 195 182 203 198 186 205 200 190 207 202 193 210 204 195 214 209 199 209 201 193 214 206 197 216 208 199 214 206 197 211 204 193 208 201 189 206 199 185 204 197 184 203 196 183 203 198 184 207 203 188 210 205 193 218 210 204 216 206 198 203 192 175 207 194 173 219 204 182 204 189 158 172 156 114 171 155 101 193 179 115 220 205 144 213 196 145 198 179 140 225 202 178 228 205 178 205 184 146 215 197 139 205 191 112 187 174 87  222 206 123 220 203 122 166 147 67  183 164 84  172 156 71  197 184 99  181 168 92  199 185 117 198 184 125 216 204 149 177 167 107 208 198 129 207 197 116 184 173 86  193 182 97  188 177 87  191 180 82  183 172 71  218 203 110 155 140 49  194 180 87  220 206 110 211 195 96  221 206 104 228 213 113 195 177 80  202 184 87  230 213 116 213 199 101 202 191 90  202 193 89  214 204 96  211 198 84  196 181 65  206 193 79  213 201 91  240 231 130 212 206 119 156 154 86  145 144 94  141 140 104 205 202 180 227 224 213 230 226 223 233 229 225 237 234 228 244 241 233 247 243 235 247 243 235 248 244 236 248 244 236 248 244 236 246 245 236 246 245 236 250 247 239 252 246 237 237 230 218 151 142 127 149 139 120 220 207 184 219 205 180 217 203 176 210 199 173 215 203 178 221 209 183 225 214 188 219 210 183 213 204 178 207 195 169 201 189 164 203 193 167 199 190 164 195 185 159 191 182 155 189 177 154 189 177 154 197 185 162 208 196 173 217 205 182 222 210 187 229 217 194 234 221 198 235 222 201 235 222 201 235 222 201 235 222 201 237 225 204 243 230 210 232 220 199 234 221 202 238 225 207 222 209 191 223 210 192 254 245 228 229 227 212 229 229 215 238 236 225 250 247 237 255 253 245 252 249 241 252 249 243 255 252 247 252 249 241 252 249 241 252 249 239 252 249 239 254 249 239 254 249 239 254 249 239 255 249 244 254 247 249 252 245 245 255 251 243 253 248 238 255 250 241 188 181 168 110 105 81  130 124 101 146 140 124 103 96  85  51  43  34  152 143 130 145 134 115 173 161 138 146 136 114 143 133 112 144 132 107 143 131 103 140 129 101 130 118 95  140 125 105 140 122 106 140 122 108 131 112 100 134 116 104 125 106 94  138 118 102 170 151 127 191 172 144 202 185 150 208 191 154 213 199 161 227 215 178 239 226 192 243 231 196 182 169 135 236 226 190 243 233 197 239 229 194 244 235 204 249 242 217 247 242 219 247 242 219 247 242 219 246 241 218 247 242 221 247 242 221 249 243 220 249 244 216 250 246 215 250 245 217 251 246 220 255 252 233 250 244 223 239 235 207 249 248 216 241 244 214 237 239 211 245 245 218 244 239 211 233 225 191 233 221 184 245 228 195 245 225 193 241 222 185 
168 156 115 145 134 102 83  75  50  68  64  47  199 196 186 218 218 206 216 215 206 218 217 211 218 217 213 220 216 213 220 216 213 221 217 214 221 217 214 221 217 214 221 217 214 227 226 220 220 220 209 218 218 204 216 216 202 224 223 214 170 170 161 80  79  68  75  75  59  105 108 89  107 111 89  119 122 101 132 135 113 104 107 85  80  84  62  68  71  47  72  76  52  75  74  52  79  76  56  74  65  50  61  55  39  55  59  33  50  56  29  55  56  37  89  87  74  68  66  55  77  72  62  94  90  78  86  84  67  93  92  69  84  83  58  67  67  38  65  65  35  67  67  38  64  64  34  60  61  31  57  57  27  58  58  28  66  66  37  77  77  47  85  85  55  107 107 77  117 115 84  120 118 87  118 114 84  124 120 89  125 121 91  119 115 87  111 107 79  91  87  59  111 107 77  122 118 83  119 112 80  116 109 82  135 128 103 138 132 102 54  46  10  60  53  8   56  51  0   47  41  0   53  45  0   86  76  27  65  55  6   73  63  14  66  56  5   108 99  43  104 94  27  91  84  0   128 122 33  111 103 24  106 98  25  137 127 60  106 96  31  80  72  9   84  75  17  73  64  10  80  73  18  108 102 38  101 93  30  74  66  7   47  41  0   100 95  24  119 116 42  108 104 30  109 105 31  104 100 27  97  93  20  113 112 37  100 99  22  88  87  7   74  73  0   79  80  2   103 104 31  91  93  24  88  89  25  83  83  26  81  81  26  80  82  29  70  71  21  66  67  19  71  73  22  79  82  22  79  83  20  72  75  17  86  89  31  76  79  17  71  74  12  58  61  3   65  68  10  63  66  8   75  77  19  70  73  11  75  78  15  68  69  9   56  57  0   54  54  0   61  61  4   60  60  3   67  67  10  69  70  10  70  71  14  66  66  11  62  62  9   102 101 51  91  90  43  54  52  7   60  58  15  82  79  39  95  92  52  117 112 75  121 114 77  111 98  66  84  75  46  73  73  48  75  76  55  84  82  64  89  84  70  134 129 117 181 175 166 231 226 214 241 238 225 243 241 226 238 237 219 229 227 210 235 233 218 236 234 219 237 235 222 234 231 218 231 229 218 230 229 218 227 227 216 231 231 219 241 241 228 235 232 220 235 232 220 235 232 220 235 232 220 235 232 220 235 232 220 235 232 220 235 232 220 231 229 216 229 227 214 226 223 210 231 229 216 228 223 211 236 232 220 233 228 216 154 150 133 116 111 83  143 137 105 167 158 127 125 114 84  124 113 83  138 127 97  131 122 91  126 118 84  100 93  55  113 106 65  112 107 65  57  56  20  39  40  19  26  31  18  1   9   2   2   11  0   29  40  4   48  55  11  49  48  12  41  38  3   33  30  0   63  60  23  46  49  5   60  63  17  57  58  12  38  36  0   75  67  18  109 99  50  71  62  19  55  51  4   37  39  0   58  63  4   68  74  13  61  67  6   65  68  8   96  97  37  69  67  8   72  68  10  96  84  29  96  85  27  98  90  24  104 99  33  116 110 50  133 125 78  119 111 77  189 183 163 234 228 221 230 226 223 225 224 218 225 224 218 225 224 218 225 224 218 226 225 219 226 225 219 227 226 220 227 226 220 229 227 223 229 227 221 230 229 218 230 229 218 229 227 223 233 232 228 229 228 219 119 120 101 78  78  48  141 138 103 158 142 111 140 119 92  72  52  24  207 184 155 180 155 127 133 112 76  121 104 53  127 116 58  107 100 45  95  90  35  106 102 46  125 121 61  124 119 54  115 110 43  107 102 33  102 97  28  124 121 54  134 131 66  125 119 58  75  69  10  71  64  5   117 111 51  99  92  33  131 125 65  125 119 60  122 113 57  126 114 61  97  85  34  78  66  18  128 116 68  165 152 102 125 113 58  125 115 52  116 106 39  134 121 57  148 135 73  146 132 78  177 162 112 170 158 108 166 153 105 148 137 91  119 110 70  147 139 105 225 216 189 239 230 214 236 228 217 231 225 216 229 226 216 229 226 216 229 226 216 235 232 222 236 233 223 231 231 219 239 239 227 233 233 222 233 233 222 235 232 220 235 232 220 248 244 229 172 168 154 152 145 129 173 162 145 122 110 84  109 96  68  101 88  58  113 99  70  126 113 81  146 132 100 149 136 104 148 135 101 142 131 96  147 137 102 139 129 96  140 130 97  150 139 108 147 136 106 147 136 106 151 140 109 146 132 102 162 148 119 165 152 122 149 136 106 158 145 115 159 146 116 163 150 120 163 150 120 162 148 119 142 129 99  149 136 106 156 143 113 144 131 99  147 134 102 152 139 107 130 117 85  140 127 93  158 147 114 161 152 121 163 156 129 242 236 215 243 239 223 238 233 219 246 241 229 245 240 228 245 240 228 245 240 228 245 240 228 246 241 229 246 241 229 246 241 229 246 241 229 244 242 229 244 242 229 239 234 222 249 244 232 245 240 228 249 244 232 247 242 228 189 183 167 101 93  73  121 112 88  208 197 169 179 166 134 174 159 125 168 153 117 107 90  52  185 170 118 213 202 126 187 179 86  199 192 92  188 181 84  174 165 84  117 105 39  146 132 78  137 124 67  150 137 66  149 137 57  158 148 60  165 155 67  193 181 101 221 209 129 199 188 101 143 134 46  168 161 79  145 140 73  100 93  52  147 139 114 242 235 219 254 249 237 243 240 232 249 245 240 249 245 240 249 245 240 249 245 240 249 245 240 249 245 240 249 245 240 249 245 240 249 245 240 250 247 239 250 247 239 245 239 234 255 249 244 254 248 241 249 244 236 251 242 238 195 188 177 146 142 113 167 164 128 205 198 171 174 168 140 178 171 142 159 153 123 131 124 101 193 185 165 202 196 177 200 197 177 200 197 177 200 197 177 200 197 177 197 193 174 198 194 175 199 195 178 197 191 175 196 190 174 200 193 177 203 197 181 201 194 178 196 190 174 197 188 172 198 189 174 199 190 175 205 196 181 207 198 183 206 197 182 211 202 186 206 199 183 201 194 178 199 192 176 199 191 180 200 191 178 182 171 156 178 164 148 205 190 172 197 181 155 199 184 136 185 169 115 171 151 101 194 174 128 201 180 139 211 190 154 212 191 157 237 216 177 214 195 140 202 186 116 192 175 95  213 198 107 216 202 109 225 210 117 207 193 100 207 192 102 170 154 68  212 198 117 155 143 65  217 203 131 216 205 132 221 210 136 173 163 87  180 171 90  216 204 119 218 207 118 193 180 89  160 149 50  194 185 72  190 182 66  230 218 113 214 200 103 178 163 72  185 170 77  192 179 76  208 196 89  201 189 82  211 196 92  204 189 85  235 222 117 187 177 71  202 192 84  198 192 78  151 142 27  214 201 87  193 176 68  192 174 73  213 199 103 217 206 118 208 202 127 135 131 73  134 133 88  170 168 137 223 219 200 229 226 216 231 228 222 234 230 224 242 238 233 243 240 232 244 241 233 247 243 235 247 243 235 247 243 235 247 243 235 246 245 236 246 245 236 245 242 234 254 249 239 223 216 204 145 136 123 175 164 147 218 205 187 220 207 184 227 214 191 210 198 177 210 197 179 209 198 179 208 197 178 218 207 188 212 202 182 203 192 173 197 186 167 196 185 166 201 190 171 205 195 175 209 198 179 205 195 173 203 193 171 206 196 175 215 204 183 205 195 173 212 202 180 223 213 191 230 219 198 231 220 201 231 220 201 231 220 201 231 220 201 227 217 198 238 227 208 228 218 199 223 212 193 230 219 202 225 214 197 216 205 188 225 216 198 221 219 204 222 222 208 236 233 223 249 246 236 255 253 245 251 248 240 251 248 242 255 252 247 252 249 241 252 249 241 252 249 239 252 249 239 254 249 239 254 249 239 255 250 240 254 248 243 254 247 249 255 249 249 252 246 239 255 250 240 255 255 246 233 226 215 121 115 94  116 111 87  123 117 96  133 127 111 42  35  24  154 144 131 223 213 191 223 213 187 188 178 154 170 161 136 149 137 111 137 125 100 126 114 91  137 124 104 136 120 105 133 117 104 126 110 97  132 115 103 131 112 100 116 98  83  131 113 94  165 148 124 193 177 148 204 189 155 210 195 159 217 202 166 224 211 174 228 216 179 231 218 183 186 174 139 237 224 192 244 231 199 239 229 196 244 235 204 251 242 213 249 242 215 249 242 217 249 242 217 255 249 224 255 248 226 255 247 225 255 247 223 254 247 219 254 247 217 253 246 216 253 246 218 251 243 223 241 233 211 227 221 189 235 231 196 250 251 217 245 246 214 254 251 225 253 246 218 230 221 188 222 210 175 224 207 176 214 196 166 229 212 177 
159 150 96  151 142 99  74  68  38  70  66  49  192 189 179 231 230 221 218 217 211 218 217 213 218 217 213 220 216 213 220 216 213 220 216 213 220 216 213 220 216 213 220 216 211 223 222 213 217 217 205 217 217 203 223 223 209 233 232 224 172 171 162 60  59  48  66  66  50  102 101 79  99  96  72  107 104 80  121 118 94  107 104 80  110 107 83  100 98  71  85  83  56  74  69  43  70  60  36  72  59  38  77  67  43  53  56  25  60  67  37  71  73  48  101 100 78  98  95  73  95  90  66  80  75  49  89  85  54  86  86  47  86  86  43  77  78  30  96  97  46  90  89  39  93  90  41  94  91  42  96  93  44  110 107 58  108 107 57  105 104 55  104 103 53  117 114 65  121 117 69  117 114 65  109 106 57  110 104 56  107 102 53  99  93  45  91  85  37  128 123 74  124 118 68  109 103 53  93  88  37  100 91  44  96  88  41  118 110 61  102 95  40  122 114 53  122 115 49  95  88  22  142 134 69  146 136 71  132 120 56  127 114 52  125 113 51  138 125 64  131 120 51  124 115 32  150 141 57  110 97  21  98  84  14  121 109 40  100 88  19  109 97  31  110 100 35  94  82  25  105 94  36  116 106 39  115 108 38  85  77  14  92  84  19  106 100 27  93  87  12  97  91  15  99  95  19  80  76  0   96  93  16  123 119 43  96  95  16  81  81  0   79  79  0   83  84  6   93  93  22  66  68  0   72  73  7   82  84  17  89  91  24  70  73  11  76  79  19  79  81  26  79  81  26  70  74  9   63  67  2   60  63  0   84  87  27  83  86  24  72  75  15  51  53  0   55  56  6   61  62  12  77  79  26  71  74  14  72  76  13  86  86  27  68  68  11  62  62  5   73  73  16  55  55  0   51  51  0   53  54  0   61  62  2   49  50  0   76  77  17  102 102 45  89  89  34  62  62  9   55  54  5   65  63  16  100 96  50  145 138 93  170 159 115 156 143 100 109 97  60  65  63  34  52  52  27  39  36  12  29  23  0   29  23  0   61  56  33  87  81  58  106 104 77  151 149 122 192 190 163 230 227 201 255 253 229 239 235 216 236 232 216 235 231 216 231 229 216 233 230 219 236 233 223 235 232 224 231 229 218 233 230 217 234 231 218 234 231 218 234 231 218 235 232 220 235 232 220 235 232 220 235 232 220 231 229 216 230 228 215 221 218 206 235 232 220 224 219 207 234 229 217 250 246 234 190 186 169 91  87  59  119 112 80  177 169 137 137 126 95  146 135 105 158 147 116 154 145 114 159 150 117 130 122 84  98  91  48  108 104 58  115 112 70  72  73  38  7   9   0   19  24  9   19  25  7   31  37  3   46  48  9   54  51  13  60  52  14  64  57  16  69  64  20  40  41  0   48  49  1   65  63  16  51  48  0   80  70  19  106 96  47  47  38  0   72  68  24  54  58  7   76  83  26  45  52  0   106 114 54  93  97  41  79  81  26  73  73  18  74  69  16  69  57  6   74  62  7   86  78  17  90  84  23  78  71  14  160 152 107 133 124 93  174 168 150 231 225 216 217 213 210 225 224 218 225 224 218 225 224 218 225 224 218 226 225 219 226 225 219 227 226 220 227 226 220 229 227 223 229 227 221 230 229 218 230 229 218 229 227 223 233 232 228 229 228 219 119 120 101 78  78  46  140 137 102 187 171 140 198 178 148 118 97  68  204 182 153 186 161 133 131 109 73  129 112 65  131 119 66  140 133 79  115 113 55  112 110 49  126 125 59  117 114 47  133 129 60  145 140 71  121 116 47  127 125 55  140 137 70  147 142 78  109 103 41  60  54  0   71  65  3   122 116 54  112 107 45  121 114 55  128 119 63  114 103 50  96  83  35  90  77  31  120 107 62  152 139 91  127 115 63  126 115 55  159 146 85  127 114 52  121 108 48  134 119 67  113 98  50  151 138 88  162 150 101 147 135 94  119 109 74  171 162 134 242 232 211 235 226 213 228 220 209 231 225 216 229 226 216 229 226 216 229 226 216 235 232 222 234 231 220 236 235 224 236 235 224 237 236 225 237 236 225 240 237 224 240 237 224 227 223 208 154 147 134 158 149 134 175 164 147 186 174 150 197 183 158 190 176 151 197 183 158 200 186 159 197 183 156 185 171 144 185 173 145 177 165 139 181 169 144 177 165 139 184 171 148 172 160 136 167 155 132 172 160 136 182 170 147 171 159 135 171 156 136 171 156 136 173 158 138 177 162 142 166 151 131 163 148 128 170 155 133 172 158 133 165 151 126 166 152 127 165 152 124 165 152 124 159 146 118 163 149 122 161 147 118 148 135 101 154 144 109 141 133 99  124 118 88  212 207 184 250 247 228 239 235 218 241 237 222 245 240 228 245 240 228 245 240 228 245 240 228 246 241 229 246 241 229 246 241 229 246 241 229 244 242 229 244 242 229 239 234 222 249 244 232 239 234 222 245 240 228 248 244 229 225 221 204 127 122 101 102 95  72  178 169 143 204 193 163 201 188 156 176 161 128 111 94  59  168 153 108 223 210 149 166 156 78  184 176 83  164 156 63  83  74  0   83  72  5   141 127 72  149 135 78  226 213 138 192 181 96  147 136 47  154 143 56  183 171 93  188 175 99  149 137 57  198 188 105 179 172 88  170 164 89  143 138 85  133 127 90  243 237 214 241 237 222 249 246 238 245 242 236 249 245 240 249 245 240 249 245 240 249 245 240 249 245 240 249 245 240 249 245 240 249 245 240 250 247 239 250 247 239 245 239 234 255 249 244 252 246 239 253 247 240 255 252 248 218 211 200 139 134 109 174 170 139 206 199 172 123 116 89  135 128 99  137 131 101 92  85  58  158 150 128 197 188 170 195 189 172 195 189 172 195 189 172 193 186 170 189 183 167 190 184 168 192 185 169 190 184 168 192 183 168 195 187 171 197 191 175 199 192 176 188 180 164 185 176 161 188 180 164 192 181 167 197 186 169 190 179 162 178 167 151 196 185 168 195 187 169 198 189 172 199 190 173 181 173 155 195 187 169 204 193 174 179 166 147 208 193 173 210 193 162 207 191 139 191 176 115 200 181 128 190 171 121 187 167 121 217 197 152 186 166 118 202 184 128 209 193 125 204 189 113 208 192 109 204 189 98  184 170 72  206 193 92  207 194 94  220 206 110 226 214 125 204 190 108 196 183 106 203 190 115 191 181 100 203 195 109 207 197 107 144 134 44  162 151 64  203 192 102 190 178 84  176 166 62  200 192 72  209 202 79  211 199 89  207 194 94  221 206 118 188 174 83  173 160 58  218 206 96  191 179 69  200 188 78  194 183 73  198 186 76  195 186 75  201 192 79  221 215 99  215 206 91  202 188 76  207 189 86  208 189 95  197 181 95  172 162 85  169 161 98  124 121 70  141 138 101 206 204 177 227 223 206 230 227 219 233 229 223 236 232 227 244 241 235 243 240 232 242 239 231 243 240 232 243 240 232 248 244 236 247 243 235 245 244 235 245 244 235 242 239 231 247 243 235 219 214 204 181 174 163 206 197 182 212 201 184 203 192 173 220 207 188 224 211 195 219 208 193 215 203 189 211 200 185 220 209 195 219 208 193 216 204 190 215 203 189 210 199 184 216 204 190 223 211 197 228 217 203 233 222 205 226 215 198 223 212 195 225 214 197 221 211 194 221 211 194 223 212 195 223 212 195 224 213 196 224 213 196 224 213 196 224 213 196 233 222 205 247 236 219 238 227 210 227 218 201 240 231 216 246 237 221 236 227 212 232 226 210 233 230 215 231 231 217 241 238 225 251 248 238 255 253 245 251 248 240 251 248 242 255 252 247 252 249 241 252 249 241 252 249 239 252 249 239 254 249 239 254 249 239 255 250 240 255 249 242 253 246 246 255 252 252 250 245 236 255 251 239 250 242 235 255 250 241 169 163 145 110 104 83  132 127 104 134 129 108 70  64  50  87  78  65  254 244 222 240 231 204 246 237 208 227 218 189 224 213 183 224 213 183 208 197 169 214 202 178 204 189 169 208 193 175 177 161 146 159 144 129 147 131 116 135 118 101 147 130 111 175 158 134 193 177 148 209 193 162 222 207 173 232 219 185 241 229 192 240 228 191 225 212 178 205 192 158 243 230 198 250 237 205 245 234 204 251 240 210 252 241 213 251 242 213 251 242 213 251 241 215 252 242 216 252 242 218 253 243 219 253 244 217 253 244 217 253 244 215 254 245 216 254 245 218 255 247 223 253 246 218 236 231 194 235 230 191 249 245 210 242 241 207 251 246 218 248 241 212 239 231 197 234 221 187 237 221 192 229 213 184 236 221 187 
176 168 102 171 164 107 88  83  44  70  65  53  183 178 179 212 210 211 213 213 211 217 215 211 217 215 211 219 215 211 219 215 211 220 216 213 220 216 213 220 216 213 220 216 211 216 215 206 216 215 204 227 228 212 212 212 199 232 231 222 191 190 184 63  63  50  72  68  51  74  64  40  73  60  32  64  50  23  55  41  14  58  44  17  105 91  64  120 106 79  93  79  52  91  77  48  81  65  36  97  79  51  108 97  66  46  47  15  65  71  37  68  71  38  84  83  47  69  67  25  80  76  30  83  79  28  87  85  29  115 114 51  127 126 58  124 125 52  138 137 59  130 121 47  123 112 39  127 116 42  142 131 57  151 140 66  154 146 71  148 140 65  135 127 53  142 136 61  141 134 62  122 116 43  116 110 37  124 120 46  145 142 65  122 118 42  108 104 28  123 119 43  125 121 48  121 117 43  127 121 48  122 116 41  120 114 39  107 101 26  99  91  16  117 109 32  131 123 46  103 95  16  124 114 36  114 102 24  108 96  20  127 114 41  151 138 67  150 137 66  132 118 46  143 131 51  124 110 30  102 86  16  94  77  10  96  80  10  82  68  0   110 96  25  100 86  18  89  77  13  70  57  0   102 91  18  98  90  15  106 97  27  108 98  31  105 96  26  102 93  21  111 102 30  114 108 35  99  93  20  98  91  18  102 96  23  99  95  19  88  87  7   93  92  15  85  83  13  89  88  25  68  69  7   79  80  18  77  80  11  88  90  19  69  73  4   80  84  19  84  87  27  75  78  17  69  73  8   65  69  2   55  58  0   64  67  9   66  69  9   66  69  13  51  53  2   51  52  4   51  49  2   72  71  21  69  69  14  66  66  7   75  75  18  74  74  17  68  68  11  70  71  14  52  50  0   69  66  10  59  57  0   55  53  0   52  50  0   73  71  13  83  83  26  80  80  25  70  70  18  62  61  12  61  60  12  89  86  39  147 140 90  188 176 123 182 165 112 124 111 63  77  71  36  68  66  35  72  66  34  81  76  39  53  49  5   62  58  11  83  79  32  88  86  41  95  93  48  109 107 64  126 124 82  141 138 101 187 182 154 210 204 184 232 226 210 230 225 213 234 228 221 236 230 228 236 230 230 233 229 225 231 229 218 234 231 218 234 231 218 234 231 218 234 231 218 234 231 218 233 230 217 233 230 217 231 229 216 233 230 217 231 229 216 231 229 216 228 225 213 230 228 215 242 239 227 225 221 204 127 123 95  103 97  65  162 154 122 123 112 82  117 106 76  114 103 72  105 96  65  98  92  57  123 115 79  134 127 86  127 121 75  119 116 64  119 119 65  83  85  32  68  71  25  24  26  0   82  84  45  51  48  10  40  33  0   54  45  3   86  77  30  77  71  23  66  65  15  45  44  0   33  32  0   52  46  0   85  75  22  130 120 71  74  65  25  69  64  22  60  64  15  42  49  0   59  65  11  90  97  42  63  67  13  61  62  9   70  70  18  72  67  16  68  55  7   83  69  19  85  78  21  82  76  19  64  56  4   161 152 110 148 139 110 171 162 145 221 218 208 223 222 215 225 224 218 225 224 218 225 224 218 225 224 218 226 225 219 226 225 219 227 226 220 227 226 220 226 227 220 226 227 218 227 229 217 227 229 217 224 224 220 227 228 223 228 229 222 130 130 112 99  102 70  125 122 84  134 119 86  195 173 142 157 137 105 173 151 119 185 160 130 179 155 120 153 134 93  127 115 67  128 124 68  115 116 54  130 132 65  130 130 62  110 107 40  139 134 68  105 100 36  140 135 71  187 181 117 158 153 86  131 126 59  126 122 53  108 103 32  96  91  22  113 105 40  106 98  35  123 115 54  100 91  35  73  61  8   75  62  14  82  69  23  128 115 70  116 101 56  157 142 92  123 109 55  141 127 68  149 134 75  144 128 74  140 122 76  114 98  53  124 111 63  134 121 76  144 133 93  137 126 95  206 197 173 241 232 215 230 221 210 242 234 225 234 229 219 230 227 217 228 225 215 229 226 216 234 231 220 234 231 220 234 234 223 233 233 222 234 231 220 235 232 222 238 236 223 243 241 228 192 188 173 146 140 124 169 160 145 165 157 139 156 146 125 174 162 139 188 176 153 196 184 161 195 183 162 184 171 150 178 165 144 180 167 147 167 155 134 154 142 121 158 145 125 156 143 122 164 151 130 156 143 122 152 140 119 152 140 119 159 146 126 145 132 114 136 123 104 136 123 104 143 130 111 128 115 96  126 113 95  143 130 109 133 122 96  142 130 102 145 134 106 143 132 101 144 133 102 142 131 100 138 127 97  142 131 98  138 128 93  137 127 91  132 124 90  129 123 93  186 180 157 249 242 224 247 243 226 241 237 222 243 239 227 245 240 228 245 240 228 246 241 229 246 241 229 245 240 228 242 237 225 240 235 223 245 240 228 245 240 228 245 240 228 245 240 228 241 236 224 241 236 224 248 243 231 240 236 221 181 175 157 92  84  64  130 120 96  220 208 182 226 212 185 172 156 127 125 110 78  151 136 98  219 203 156 145 132 71  203 194 113 142 133 49  99  88  14  141 128 64  131 114 60  133 117 61  160 149 78  130 120 39  124 116 28  178 169 81  160 151 70  155 145 64  188 180 92  171 163 72  204 199 107 219 214 131 180 175 108 144 141 92  215 211 180 248 244 227 255 255 246 244 241 235 248 244 238 248 244 238 248 244 238 248 244 238 249 245 240 249 245 240 249 245 240 249 245 240 249 245 240 249 245 240 250 244 240 250 244 240 247 241 236 248 242 237 255 249 245 242 234 225 175 169 149 147 143 115 190 183 153 123 117 87  105 98  70  133 126 98  113 104 75  156 147 122 196 185 170 199 189 181 191 181 173 193 183 175 195 185 177 195 185 177 195 185 177 195 186 175 187 178 167 187 174 165 183 171 161 179 169 159 188 179 168 178 168 158 176 164 152 182 170 158 193 179 168 194 180 167 177 163 149 166 152 139 184 170 156 195 181 168 187 175 161 197 186 169 188 178 154 187 177 151 185 176 150 136 124 96  168 154 125 203 187 147 209 193 132 195 181 108 161 146 73  191 175 106 178 161 96  219 203 138 205 189 120 189 174 101 204 189 113 207 193 111 187 172 86  185 170 79  185 171 73  193 180 80  188 175 75  204 190 92  215 202 111 186 172 88  151 139 63  186 174 98  229 220 134 209 202 109 204 195 98  162 152 58  160 149 59  197 186 99  180 168 74  168 158 54  197 190 69  210 203 80  195 184 74  206 193 92  209 194 106 160 146 55  208 195 93  184 172 62  205 193 83  206 194 84  192 180 70  159 148 38  205 196 85  204 195 84  203 196 84  216 206 98  195 183 76  195 179 78  213 193 104 206 189 110 196 184 120 139 132 80  119 114 74  161 159 128 236 233 214 226 221 209 231 225 220 219 213 210 239 233 228 245 239 232 244 241 233 247 244 233 247 244 233 248 245 234 247 244 233 247 244 233 245 244 233 245 244 233 248 248 239 244 241 233 227 224 213 235 230 218 229 221 210 234 225 212 234 225 210 252 240 226 246 234 222 242 233 220 240 230 218 237 228 215 243 234 221 242 233 220 241 232 219 240 230 218 239 229 216 239 229 216 237 228 215 236 227 214 236 227 214 239 230 214 241 232 217 243 234 219 243 234 219 243 234 219 243 234 219 243 234 219 247 238 223 247 238 223 247 238 223 247 238 223 246 237 221 246 237 221 247 238 223 246 239 226 252 245 232 243 236 222 240 234 220 243 239 225 240 237 222 249 246 234 251 249 236 247 244 233 248 244 236 252 249 241 252 249 243 248 244 238 252 249 241 252 249 241 254 251 240 254 251 240 255 250 240 255 250 240 255 250 240 255 249 242 254 248 245 255 250 245 253 248 238 255 250 238 245 237 231 255 252 246 223 216 202 109 103 82  133 128 103 138 133 107 115 108 94  35  25  13  189 179 157 239 230 201 235 227 194 224 216 180 192 182 144 222 212 172 234 224 186 252 242 207 241 228 198 255 243 216 255 243 218 253 238 216 251 237 214 246 231 209 239 224 202 233 219 194 228 214 187 228 215 185 228 215 185 228 215 183 234 221 187 241 228 194 236 224 189 214 202 167 234 221 189 243 230 198 236 223 191 247 233 204 241 230 199 243 232 201 248 237 206 250 238 210 252 241 213 253 242 216 255 244 218 255 246 221 246 235 209 251 240 212 250 238 210 243 231 203 251 239 214 240 232 200 216 209 168 208 201 158 239 234 194 244 239 204 247 240 210 246 237 208 244 233 201 246 236 203 251 238 210 255 241 214 249 236 204 
192 187 109 210 206 137 148 145 93  68  64  43  199 195 190 231 230 221 220 222 212 218 217 211 218 217 213 220 216 213 220 216 213 219 215 211 219 215 211 219 215 211 219 215 209 217 216 207 218 218 204 222 222 206 216 216 200 216 215 206 182 181 174 56  56  43  63  59  40  91  77  50  89  68  39  76  56  26  65  45  15  79  59  29  103 82  53  114 94  64  108 88  59  108 89  57  92  73  38  113 92  56  114 100 64  54  53  17  44  47  12  40  42  3   58  59  11  93  91  33  110 105 40  88  83  16  81  77  5   85  81  3   105 103 22  133 131 46  127 123 35  140 129 44  132 119 32  124 111 24  125 112 25  130 117 30  134 121 35  135 124 37  134 123 38  131 122 37  124 115 30  110 101 16  126 120 33  118 112 25  121 115 28  112 106 19  138 131 45  108 101 14  123 116 32  99  92  10  99  92  10  97  91  2   123 115 26  122 113 27  106 96  13  115 106 22  139 131 45  136 127 41  127 116 31  116 102 18  112 99  14  129 114 35  118 103 26  132 117 42  122 106 32  123 108 29  94  77  1   103 85  16  100 81  15  80  62  0   81  66  0   140 125 50  123 107 35  97  83  15  114 103 31  117 107 29  88  79  0   87  77  0   105 96  24  108 99  27  96  87  15  82  73  1   88  79  7   104 97  24  104 97  24  94  88  15  99  93  18  96  93  16  96  94  22  81  78  13  82  78  18  81  80  19  86  87  23  77  80  8   83  86  12  65  70  0   72  76  9   69  72  12  56  59  0   72  76  11  82  85  20  70  73  15  68  69  16  55  57  4   62  64  11  56  57  9   63  64  16  54  53  5   74  73  23  67  66  14  62  62  7   56  56  2   61  61  4   60  60  3   45  45  0   46  44  0   83  80  24  86  84  26  62  60  1   96  95  36  79  77  19  72  72  15  80  80  25  59  58  6   61  60  10  72  70  23  59  56  7   100 90  39  156 142 85  176 159 99  138 125 68  89  82  41  79  76  38  96  89  46  112 107 56  99  95  37  97  93  33  113 109 51  105 102 46  85  82  28  89  86  35  101 98  47  129 127 80  121 118 76  155 152 117 200 196 165 237 231 210 245 238 227 226 220 215 226 219 221 242 235 236 234 228 221 233 230 217 233 230 217 233 230 217 234 231 218 234 231 218 233 230 217 233 230 217 231 229 216 233 230 217 231 229 216 231 229 216 236 234 221 240 237 224 229 227 214 242 238 221 155 151 123 96  90  58  141 133 101 138 127 97  121 110 79  116 105 75  100 92  61  85  79  47  71  63  29  77  70  31  72  65  25  70  65  14  145 141 79  135 135 66  79  80  16  79  79  22  90  88  43  57  52  11  69  61  14  73  63  14  88  79  27  60  53  0   79  76  27  66  65  15  69  68  18  59  57  3   55  48  0   74  65  13  43  33  0   36  31  0   55  55  12  73  76  27  67  73  23  44  49  0   53  59  9   66  69  21  70  69  22  75  69  23  88  74  31  75  62  16  71  63  11  66  58  6   97  86  39  163 151 112 173 161 136 185 176 159 228 225 215 227 226 220 225 224 218 225 224 218 225 224 218 225 224 218 226 225 219 226 225 219 227 226 220 227 226 220 226 227 220 226 227 218 227 229 217 227 229 217 224 224 220 227 228 223 228 229 222 128 131 112 87  90  55  105 103 63  106 92  56  157 135 101 161 141 107 164 142 108 180 156 123 170 146 111 114 95  58  112 101 57  89  87  31  110 111 47  116 118 49  100 100 29  105 103 33  119 114 48  108 103 36  110 105 38  129 124 57  116 111 44  108 103 34  125 121 50  135 131 57  121 117 43  105 98  29  116 109 43  116 108 47  76  67  10  132 120 67  148 136 88  114 101 56  138 124 81  132 117 74  142 127 79  173 159 107 168 155 100 122 106 52  137 121 69  149 131 87  143 127 85  145 132 84  128 115 70  122 110 75  149 137 111 220 210 191 241 232 219 235 225 215 233 226 217 234 229 219 230 227 217 229 226 216 230 227 217 234 231 220 235 232 222 234 234 223 233 233 222 235 232 222 238 236 225 240 237 224 240 235 223 193 186 172 174 168 152 188 180 164 178 169 152 196 186 164 196 186 164 195 185 163 192 182 163 183 172 155 177 166 150 173 162 145 173 162 145 175 162 146 170 156 140 180 167 149 184 171 152 177 164 145 174 161 143 172 159 141 170 157 138 175 164 147 169 158 141 169 158 141 176 165 148 168 157 140 168 157 140 167 156 139 168 157 138 177 167 143 184 175 148 185 176 150 182 173 146 190 181 154 188 178 152 178 169 143 174 165 136 171 160 127 173 162 130 174 165 136 176 167 140 195 187 167 244 237 221 245 240 226 241 236 224 243 239 227 245 240 228 245 240 228 246 241 229 246 241 229 245 240 228 242 237 225 240 235 223 245 240 228 245 240 228 245 240 228 245 240 228 242 237 225 242 237 225 246 241 229 245 240 226 210 204 188 104 98  80  103 96  73  175 165 141 199 185 160 165 148 122 118 102 73  103 88  54  175 161 122 175 161 111 156 144 77  78  67  0   89  77  11  106 93  31  136 120 64  150 135 74  188 177 106 196 186 108 158 149 63  194 185 99  206 196 115 198 188 107 186 178 87  180 173 77  211 206 110 231 225 136 178 175 96  146 142 82  185 179 145 252 246 228 253 248 238 244 241 235 248 244 238 248 244 238 248 244 238 248 244 238 249 245 240 249 245 240 249 245 240 249 245 240 249 245 240 249 245 240 250 244 240 250 244 240 248 242 237 249 243 238 254 246 242 249 241 232 209 202 186 131 126 102 161 154 124 169 162 132 92  85  58  120 111 84  121 113 80  143 135 106 181 169 155 190 178 170 189 176 169 185 173 166 184 172 165 184 172 165 184 172 165 184 172 165 195 183 173 192 180 171 189 177 167 187 174 165 190 180 170 184 174 162 182 170 158 183 172 157 180 165 147 177 162 142 171 156 136 172 157 137 171 156 136 175 160 140 170 157 136 171 162 136 155 147 115 154 146 110 164 154 116 143 131 92  167 153 112 204 192 139 180 169 98  165 153 73  160 146 66  176 162 83  155 140 66  197 182 108 174 160 78  189 176 91  214 200 118 188 174 90  207 191 106 192 177 86  180 166 73  155 140 47  160 146 53  187 172 82  157 144 55  201 187 105 165 153 77  155 142 67  186 177 91  195 188 95  189 179 84  190 180 86  154 143 56  168 155 68  185 172 81  169 158 59  214 205 92  214 205 90  212 199 94  251 237 142 199 184 95  156 141 50  162 149 46  184 172 64  214 202 94  174 162 57  164 151 46  191 178 73  198 188 82  167 157 53  170 161 62  204 193 94  206 193 88  167 151 50  228 208 117 188 171 97  134 123 67  130 122 82  131 127 94  179 177 152 250 246 232 231 225 218 226 220 217 225 218 216 238 232 227 243 238 231 243 240 230 244 241 231 245 243 232 247 244 233 247 244 233 245 243 232 244 243 232 244 243 232 246 245 236 244 243 234 240 237 226 243 240 230 235 230 220 252 245 234 250 242 231 253 243 232 246 236 225 243 235 224 239 232 221 238 231 220 239 232 221 238 231 220 237 230 218 236 228 217 250 242 231 247 240 229 243 235 224 238 231 220 239 232 219 242 235 221 245 238 225 245 238 225 244 237 223 244 237 223 245 238 225 245 238 225 245 238 227 245 238 227 246 239 228 246 239 228 245 238 227 246 239 228 247 240 229 246 241 229 248 243 233 243 238 229 241 236 224 241 236 224 240 237 224 244 242 229 248 245 232 247 244 231 248 245 234 252 249 241 252 249 243 248 244 238 252 249 241 252 249 241 254 251 240 254 251 240 255 250 240 255 250 240 255 250 240 255 249 242 255 249 244 255 249 242 255 250 238 255 250 238 253 245 241 255 253 249 249 241 230 138 132 113 89  85  54  129 124 96  143 136 120 66  57  44  119 111 88  242 233 205 204 196 160 190 183 142 217 208 166 200 191 148 196 187 145 221 211 173 235 223 188 239 226 194 236 223 195 236 223 195 234 222 196 234 222 196 236 224 198 237 225 200 250 238 210 250 238 210 250 239 208 250 239 208 242 229 197 243 231 196 231 218 183 214 202 167 235 222 190 236 223 191 228 215 183 229 216 184 217 206 176 218 207 177 221 210 179 222 211 180 223 212 182 228 216 188 234 222 194 238 227 199 248 236 210 254 240 213 254 240 211 248 235 205 255 243 216 249 238 205 210 202 157 184 175 128 223 214 174 238 230 194 251 242 213 251 242 213 250 239 206 248 237 206 244 232 207 243 231 205 243 232 201 
203 198 113 193 189 113 130 129 66  74  72  29  185 186 151 212 216 180 211 215 187 214 213 202 214 212 208 216 212 209 218 211 209 217 213 210 217 213 210 217 215 211 217 216 209 219 218 210 218 218 204 215 215 197 220 221 205 218 217 208 193 191 185 70  70  57  72  69  47  86  73  43  75  58  25  74  57  24  88  71  38  101 84  51  92  74  41  100 82  50  121 102 67  101 79  43  99  75  38  123 101 58  93  77  34  60  57  19  21  26  0   31  34  0   69  69  14  93  91  21  104 98  22  101 96  18  102 97  17  100 95  13  111 106 23  126 119 35  109 102 18  127 118 32  136 125 40  142 131 46  140 129 44  136 125 40  132 120 35  129 118 33  131 119 34  124 112 29  124 112 29  102 93  10  128 119 35  117 108 25  106 96  13  96  87  4   141 131 48  123 114 28  108 99  15  100 89  13  122 112 35  137 129 40  132 121 33  128 116 36  133 121 41  131 119 34  131 120 32  112 101 14  77  66  0   93  79  0   105 89  5   114 97  16  103 87  8   94  77  3   103 86  10  114 97  19  91  73  0   96  75  7   95  74  6   87  70  0   106 89  12  110 94  15  90  75  0   77  64  0   118 105 30  131 119 36  126 115 30  99  89  8   129 119 40  134 127 47  103 95  16  90  82  3   90  82  3   102 97  17  112 107 26  115 110 30  104 98  20  101 97  23  100 98  28  85  83  15  86  83  18  78  77  11  82  84  15  74  76  5   80  83  9   66  71  0   65  69  2   56  59  1   51  54  0   69  72  12  78  81  23  68  69  18  64  65  19  51  52  6   61  62  14  57  59  8   66  68  17  59  58  8   75  74  24  66  65  15  58  57  7   70  70  18  68  68  13  74  74  17  51  51  0   50  48  0   73  71  15  85  83  24  62  60  1   102 101 40  80  79  18  65  66  4   68  69  9   49  50  0   59  59  4   65  67  14  51  48  0   77  67  16  134 118 62  170 151 86  157 139 79  118 110 63  95  91  45  104 97  43  130 122 61  143 137 73  108 102 38  137 131 69  153 149 89  138 133 78  134 129 76  128 123 72  129 126 73  114 113 49  108 107 46  127 124 72  190 185 145 235 228 203 242 234 223 232 223 222 222 213 213 234 228 221 234 229 217 233 230 217 233 230 217 234 231 218 234 231 218 233 230 217 233 230 217 233 230 217 233 230 217 231 229 216 231 229 216 235 232 220 241 238 225 233 230 217 236 232 216 193 188 160 112 105 73  128 117 86  148 134 105 88  75  45  88  77  47  95  86  55  102 96  64  132 124 90  95  84  52  87  76  45  55  46  8   82  76  19  119 117 47  113 111 39  88  88  20  53  51  0   58  53  3   128 121 64  116 108 49  92  83  27  54  47  0   58  56  11  35  35  0   54  55  3   59  59  2   63  61  2   75  70  17  67  58  18  50  43  6   62  60  20  84  84  41  65  68  21  41  47  0   80  85  38  68  73  26  56  57  11  60  56  12  73  62  20  62  49  5   64  56  6   65  57  7   83  72  27  144 132 95  175 164 138 180 171 156 219 216 205 221 222 215 225 224 218 225 224 218 225 224 218 225 224 218 226 225 219 226 225 219 227 226 220 227 226 220 226 227 220 226 227 218 227 229 217 227 229 217 224 224 220 227 228 223 228 229 222 128 131 112 105 109 73  131 129 86  142 128 90  137 115 79  132 111 75  153 132 96  171 147 112 164 140 105 123 106 69  136 125 81  120 118 61  133 135 68  132 135 63  107 107 34  125 123 53  133 129 60  110 106 32  112 109 35  133 129 58  150 145 76  132 128 57  111 107 36  111 107 36  94  90  18  84  77  8   80  72  9   142 134 73  108 99  43  149 138 85  154 141 93  142 129 84  140 127 83  126 113 69  134 121 76  110 98  47  143 129 76  143 129 76  96  82  32  132 117 74  131 115 73  162 150 101 128 115 72  111 98  66  178 166 142 242 231 217 236 226 216 236 228 219 230 222 215 234 229 219 230 227 217 231 229 218 231 229 218 234 231 220 235 232 222 234 234 223 233 233 222 242 239 229 249 246 236 248 245 232 240 235 223 217 210 197 216 209 193 216 210 191 214 206 188 218 210 187 218 210 187 227 219 199 228 220 202 228 219 204 229 220 207 228 218 208 226 214 204 221 210 198 217 206 191 231 219 205 237 225 211 224 212 200 228 217 205 231 217 206 224 212 200 226 216 204 223 214 201 229 220 207 241 232 219 228 219 206 233 223 211 232 222 209 228 219 206 223 214 199 227 218 203 226 217 202 219 210 195 227 218 201 229 221 203 221 213 195 212 204 184 216 206 180 220 208 182 221 212 188 223 212 193 207 198 183 236 228 217 241 236 226 240 236 228 242 239 229 243 241 228 245 240 228 246 241 229 246 241 229 245 240 228 242 237 225 241 236 224 245 240 228 245 240 228 245 240 228 245 240 228 242 237 225 243 239 227 243 239 227 250 246 234 240 236 221 159 152 136 98  90  69  132 122 100 178 166 142 158 144 119 121 107 82  78  65  35  157 145 110 210 197 153 91  80  24  103 92  32  111 98  41  113 99  42  126 111 50  101 87  19  165 154 80  155 145 64  138 129 44  184 175 89  189 179 101 189 180 99  157 148 60  212 204 111 209 202 105 216 211 115 169 165 77  134 132 62  156 151 112 231 225 205 243 239 227 244 241 233 248 244 238 248 244 238 248 244 238 248 244 238 249 245 240 249 245 240 249 245 240 249 245 240 249 245 240 249 245 240 250 244 240 250 244 240 252 246 241 253 247 242 251 242 238 253 245 239 239 232 219 157 151 130 138 132 102 176 169 137 128 119 93  91  82  53  95  85  50  108 97  66  149 136 117 175 161 150 192 178 166 186 172 161 183 172 157 183 172 157 183 172 157 184 173 159 185 174 160 184 173 157 181 170 153 178 167 151 174 166 148 176 168 147 172 164 144 168 158 134 180 167 135 161 146 110 154 139 103 159 144 108 140 125 89  144 132 95  160 150 113 166 156 119 164 157 117 146 140 94  142 135 80  144 136 77  154 143 83  179 169 102 155 145 64  154 143 58  154 142 62  144 132 54  157 144 69  204 191 114 147 134 47  174 161 72  173 159 75  148 135 51  175 162 75  141 128 42  174 160 76  183 169 88  160 144 63  166 150 69  166 152 70  166 152 70  182 169 92  200 190 111 217 208 127 178 169 85  168 157 70  222 209 122 187 173 89  171 157 73  174 158 75  186 171 83  197 183 85  213 200 99  204 189 96  213 198 107 227 212 123 198 183 90  169 155 55  180 167 65  157 146 45  173 162 63  178 166 68  193 181 83  147 136 37  182 172 77  167 153 71  189 176 89  172 159 57  187 172 65  220 201 105 167 150 74  151 138 88  133 127 92  149 147 120 215 214 194 247 244 233 228 224 219 220 216 213 231 227 224 235 231 226 240 236 228 242 239 229 242 239 229 244 241 231 245 243 232 245 243 232 245 243 232 245 243 232 244 243 232 245 244 233 243 242 231 244 243 232 238 236 225 232 227 217 252 246 237 246 241 231 240 233 224 247 240 229 243 239 227 241 237 222 239 234 220 247 242 228 246 241 227 243 239 225 241 237 222 233 229 214 235 231 216 240 236 221 243 239 225 243 239 227 243 239 227 245 240 228 245 240 228 250 246 234 250 246 234 250 246 234 250 246 234 246 241 231 246 241 231 246 241 231 246 241 231 246 241 231 246 241 231 247 242 232 245 242 234 244 241 233 244 241 233 242 239 231 237 234 224 240 237 224 240 237 222 242 239 227 247 244 231 248 245 234 252 249 241 252 249 243 248 244 238 252 249 241 252 249 239 254 251 240 254 251 240 255 250 240 255 250 240 255 251 241 255 251 241 255 249 242 255 250 240 255 250 238 255 250 238 255 251 245 255 252 248 255 255 247 192 185 167 93  88  58  107 102 72  141 132 115 99  89  77  55  47  24  209 203 173 197 190 151 175 168 125 240 233 190 166 159 118 144 134 96  174 164 129 228 217 186 228 216 188 202 191 163 178 166 140 237 226 198 241 229 201 244 235 206 245 236 207 245 234 206 243 232 201 243 232 201 243 232 201 238 228 195 243 232 199 234 223 190 214 203 170 242 229 197 236 223 191 237 225 190 232 219 187 244 231 199 243 230 198 242 229 197 240 227 195 240 227 195 236 223 193 229 216 186 226 212 183 208 195 167 220 204 178 227 212 183 226 211 180 239 223 194 233 221 184 199 189 140 175 165 113 203 192 147 227 217 179 243 232 201 241 229 201 237 228 195 239 230 199 241 232 207 244 234 210 248 239 210 
177 173 88  152 149 70  105 105 32  157 158 96  211 211 154 203 206 145 210 211 163 211 208 182 211 206 192 211 206 196 211 205 200 220 214 211 219 214 213 217 215 211 217 216 209 220 220 211 219 219 206 209 209 193 224 224 210 215 213 207 196 195 186 76  76  60  76  73  49  93  80  50  102 85  50  99  82  46  86  69  34  93  76  41  108 91  54  114 97  59  107 89  49  101 78  38  122 97  56  152 127 81  83  66  17  88  81  36  40  40  0   76  76  23  136 135 74  135 131 57  106 101 21  131 123 44  133 126 44  120 114 29  127 121 36  121 112 28  128 119 35  127 117 34  141 131 48  150 139 54  148 137 52  128 117 32  125 113 28  131 119 34  142 131 48  121 109 29  136 124 44  106 96  13  114 105 21  108 99  15  134 124 41  108 98  17  90  81  0   149 139 56  101 91  10  96  86  12  96  86  12  108 97  14  104 92  10  117 104 28  131 118 42  128 116 36  126 114 32  124 112 29  136 122 40  134 118 34  145 130 44  116 101 15  123 108 22  96  80  0   96  80  1   96  80  0   88  71  0   118 97  27  95  74  6   101 83  10  110 93  17  123 106 28  143 126 48  137 122 45  94  82  2   121 110 27  129 118 33  145 136 51  123 114 30  121 112 28  85  78  0   120 113 31  128 121 39  73  69  0   95  91  8   129 124 42  87  82  2   79  75  1   83  81  11  75  72  3   81  78  11  62  61  0   70  72  6   69  71  4   80  81  15  66  70  5   63  66  6   61  63  7   63  65  12  61  63  5   58  61  5   47  48  0   56  57  9   56  57  11  62  63  15  55  57  4   63  63  9   61  60  8   76  75  25  65  63  16  54  52  7   56  55  8   54  53  3   90  90  37  93  92  38  85  82  28  70  67  11  81  79  23  78  76  17  65  63  5   73  72  11  67  68  4   51  52  0   53  53  0   55  55  0   48  50  0   63  60  8   92  82  33  128 112 58  150 129 66  159 140 76  127 115 65  99  91  41  106 96  33  132 122 55  130 120 53  103 93  26  154 145 77  176 168 105 139 132 78  109 103 53  92  87  36  89  84  29  94  94  24  115 116 43  137 137 71  145 142 91  184 178 144 229 221 203 239 231 225 231 223 219 234 229 219 234 229 217 233 230 217 233 230 217 234 231 218 234 231 218 233 230 217 233 230 217 233 230 217 233 230 217 231 229 216 231 229 216 228 225 213 234 231 218 241 238 225 224 223 205 220 217 193 105 101 73  95  84  54  148 134 105 108 94  67  129 115 88  129 118 87  109 100 69  95  84  54  86  75  44  58  46  20  68  58  23  101 94  39  80  75  6   85  84  9   92  90  20  91  86  31  57  52  1   133 127 68  118 109 48  90  81  24  76  69  17  58  54  8   30  32  0   59  64  5   73  76  16  79  79  22  65  62  11  71  65  21  61  53  15  69  64  24  79  76  36  62  62  21  36  38  0   71  76  34  49  54  11  63  63  20  66  62  20  60  51  11  74  63  23  94  85  42  107 98  55  56  44  5   142 129 95  174 164 140 176 170 154 219 218 210 228 229 224 224 223 216 224 223 216 225 224 218 225 224 218 225 224 218 225 224 218 227 226 220 227 226 220 226 227 222 226 227 220 227 229 217 227 229 217 224 224 220 227 228 223 228 230 220 130 130 112 98  99  62  129 125 81  205 188 148 201 180 141 157 135 97  148 127 89  121 97  60  131 109 73  111 95  57  106 95  51  117 116 57  96  98  31  111 114 40  100 100 27  105 103 33  123 118 49  128 124 50  123 119 45  117 113 41  122 117 46  128 123 52  117 113 41  131 127 55  101 96  29  90  81  20  105 96  38  149 140 84  98  88  35  162 149 103 163 150 107 127 113 73  140 126 85  139 125 82  114 101 56  117 105 54  117 105 52  106 91  41  79  64  16  120 104 61  123 109 68  140 129 83  123 114 71  123 114 83  227 219 199 247 238 223 228 220 209 233 226 217 230 224 217 231 229 218 231 229 218 233 230 219 233 230 219 233 230 219 235 232 222 234 234 223 232 232 220 233 230 219 242 239 229 238 236 223 226 221 209 225 220 206 214 207 191 203 197 181 209 203 184 217 211 191 219 214 193 232 226 208 236 229 213 222 213 200 229 220 209 230 220 212 225 215 204 225 215 202 219 207 195 230 218 206 233 221 209 225 213 203 237 225 215 239 227 217 231 219 209 226 216 206 221 213 202 225 218 207 236 228 217 229 221 210 228 220 209 226 219 208 229 221 210 230 223 211 232 225 214 229 221 210 221 213 202 222 214 203 232 225 212 229 222 208 219 213 197 221 213 193 220 210 189 216 208 188 214 205 190 212 206 192 228 223 211 238 232 223 241 237 229 242 239 229 243 241 228 245 240 228 245 240 228 245 240 228 243 239 227 242 237 225 241 236 224 245 240 228 245 240 228 245 240 228 245 240 228 241 236 224 245 240 228 245 240 228 248 243 231 241 236 224 187 180 166 98  89  72  109 101 81  174 163 144 156 143 124 136 122 99  90  76  49  125 112 80  158 146 107 132 119 71  119 107 54  113 98  46  103 90  31  106 92  24  108 96  20  115 105 26  192 182 101 173 164 79  194 185 99  170 160 79  166 157 76  192 183 97  200 192 101 196 189 94  190 185 89  175 171 79  125 122 46  149 145 97  204 200 172 245 240 226 251 248 240 248 244 238 248 244 238 248 244 238 248 244 238 248 244 238 249 245 240 249 245 240 250 246 241 249 245 240 249 245 240 250 244 240 250 244 240 253 247 242 252 246 241 248 242 237 249 240 234 255 251 239 209 203 184 133 126 98  143 136 107 170 161 136 99  87  61  95  84  52  108 97  66  111 99  78  157 143 127 186 172 157 193 179 163 194 183 166 194 183 166 194 183 166 194 183 164 192 182 161 190 180 158 187 176 155 184 174 152 177 168 141 183 174 145 180 170 144 171 160 129 163 150 109 150 134 90  151 138 92  162 150 101 138 125 77  138 125 77  155 145 94  152 145 92  154 147 95  128 121 66  118 112 51  140 132 66  140 131 63  140 132 57  146 138 52  164 155 67  144 132 52  125 112 35  148 136 58  178 166 86  143 130 41  174 162 70  151 137 53  169 155 74  146 132 48  173 159 77  123 108 31  122 106 34  129 113 43  130 114 44  191 176 104 210 197 124 163 152 78  166 155 82  174 163 92  140 127 52  205 191 110 218 205 120 204 190 108 214 199 120 164 147 69  120 104 20  144 130 37  191 176 83  187 172 86  181 165 82  153 138 50  198 183 90  206 192 94  180 167 69  166 153 62  226 214 125 228 215 124 204 192 98  175 164 65  173 160 69  210 195 118 176 162 83  151 137 40  160 147 47  166 151 63  204 190 120 122 113 70  112 104 79  174 170 151 247 244 229 230 227 219 223 220 214 217 213 210 236 232 229 235 231 226 238 235 227 240 237 226 241 238 227 243 240 230 244 241 231 245 243 232 245 243 232 245 243 232 245 243 232 245 244 233 239 241 229 240 240 229 222 221 210 238 235 227 250 245 238 243 238 231 241 236 226 248 243 233 245 240 228 242 239 227 241 238 225 241 238 225 240 237 224 237 235 222 235 232 220 240 237 224 241 238 225 243 241 228 244 242 229 244 242 229 243 241 228 243 241 228 243 241 228 244 242 229 244 242 229 244 242 229 244 241 231 248 245 234 248 244 236 248 244 236 245 242 234 247 243 235 245 242 234 245 242 234 245 242 234 243 240 232 245 242 234 243 240 232 236 233 223 240 237 224 235 233 218 238 236 223 245 243 230 248 245 234 252 249 239 252 249 241 248 244 236 252 249 239 252 249 239 252 249 239 252 249 239 254 249 239 254 249 239 255 250 240 255 250 240 255 250 240 255 250 240 255 250 238 255 250 238 255 249 242 255 251 245 250 242 233 240 234 218 110 105 77  91  87  59  129 121 103 129 120 105 50  42  22  145 139 109 202 195 154 164 158 112 166 159 118 180 172 134 195 185 148 172 162 124 197 187 152 208 197 167 229 218 189 210 199 171 236 225 196 237 226 198 238 229 200 239 230 199 242 231 200 243 232 201 244 233 203 244 233 203 222 211 178 234 223 190 232 222 189 215 204 171 227 214 182 222 210 175 236 224 189 231 218 183 237 224 192 235 223 188 231 218 183 227 214 180 241 228 194 239 226 192 236 224 189 234 221 189 244 228 199 246 230 201 241 226 195 233 218 187 234 219 188 218 203 167 183 170 124 168 155 107 217 204 160 227 215 178 219 206 172 196 183 151 195 185 150 209 199 166 228 216 188 241 229 203 245 234 206 
161 155 77  145 144 64  147 148 68  142 143 65  196 195 118 219 211 134 231 221 154 214 206 154 210 202 166 212 204 184 225 218 209 225 218 218 219 214 215 218 217 213 210 209 202 215 214 203 212 212 201 219 219 208 226 225 217 217 215 211 190 189 181 80  81  58  98  96  65  104 91  59  108 91  58  125 108 75  85  68  32  88  71  34  107 91  50  117 98  57  123 102 59  127 104 60  140 116 69  167 143 92  104 85  33  89  77  22  75  69  12  89  85  23  121 119 51  128 124 50  130 124 49  113 105 28  113 106 26  125 116 35  138 129 46  138 129 44  160 152 66  137 125 45  128 116 36  110 98  13  107 96  9   115 101 15  143 129 43  111 97  15  117 102 25  117 104 28  142 129 54  137 126 43  140 129 44  131 120 32  129 119 31  101 90  7   98  86  6   117 104 26  105 92  17  106 93  20  127 113 43  127 114 41  82  68  0   103 89  20  122 108 40  100 87  16  82  68  0   117 103 30  136 120 46  124 108 29  117 102 16  136 122 27  153 140 42  122 107 17  100 84  0   112 96  12  129 112 34  113 93  20  102 81  11  110 92  21  95  78  4   78  61  0   137 121 40  131 117 33  126 113 28  106 94  12  120 108 26  136 125 40  143 132 47  121 111 30  134 124 45  125 117 38  101 93  14  131 123 44  117 109 30  102 97  17  100 95  15  105 102 26  92  88  14  72  67  0   57  55  0   71  68  5   76  74  15  76  76  19  82  82  27  49  51  0   55  56  6   50  52  1   44  46  0   40  42  0   55  57  2   76  78  23  78  80  25  80  79  27  61  60  8   75  75  18  86  86  29  70  67  13  67  64  15  63  58  16  59  54  15  44  39  0   50  46  2   72  68  22  72  69  20  52  49  0   57  54  3   74  72  18  64  61  7   60  58  4   86  84  28  87  86  23  61  62  0   42  42  0   49  50  0   53  54  5   51  49  2   84  74  25  118 101 48  140 116 54  194 170 107 136 116 66  83  69  17  94  82  15  149 136 65  138 122 52  135 116 48  163 143 70  153 136 71  121 113 63  114 110 66  134 130 83  114 111 58  130 126 61  114 112 42  136 134 64  153 149 89  139 131 93  214 206 184 237 230 216 235 227 218 234 229 217 234 229 217 233 230 217 233 230 217 234 231 218 234 231 218 234 231 218 234 231 218 233 230 217 231 229 216 231 229 216 231 229 216 231 229 216 231 229 216 231 229 216 231 229 214 230 229 211 125 121 100 104 95  64  137 124 92  73  59  34  99  82  61  111 97  70  97  83  54  99  85  58  94  80  53  80  67  35  72  62  22  78  70  16  103 100 35  90  88  16  95  95  27  85  82  30  112 106 60  85  81  23  109 103 43  95  88  35  50  45  0   74  73  12  69  71  6   92  96  29  110 116 51  47  49  0   59  58  6   81  79  25  52  49  0   89  87  44  65  61  26  56  55  21  102 103 71  96  99  64  67  68  34  73  73  36  64  58  24  57  46  11  58  46  11  59  46  14  56  43  11  69  54  20  165 152 122 171 161 140 182 175 162 225 224 220 220 220 218 224 222 218 224 223 216 224 223 216 224 223 216 225 224 218 225 224 218 226 225 219 226 225 221 225 225 223 225 225 221 226 227 218 226 227 218 231 232 224 228 229 222 229 231 219 137 136 114 83  77  40  127 116 72  196 181 136 190 172 128 190 170 127 185 164 121 189 168 128 181 162 121 191 177 139 94  85  40  78  74  16  103 103 35  101 102 29  113 111 39  124 119 52  97  92  26  114 107 39  119 112 43  133 129 58  132 128 57  112 105 36  111 103 35  105 98  29  132 123 62  129 119 68  129 119 70  120 110 59  120 109 63  207 195 158 234 221 189 207 195 160 139 127 87  108 94  49  87  74  24  104 92  41  112 100 49  126 113 65  99  86  41  123 109 66  163 152 108 127 123 76  121 118 78  160 157 131 234 230 211 239 235 218 233 229 214 234 229 219 234 230 222 231 229 218 230 227 217 231 229 218 231 229 218 233 230 217 231 229 216 233 230 217 234 231 218 236 234 221 238 236 223 238 233 221 230 225 213 223 218 204 213 209 194 208 201 185 210 204 188 214 208 189 218 214 195 226 222 203 229 223 204 226 220 204 226 220 206 226 220 206 225 218 205 223 216 200 226 217 202 228 219 204 230 221 208 232 220 210 232 220 210 230 221 210 230 221 210 224 217 206 226 219 208 227 222 210 230 225 213 231 225 216 226 221 211 226 221 211 231 225 216 231 225 216 228 223 213 226 221 211 224 218 209 224 218 209 227 222 210 220 215 203 214 210 195 219 213 199 208 201 185 212 206 190 210 203 190 218 213 199 233 229 214 240 235 223 242 237 225 243 239 227 245 240 228 245 240 228 245 240 228 245 240 228 243 239 227 242 237 225 241 236 224 243 239 227 243 239 227 243 239 227 243 239 227 249 241 230 249 241 230 249 241 230 249 241 230 249 241 230 244 237 223 122 114 96  81  73  55  163 151 142 149 134 125 118 105 89  93  81  55  109 99  64  150 138 99  130 116 73  138 126 75  121 107 50  114 100 34  148 136 56  128 117 32  162 150 68  164 152 72  168 160 74  207 198 112 152 143 62  157 147 66  146 134 51  160 148 63  158 150 61  156 151 59  173 170 78  144 142 58  132 128 66  158 154 112 255 255 235 242 237 227 249 246 238 248 244 238 248 244 238 248 244 238 248 244 238 254 250 244 244 241 235 250 246 241 249 245 240 249 245 240 249 245 240 249 245 240 249 245 240 249 245 240 249 246 238 250 245 238 254 247 236 235 228 212 172 164 144 136 126 105 164 151 130 168 153 131 116 102 77  99  85  60  126 114 91  145 133 112 183 173 153 203 192 173 204 192 173 195 182 164 207 194 175 196 184 163 196 187 160 181 171 145 187 177 153 180 171 142 167 159 121 161 152 110 182 173 135 156 146 106 152 139 93  157 142 92  153 139 87  137 123 69  138 125 68  114 104 44  127 117 54  150 142 79  133 125 61  102 95  31  107 99  36  121 114 48  110 100 33  123 112 39  145 136 55  141 131 48  128 118 39  117 107 29  145 136 53  156 145 60  142 132 42  155 145 55  161 149 67  129 117 37  125 113 32  119 106 29  143 130 57  155 141 73  110 95  31  154 139 78  163 148 89  144 131 72  149 139 77  128 118 56  145 132 73  186 172 108 197 183 104 180 166 82  158 142 61  172 155 79  159 142 68  176 159 78  181 167 72  225 210 115 223 207 128 165 148 72  157 141 58  149 134 43  204 193 96  144 131 40  97  82  5   125 110 35  197 183 101 238 226 134 196 185 84  166 152 57  167 151 72  148 130 54  204 192 100 212 202 112 177 169 96  167 160 108 84  77  45  123 117 98  217 215 202 224 224 212 225 224 215 220 219 213 219 218 214 232 231 227 233 232 226 237 236 227 240 237 226 241 238 227 243 240 230 244 241 231 245 243 232 245 243 232 245 243 232 245 243 232 245 244 233 240 240 229 236 235 224 230 229 218 242 239 229 242 239 229 242 239 229 242 239 229 241 238 227 242 239 229 241 238 227 241 238 227 242 239 229 242 239 229 242 239 229 242 239 229 242 239 229 242 239 229 242 239 229 242 239 229 243 240 230 243 240 230 244 241 231 244 241 231 245 243 232 245 243 232 247 244 233 247 244 233 243 240 230 243 240 230 243 240 230 244 241 231 247 244 233 247 244 233 247 244 233 247 244 233 244 241 231 244 241 231 242 239 229 237 235 222 230 228 213 234 232 216 240 237 224 245 243 230 249 244 234 249 244 234 250 245 236 250 245 236 250 245 236 250 245 236 254 249 237 254 249 237 254 249 239 254 249 239 255 250 240 255 250 240 255 250 240 255 250 240 255 250 238 255 250 238 255 249 242 255 251 243 255 250 240 255 250 238 165 162 143 74  68  49  107 100 82  119 113 95  88  80  60  85  78  51  171 164 124 201 194 149 162 155 114 146 138 100 194 185 142 182 174 129 196 187 145 222 212 172 236 224 189 243 230 198 232 222 189 222 211 180 238 227 197 241 230 197 230 219 187 238 228 195 238 228 195 239 229 196 233 220 188 229 216 184 218 205 173 198 185 153 206 193 159 172 160 125 240 227 193 241 228 194 226 213 179 234 222 185 226 214 173 214 203 161 246 232 191 243 229 188 243 228 192 231 216 182 240 225 194 247 232 201 238 223 189 245 230 196 255 240 207 248 230 197 231 215 177 208 191 154 238 221 186 237 222 186 245 231 192 226 212 174 196 182 141 217 205 165 219 206 172 225 211 182 207 194 164 
116 111 31  177 178 91  155 158 66  136 138 44  177 174 79  175 164 74  160 147 69  190 179 121 186 176 136 224 214 190 213 204 191 228 220 213 209 202 200 224 221 215 219 218 210 211 211 199 216 215 204 211 210 202 205 204 200 217 215 213 202 201 192 83  85  59  80  79  45  93  80  48  88  70  40  106 88  55  73  56  21  80  63  26  104 88  48  118 100 56  120 101 55  153 131 86  162 138 91  148 125 73  107 86  32  86  71  10  67  57  0   62  55  0   124 120 48  92  86  13  97  89  14  120 112 35  145 136 55  155 145 62  113 104 18  117 109 21  131 120 32  118 106 23  143 131 51  107 96  13  133 120 35  115 101 17  127 111 27  109 92  14  126 111 35  102 87  12  79  66  0   124 111 33  114 103 20  121 110 27  133 121 39  124 112 31  114 102 24  115 103 27  96  83  7   80  67  0   111 98  25  114 101 28  103 89  16  125 111 41  92  78  8   72  59  0   82  68  0   93  80  7   110 97  21  88  73  0   126 110 24  133 118 23  119 105 7   157 143 47  135 120 29  105 89  5   107 90  14  127 107 36  115 95  25  119 101 27  141 124 45  136 120 39  143 127 44  131 118 29  136 123 34  118 106 23  149 137 57  133 122 37  133 122 37  125 116 35  149 139 60  113 106 26  112 105 25  102 94  15  154 147 67  113 108 28  105 99  21  99  95  19  78  74  0   69  65  0   83  78  14  82  77  20  74  69  16  69  65  16  59  57  10  53  53  7   64  65  19  41  42  0   39  40  0   56  58  5   63  65  10  60  62  4   80  80  23  77  78  21  67  67  12  82  82  27  103 103 48  89  86  35  44  40  0   28  23  0   50  45  6   62  57  13  99  95  48  98  94  45  81  78  27  74  72  18  57  55  0   78  76  17  94  92  34  60  58  4   71  69  12  70  69  5   57  55  0   53  52  0   55  55  10  50  53  6   45  43  0   44  36  0   80  64  12  122 97  37  183 159 99  144 123 73  114 98  44  101 87  21  102 86  16  106 85  19  107 83  16  167 145 73  172 153 87  113 103 54  115 110 69  143 140 91  95  93  37  106 103 38  97  94  27  116 113 45  135 131 71  132 125 82  183 174 145 227 218 203 237 230 218 234 229 217 234 229 217 233 230 217 233 230 217 234 231 218 234 231 218 234 231 218 234 231 218 234 231 218 233 230 217 231 229 216 231 229 216 231 229 216 231 229 216 231 229 216 231 229 216 240 240 227 134 130 111 93  85  54  144 133 100 95  81  58  98  81  60  113 97  71  103 87  58  89  73  46  95  79  52  92  79  45  72  61  19  83  76  22  102 98  33  84  84  11  86  86  17  51  48  0   93  90  41  55  50  0   75  71  13  88  83  30  85  81  25  92  91  25  91  94  22  112 117 45  82  86  18  56  58  5   45  44  0   73  73  18  67  67  12  72  70  23  60  59  18  85  84  50  54  55  25  53  54  22  58  57  21  79  74  37  83  76  37  78  66  27  61  47  8   80  65  31  56  41  10  53  37  6   148 134 107 176 166 146 176 169 158 220 219 215 226 226 224 223 221 217 223 222 215 224 223 216 224 223 216 224 223 216 224 223 216 226 225 219 226 225 221 225 225 223 225 225 223 226 227 218 226 227 218 228 229 222 227 228 221 231 233 218 139 139 114 89  79  42  132 119 73  195 180 133 197 179 133 193 176 129 216 196 152 221 200 157 216 197 156 191 177 137 117 109 62  82  78  18  103 100 33  92  90  18  112 110 38  143 138 71  104 99  35  86  79  13  92  84  19  125 121 52  137 132 63  130 123 55  126 119 50  91  83  17  119 110 49  135 126 72  137 127 76  81  72  18  101 91  42  133 120 84  151 139 104 170 158 121 144 133 89  124 112 59  106 95  40  156 145 92  156 144 94  182 169 123 159 145 102 102 88  47  145 136 96  129 126 84  115 116 80  188 187 165 240 237 222 238 237 219 233 230 215 229 226 216 226 222 214 230 227 217 230 227 217 231 229 218 231 229 218 231 229 216 231 229 216 233 230 217 233 230 217 236 234 221 238 236 223 238 233 221 230 225 213 223 218 204 213 209 194 208 201 185 210 204 188 212 208 191 218 214 197 226 222 203 227 223 204 226 220 204 226 220 204 226 220 204 225 219 203 223 216 200 224 218 202 226 220 204 229 222 208 230 221 210 230 221 210 229 221 210 229 221 210 224 217 206 226 219 208 227 222 210 230 225 213 231 225 216 226 221 211 226 221 211 231 225 216 233 228 218 231 225 216 228 223 213 226 221 211 226 221 211 230 224 215 223 218 206 217 212 200 220 215 203 209 204 192 213 209 194 211 206 192 218 213 199 233 229 214 240 236 221 242 238 223 243 239 227 245 240 228 245 240 228 243 239 227 243 239 227 242 237 225 242 237 225 241 236 224 243 239 227 243 239 227 243 239 227 243 239 227 249 241 230 249 241 230 249 241 230 249 241 230 246 239 230 249 241 230 184 175 158 91  82  67  104 91  86  149 136 132 126 113 99  71  58  35  101 90  57  170 160 120 155 144 100 123 110 60  111 98  39  139 125 55  158 147 64  155 144 57  115 104 21  154 142 60  163 154 68  156 147 61  118 109 26  132 123 40  146 134 51  157 145 65  172 162 81  137 129 48  156 152 65  132 126 46  159 154 87  153 147 99  215 210 184 250 246 234 250 245 238 248 244 238 248 244 238 248 244 238 248 244 238 251 248 242 247 243 237 250 246 241 249 245 240 249 245 240 249 245 240 249 245 240 249 245 240 249 245 240 249 246 238 249 246 238 247 242 232 255 251 239 225 219 203 177 166 150 166 153 135 178 163 143 168 153 131 146 131 109 165 153 129 144 131 111 184 174 152 202 192 168 197 185 162 193 181 155 187 175 150 182 171 141 196 188 154 148 140 104 161 153 119 160 152 114 149 141 91  138 131 76  152 144 94  162 152 101 156 145 90  153 140 83  146 133 74  142 129 67  144 132 68  120 108 41  109 100 30  124 115 43  120 114 41  126 119 48  101 94  28  85  75  11  120 108 39  127 116 42  118 109 28  123 114 30  111 102 21  114 104 23  124 115 32  131 122 37  133 122 37  135 124 39  146 134 51  146 134 53  132 119 41  136 123 50  140 126 58  133 118 57  140 123 70  179 164 115 201 186 141 158 144 101 93  83  34  130 120 71  106 93  48  139 125 73  211 197 127 200 185 108 165 150 75  173 155 84  151 133 64  187 170 94  164 150 54  199 185 89  204 186 110 160 142 71  144 128 47  159 144 58  187 174 83  152 139 52  116 100 30  106 90  25  164 148 76  212 198 117 211 196 103 220 205 114 156 139 62  198 180 106 223 209 125 199 189 108 139 133 74  109 105 63  95  90  66  156 152 137 230 229 218 236 235 226 233 232 226 224 223 216 223 222 215 230 229 222 234 234 225 237 236 227 240 237 226 241 238 227 243 240 230 244 241 231 245 243 232 245 243 232 245 243 232 245 243 232 244 243 232 241 241 230 236 235 224 230 229 218 242 239 229 242 239 229 242 239 229 242 239 229 241 238 227 241 238 227 241 238 227 241 238 227 242 239 229 242 239 229 242 239 229 242 239 229 242 239 229 242 239 229 242 239 229 242 239 229 243 240 230 243 240 230 243 240 230 243 240 230 242 239 229 242 239 229 242 239 229 242 239 229 245 243 232 245 243 232 245 243 232 245 243 232 247 244 233 247 244 233 247 244 233 247 244 233 245 243 230 243 241 228 241 238 225 238 236 223 230 228 213 234 232 216 240 237 224 244 242 229 249 244 234 249 244 234 250 246 234 250 246 234 250 245 236 250 245 236 253 248 236 253 248 236 253 248 238 253 248 238 254 249 239 254 249 239 255 250 240 255 250 240 255 250 238 255 250 240 255 250 240 255 249 242 255 250 240 255 250 240 221 216 204 87  83  69  74  67  51  147 141 123 124 116 98  59  52  27  135 128 89  197 191 145 180 173 132 159 152 111 186 177 132 197 189 144 215 206 161 231 223 178 229 217 178 227 215 178 235 225 189 224 214 181 236 225 192 245 235 202 229 218 185 236 226 190 243 233 197 236 226 190 226 213 179 211 198 164 168 155 121 190 177 143 196 183 146 197 185 146 233 221 184 225 212 176 217 204 169 233 221 184 234 223 179 218 207 161 231 218 172 234 221 178 240 226 190 231 216 182 240 225 192 243 228 194 239 224 190 241 226 193 242 224 192 249 231 199 231 214 181 237 220 187 241 224 188 219 202 166 231 215 177 241 224 184 219 205 165 236 221 183 240 226 190 251 236 202 244 228 197 
140 134 47  196 196 98  185 189 83  205 210 97  177 178 69  174 168 68  170 160 81  156 145 101 120 111 84  115 108 83  164 156 136 196 190 174 224 219 205 217 212 200 213 210 197 220 220 207 223 222 211 220 220 211 211 210 206 217 215 213 202 201 192 75  77  51  60  58  24  85  74  41  67  51  20  84  69  36  66  51  15  82  68  29  117 101 61  132 117 74  131 113 69  151 131 85  133 111 63  109 88  38  106 88  33  83  68  7   131 119 53  126 117 45  124 115 41  116 108 31  117 109 30  117 108 27  130 121 35  146 135 47  124 113 23  140 130 38  122 109 18  126 113 26  119 106 21  91  77  0   102 85  7   141 123 47  121 102 26  135 116 38  130 113 35  96  82  2   106 92  15  115 102 29  106 92  22  111 97  27  100 87  16  110 96  25  120 107 34  78  65  0   160 147 71  112 99  22  87  75  0   129 117 37  162 150 68  151 140 57  125 113 30  125 113 30  96  84  1   77  66  0   118 106 21  109 95  11  115 101 17  109 95  13  80  66  0   115 101 8   151 137 44  122 106 25  100 82  11  132 111 43  143 123 53  150 134 53  147 131 45  157 141 58  141 125 39  157 144 53  171 158 69  115 103 23  129 117 39  117 105 22  134 122 40  99  89  10  115 105 28  119 111 34  102 94  17  108 100 23  130 122 45  122 117 39  83  77  0   106 100 27  84  77  6   80  75  8   94  88  26  71  67  9   63  58  7   76  72  25  66  64  19  54  52  9   60  58  15  54  52  7   51  49  2   51  50  0   47  47  0   69  69  14  77  78  21  59  57  1   88  86  32  79  76  27  51  47  1   50  46  2   50  46  2   53  50  3   58  55  6   80  78  22  101 100 39  100 98  38  100 99  36  99  98  30  88  88  18  99  99  26  88  88  18  76  74  11  85  83  22  79  78  17  64  62  5   56  55  10  58  58  17  53  56  10  47  48  0   40  34  0   71  56  6   114 92  36  165 140 84  155 136 86  135 120 68  107 94  30  78  64  0   85  65  4   104 82  21  145 122 55  126 106 42  66  56  5   140 136 89  174 168 118 88  83  26  85  83  15  81  78  11  88  84  24  104 99  46  124 118 70  128 121 84  200 192 174 239 232 223 234 229 217 234 229 217 233 230 217 233 230 217 234 231 218 234 231 218 234 231 218 234 231 218 234 231 218 233 230 217 231 229 216 231 229 216 231 229 216 231 229 216 231 229 216 231 229 216 237 237 221 142 139 117 72  64  31  133 123 88  114 100 75  107 93  68  114 101 71  111 97  68  118 104 77  105 91  64  105 92  58  65  54  10  67  60  5   76  73  8   98  98  25  130 130 60  103 102 43  117 115 61  69  66  10  76  73  17  77  75  16  71  69  8   70  69  5   88  88  22  109 111 40  75  76  12  62  61  12  38  36  0   38  36  0   82  83  32  78  80  25  54  55  5   71  71  32  76  73  38  95  92  54  97  90  47  96  88  39  109 100 46  117 104 47  115 101 47  121 109 61  108 94  53  90  77  43  159 148 120 176 166 146 176 169 158 220 220 211 226 227 220 223 222 215 223 222 215 224 223 216 224 223 216 224 223 216 224 223 216 226 225 219 226 225 221 225 225 223 225 225 223 226 227 218 226 227 218 225 226 219 226 227 220 232 234 222 143 142 118 97  90  47  131 119 68  172 159 111 174 159 114 183 165 121 209 191 147 211 193 149 207 191 147 172 158 115 119 112 62  82  78  18  83  80  13  79  74  5   123 118 49  175 170 106 163 157 93  101 94  28  113 105 40  100 95  28  136 131 62  139 131 63  111 103 35  147 139 73  149 141 76  151 144 78  109 102 36  101 94  26  97  89  25  101 91  40  127 117 68  111 101 49  121 112 56  99  91  30  107 99  38  133 124 67  143 133 82  171 160 116 171 159 120 180 168 133 135 128 91  113 112 74  125 126 92  226 224 204 235 232 220 234 232 216 230 228 215 227 224 213 224 221 213 230 227 217 230 227 217 231 229 218 231 229 218 231 229 216 231 229 216 233 230 217 234 231 218 236 234 221 238 236 223 238 233 221 230 225 213 224 219 205 213 209 194 206 202 185 210 206 189 212 208 191 218 214 197 226 222 203 227 223 204 226 220 204 226 220 204 226 220 204 225 219 203 223 216 200 224 218 202 226 220 204 229 222 208 230 221 210 230 221 210 229 221 210 229 221 210 224 217 206 226 219 208 227 222 210 230 225 213 231 225 216 226 221 211 226 221 211 231 225 216 235 230 220 234 229 219 231 225 216 230 224 215 230 224 215 233 228 218 226 221 209 220 215 203 224 219 207 212 207 195 217 212 198 214 210 195 219 215 200 234 230 215 241 237 222 243 239 225 245 240 228 246 241 229 246 241 229 246 241 229 242 237 225 242 237 225 242 237 225 242 237 225 243 239 227 243 239 227 243 239 227 243 239 227 249 241 230 249 241 230 249 241 230 249 241 230 247 240 229 252 245 232 231 225 209 110 102 86  77  67  59  142 130 123 92  81  69  76  65  46  95  86  57  192 181 146 196 185 138 132 120 65  132 120 56  142 128 60  128 115 42  124 111 33  151 140 57  157 146 61  167 159 71  164 155 67  171 162 76  157 148 62  148 139 53  137 127 46  156 145 71  123 114 42  137 131 56  123 117 46  153 147 88  155 148 105 176 168 143 251 244 232 250 245 238 249 243 238 248 244 238 248 244 238 250 246 241 247 243 237 251 248 242 248 244 238 249 245 240 249 245 240 249 245 240 249 245 240 249 245 240 249 245 240 249 246 238 249 246 238 235 232 222 254 249 237 252 245 232 200 191 176 166 153 135 173 160 140 179 165 142 159 145 122 170 157 136 170 157 136 208 198 174 202 192 166 189 178 148 192 181 146 163 153 115 164 155 112 154 148 102 168 162 114 142 136 90  159 153 103 151 145 85  113 105 42  135 127 66  137 126 64  155 142 78  144 132 66  135 123 56  132 121 52  114 103 31  115 104 32  110 101 27  137 128 54  112 104 29  131 122 50  106 97  29  75  65  0   104 93  24  135 124 50  127 117 34  108 99  13  115 106 20  127 118 32  117 108 25  125 116 35  141 131 50  127 117 36  116 106 25  128 118 37  134 124 45  142 131 59  142 129 65  86  72  15  151 136 91  162 148 110 155 140 109 164 151 121 196 186 153 209 199 164 189 179 144 163 152 110 175 162 107 195 179 118 190 173 113 171 153 93  155 135 73  187 169 98  159 146 57  191 179 88  174 159 82  157 141 67  153 139 59  168 155 70  176 163 76  143 132 47  89  76  0   142 128 62  177 162 101 139 122 59  142 125 48  147 130 51  116 98  27  166 148 77  198 184 105 200 189 115 154 147 95  108 104 69  108 105 83  180 178 165 238 237 228 240 241 234 234 235 228 222 224 216 223 222 215 230 229 220 234 234 225 237 236 227 238 237 228 239 238 229 241 241 232 243 242 233 245 243 232 245 243 232 245 243 232 245 243 232 245 243 232 243 240 230 237 234 224 231 229 218 242 239 229 242 239 229 242 239 229 242 239 229 241 238 227 241 238 227 241 238 227 241 238 227 242 239 229 242 239 229 242 239 229 242 239 229 242 239 229 242 239 229 242 239 229 242 239 229 243 240 230 243 240 230 243 240 230 243 240 230 242 239 229 242 239 229 242 239 229 242 239 229 248 245 234 248 245 234 248 245 234 248 245 234 247 244 233 247 244 233 247 244 233 247 244 233 245 243 230 243 241 228 241 238 225 238 236 223 232 227 215 235 230 218 241 236 224 246 241 229 249 244 232 249 244 232 250 246 234 250 246 234 250 246 234 250 246 234 253 248 236 253 248 236 253 248 238 253 248 238 254 249 239 254 249 239 255 250 240 255 250 240 255 250 240 255 250 240 255 250 240 255 250 240 255 250 240 255 250 240 255 255 244 138 133 119 54  48  32  118 112 94  138 132 113 72  64  42  101 96  59  178 174 128 185 179 133 178 172 126 168 159 117 178 169 126 180 171 128 213 204 161 208 197 153 235 224 182 226 213 179 234 221 189 229 217 182 239 226 192 234 221 187 221 209 172 236 224 187 237 225 188 240 228 191 214 202 165 169 157 118 149 137 98  231 219 177 196 184 142 217 205 161 219 207 166 233 221 184 235 223 186 227 216 172 207 197 150 202 189 143 218 205 161 241 227 191 240 225 192 239 224 190 236 221 187 240 225 192 237 222 188 238 221 188 251 234 201 241 223 190 250 233 198 231 215 177 217 201 163 229 212 177 249 232 197 226 212 176 234 220 184 236 221 183 250 235 197 243 227 196 
158 148 67  204 201 108 124 127 23  153 158 44  193 195 85  184 179 85  189 180 108 206 200 154 187 182 147 173 168 131 210 207 171 199 194 164 199 194 168 192 185 167 212 208 193 209 207 194 207 206 195 214 213 204 220 219 215 215 213 211 207 204 196 100 99  74  104 102 69  84  76  42  57  44  12  74  62  27  65  53  18  72  60  23  113 99  59  131 117 74  127 111 66  119 101 57  118 100 54  123 104 53  109 90  35  84  69  6   131 117 48  146 132 59  118 108 32  102 92  14  120 113 31  103 96  12  118 110 24  134 125 37  124 113 21  124 114 19  103 91  0   136 123 32  124 111 24  113 99  20  142 124 50  141 123 51  132 111 41  122 103 28  110 94  15  119 105 25  120 106 29  90  76  6   111 96  33  71  56  0   65  50  0   84  69  6   87  73  5   94  82  6   125 113 32  112 100 20  111 99  16  103 91  6   117 105 20  121 110 25  115 104 19  122 112 24  104 93  3   110 99  7   143 133 41  164 150 64  103 89  7   120 105 31  119 104 28  130 115 25  138 123 33  128 111 35  143 125 56  129 109 41  126 106 33  151 136 50  142 127 36  159 144 56  133 117 29  157 144 53  152 139 50  135 123 45  140 127 52  132 119 41  115 103 25  116 106 30  109 98  25  142 134 59  123 114 40  127 119 44  98  90  15  128 122 47  111 105 29  123 117 46  98  91  22  80  74  10  82  76  17  53  48  0   39  36  0   58  56  11  46  44  1   53  50  10  44  39  0   76  71  29  74  70  26  69  65  18  80  77  26  80  77  26  79  76  23  73  71  15  77  74  20  56  52  5   53  49  5   50  45  4   50  46  2   67  64  13  93  91  35  65  64  3   78  77  13  99  98  32  93  93  24  84  84  13  77  77  4   89  90  15  81  82  7   76  76  5   95  95  29  87  86  25  57  54  0   51  48  8   59  56  18  61  61  16  57  58  10  49  45  0   63  50  5   95  74  22  118 94  43  141 124 75  112 100 47  88  77  17  71  58  0   126 108 51  143 123 66  146 124 63  137 119 59  93  83  32  85  80  29  71  63  9   58  51  0   69  66  0   83  80  15  64  59  6   67  61  13  110 105 52  84  77  34  158 150 130 228 220 209 233 228 216 233 228 216 231 229 216 231 229 216 233 230 217 233 230 217 233 230 217 233 230 217 234 231 218 234 231 218 233 230 217 231 229 216 231 229 216 231 229 216 231 229 216 231 229 216 240 237 222 162 159 135 71  65  29  131 121 84  88  75  47  79  65  40  111 97  68  144 131 99  114 102 74  109 98  68  140 131 93  121 112 65  115 108 51  99  97  29  99  98  23  112 110 38  70  69  5   65  63  5   71  69  8   100 98  38  69  67  8   67  65  7   70  68  7   57  56  0   74  76  7   88  89  27  59  57  10  49  47  7   21  21  0   64  65  17  77  80  20  65  68  8   93  92  42  129 125 81  117 111 63  92  84  32  113 104 48  116 103 44  127 112 49  140 125 64  128 114 59  142 130 82  122 110 71  157 146 115 171 161 142 182 175 162 225 225 213 220 222 212 223 222 215 223 222 215 224 223 216 224 223 216 224 223 216 224 223 216 226 225 219 226 225 221 225 225 223 225 225 223 226 227 218 226 227 218 222 224 216 225 226 219 233 235 223 145 145 120 100 94  48  133 123 69  169 159 110 180 166 123 208 192 150 206 188 146 203 184 143 184 168 123 137 126 82  110 102 53  121 117 57  120 117 50  108 103 34  130 125 58  132 127 63  145 139 77  127 119 56  146 138 72  118 113 47  144 139 72  162 155 86  111 103 35  155 147 82  129 122 56  140 133 64  118 111 40  144 138 65  113 106 38  115 106 50  130 121 67  114 105 49  107 98  40  118 109 48  107 99  38  135 126 70  118 108 56  114 103 59  164 152 113 187 177 140 138 130 94  120 119 83  163 163 133 233 230 215 224 222 211 224 222 209 227 224 211 228 225 215 229 226 218 230 227 217 230 227 217 230 227 217 231 229 218 231 229 216 231 229 216 233 230 217 234 231 218 236 234 221 238 236 223 238 233 221 230 225 213 224 219 205 213 209 194 206 202 185 210 206 189 212 208 191 218 214 197 226 222 203 227 223 204 225 219 203 225 219 203 225 219 203 224 218 202 223 216 200 224 218 202 226 220 204 229 222 208 230 221 210 230 221 210 229 221 210 229 221 210 224 217 206 226 219 208 227 222 210 230 225 213 231 225 216 226 221 211 226 221 211 231 225 216 238 232 223 235 230 220 233 228 218 231 225 216 231 225 216 234 229 219 227 222 210 221 216 204 225 220 208 213 208 196 218 213 199 216 211 197 218 213 199 233 229 214 240 236 221 242 238 223 243 239 227 245 240 228 245 240 228 243 239 227 243 239 227 242 237 225 242 237 225 242 237 225 243 239 227 243 239 227 243 239 227 243 239 227 249 241 230 249 241 230 249 241 230 249 241 230 250 242 231 247 241 227 239 233 217 158 151 137 86  76  66  119 109 99  94  85  72  69  58  41  68  58  32  178 167 132 201 191 144 135 124 69  131 118 57  121 107 41  129 115 49  143 130 59  106 94  14  103 91  6   134 125 39  150 141 55  165 156 70  155 146 60  164 155 69  153 146 64  113 104 36  114 106 43  115 108 42  122 114 51  116 109 54  174 165 123 156 147 118 225 216 198 252 244 236 249 243 238 248 244 238 248 244 238 251 248 242 244 241 235 254 250 244 248 244 238 249 245 240 249 245 240 249 245 240 249 245 240 249 245 240 249 245 240 249 246 238 249 246 238 249 246 238 245 243 232 254 249 237 238 231 218 202 191 174 168 155 137 168 156 135 175 163 142 189 176 158 196 184 163 204 194 170 195 186 157 178 167 132 185 175 135 137 128 83  144 136 86  130 125 67  157 154 93  106 102 42  128 122 60  130 123 57  115 108 42  130 120 55  130 120 53  125 114 43  121 110 36  127 116 42  138 128 52  125 115 39  124 114 38  113 105 28  121 114 37  111 103 28  112 103 31  117 107 40  99  90  22  100 88  19  120 109 35  142 133 49  129 120 32  127 119 28  120 111 23  109 100 19  117 107 31  135 124 50  125 115 41  107 97  18  117 107 31  123 112 43  132 122 59  97  86  30  110 97  49  189 175 136 146 132 102 121 106 84  112 100 79  146 136 112 228 219 195 212 203 176 208 197 165 229 215 174 194 179 134 179 162 113 132 115 64  127 109 54  136 119 54  129 118 35  167 155 70  121 109 31  129 113 39  158 143 66  141 129 49  131 119 36  156 144 64  158 146 70  207 193 127 214 198 144 144 125 72  183 163 99  201 183 114 169 150 83  129 112 45  150 137 64  147 137 72  126 119 76  107 102 74  122 118 101 222 221 210 236 238 228 236 238 230 228 229 222 217 218 211 223 222 213 230 229 220 234 234 225 237 236 227 238 237 228 239 238 229 241 241 232 243 242 233 245 243 232 245 243 232 245 243 232 245 243 232 245 243 232 243 240 230 237 234 224 231 229 218 242 239 229 242 239 229 242 239 229 242 239 229 241 238 227 241 238 227 241 238 227 241 238 227 242 239 229 241 238 227 241 238 227 241 238 227 242 239 229 242 239 229 243 240 230 243 240 230 244 241 231 244 241 231 245 243 232 245 243 232 245 243 232 245 243 232 247 244 233 247 244 233 250 247 237 250 247 237 250 247 237 250 247 237 247 244 233 247 244 233 247 244 233 247 244 233 245 243 230 243 241 228 241 238 225 238 236 223 232 227 215 235 230 218 241 236 224 246 241 229 249 244 232 249 244 232 250 246 234 250 246 234 250 246 234 250 246 234 253 248 236 253 248 236 253 248 238 253 248 238 254 249 239 254 249 239 255 250 240 255 250 240 255 250 240 255 250 240 255 250 240 255 250 240 255 250 240 255 250 240 255 255 251 190 185 173 74  67  53  69  63  47  134 128 114 111 105 85  80  74  40  142 138 92  143 138 88  164 159 108 163 154 109 177 167 127 161 152 112 192 183 138 212 202 153 194 184 137 201 189 152 232 219 187 227 214 180 226 213 179 237 225 188 199 187 150 221 209 170 239 227 188 197 185 146 156 144 105 141 129 88  172 161 119 201 190 146 178 167 123 180 170 123 214 203 159 234 222 185 227 215 178 224 212 168 218 207 161 205 192 147 212 199 156 230 215 179 224 209 175 238 223 189 231 216 182 240 225 192 234 219 186 235 217 185 236 219 186 235 217 185 236 219 184 208 192 152 214 198 158 221 204 169 229 212 179 240 225 192 237 222 186 229 215 174 244 229 191 234 219 188 
181 163 105 158 148 81  82  79  0   164 168 73  179 183 90  181 177 103 223 218 153 192 192 131 165 168 108 148 151 89  197 197 141 223 222 172 215 210 173 225 217 194 207 200 184 192 190 175 191 188 177 202 199 191 216 212 209 219 214 215 204 198 193 106 103 79  106 105 71  80  74  40  56  50  15  67  58  25  62  54  18  68  58  21  87  77  37  109 98  56  85  74  30  112 99  55  138 123 78  133 116 67  115 99  43  132 115 52  125 109 39  104 89  14  137 125 47  86  76  0   131 123 44  123 115 34  109 101 20  111 103 17  108 100 11  116 108 17  113 103 11  141 131 41  115 104 19  163 151 73  144 128 56  89  73  5   107 88  22  120 101 32  146 130 58  103 88  13  101 88  15  107 93  27  96  80  20  87  71  15  99  83  27  69  54  0   82  68  0   125 113 30  93  82  0   94  84  0   126 115 30  117 105 22  120 108 28  134 122 44  139 127 46  142 131 46  129 119 29  149 139 47  147 137 45  169 156 70  113 99  20  115 99  29  87  71  0   116 101 15  124 109 23  120 102 28  115 97  28  92  71  3   132 112 37  160 146 55  113 99  3   121 106 13  133 118 27  147 135 41  126 115 26  144 132 54  127 114 41  131 118 42  120 107 34  96  85  14  82  71  0   85  73  2   114 103 31  87  78  6   91  82  10  104 95  23  128 119 50  125 115 48  105 97  31  69  63  2   68  61  7   69  64  13  63  59  12  48  46  4   47  44  6   46  41  4   36  29  0   43  36  0   36  29  0   77  70  27  90  84  38  45  39  0   72  67  16  81  75  25  60  54  4   52  48  4   56  51  9   52  48  4   43  39  0   78  75  21  91  88  32  72  68  10  84  80  22  70  66  6   69  65  3   99  96  31  97  94  27  70  68  0   65  64  0   62  60  0   85  83  15  88  84  22  44  41  0   39  36  0   45  41  6   62  62  19  64  65  19  52  48  4   65  54  10  63  44  0   75  54  6   116 101 54  98  88  37  72  63  9   88  76  21  103 89  37  157 141 87  187 167 112 174 156 100 139 129 75  82  76  19  64  56  0   90  82  18  69  64  0   104 100 40  65  60  12  52  45  0   89  84  29  74  68  20  114 107 82  225 218 205 233 228 216 233 228 216 231 229 216 231 229 216 233 230 217 233 230 217 233 230 217 233 230 217 234 231 218 234 231 218 233 230 217 231 229 216 233 228 216 233 228 216 233 228 216 233 229 214 237 236 218 163 161 134 66  61  22  142 132 92  130 117 87  101 87  60  83  73  40  68  58  23  69  60  29  58  50  17  55  48  7   64  56  6   95  89  29  137 132 63  116 112 36  131 127 53  120 117 54  105 102 39  111 109 37  91  89  19  73  71  17  74  71  20  116 115 54  98  97  33  104 106 41  86  86  27  86  84  37  77  75  33  62  62  21  66  67  19  54  57  0   71  76  6   103 104 40  149 147 86  159 155 95  137 131 69  129 121 60  131 118 57  132 117 56  150 135 74  134 120 61  140 129 73  134 123 77  152 142 107 164 155 131 180 173 157 223 223 209 212 214 202 222 221 212 222 220 214 223 222 215 223 222 215 223 222 215 223 222 215 225 224 218 225 224 220 224 224 222 224 224 220 225 226 219 225 226 217 229 231 223 226 227 220 234 236 224 152 152 127 113 109 60  115 108 51  129 121 71  140 129 85  184 170 132 150 133 96  173 157 115 161 148 104 131 122 78  116 110 60  146 142 80  154 151 84  141 139 69  147 144 77  132 129 64  124 118 56  165 159 95  143 138 71  151 146 79  140 135 69  149 141 76  152 145 79  132 124 58  126 118 52  141 133 70  148 140 75  128 121 53  106 98  35  101 93  41  97  89  40  146 136 84  137 128 74  123 114 62  141 131 80  120 110 59  165 155 106 115 107 59  129 121 73  137 129 81  140 133 90  129 128 94  208 208 183 226 223 212 221 217 212 224 222 211 220 217 206 223 220 210 231 229 218 229 226 216 229 226 216 230 227 217 228 225 215 228 225 213 230 228 215 233 230 217 234 231 218 238 233 221 239 234 222 236 232 220 230 225 213 224 219 205 212 208 193 206 202 185 210 206 189 213 209 192 219 215 198 225 221 202 226 222 203 225 219 203 225 219 203 225 219 203 225 219 203 224 218 202 226 220 204 230 223 207 231 224 211 233 223 213 233 223 213 231 224 213 231 224 213 231 224 213 233 226 215 234 229 217 236 232 220 238 232 223 233 228 218 233 228 218 238 232 223 238 232 223 238 232 223 238 232 223 238 232 223 236 231 222 232 227 217 227 222 210 223 218 206 227 222 210 216 211 199 220 216 201 218 213 199 224 219 205 239 234 220 243 239 225 241 237 222 245 238 227 246 239 228 245 240 228 243 239 227 246 241 229 246 241 229 246 241 229 246 241 229 249 244 232 249 244 232 249 244 232 249 244 232 250 242 231 250 242 231 250 243 229 250 243 229 253 246 233 239 232 219 255 251 239 215 208 196 83  76  63  93  86  70  137 130 116 66  58  40  78  69  42  157 147 111 194 184 137 159 147 94  131 118 59  113 98  37  136 118 60  127 112 49  122 110 34  134 124 41  139 130 47  123 116 32  118 111 27  125 118 34  131 124 40  127 119 42  85  77  14  102 96  36  86  79  20  85  78  21  77  67  16  146 134 90  151 139 104 177 164 141 245 238 227 255 255 250 252 246 241 255 251 247 245 242 236 248 244 238 255 251 245 243 239 234 248 244 238 248 244 238 248 244 238 248 244 238 249 245 240 249 245 240 249 245 240 249 245 240 248 247 241 250 247 239 250 247 237 252 247 235 225 218 205 178 169 154 168 157 140 191 181 161 197 186 167 201 190 169 153 143 119 149 140 111 188 178 143 175 166 126 129 120 75  129 122 67  145 140 73  124 120 46  123 119 45  125 121 50  142 134 69  154 146 82  98  88  25  128 119 50  136 126 47  121 112 28  122 113 29  115 105 24  118 109 28  117 108 27  118 111 29  102 94  15  102 93  19  124 115 45  112 103 35  98  89  21  99  87  18  102 91  18  109 100 19  135 126 38  128 120 29  114 105 19  113 106 26  111 103 28  108 96  27  104 93  24  109 100 28  97  87  22  94  81  31  83  72  27  162 150 111 176 163 129 161 147 118 166 154 129 149 139 120 128 119 102 87  78  63  133 124 106 192 184 164 218 208 184 211 197 170 197 182 149 199 185 147 208 193 148 129 114 65  134 120 61  118 108 34  144 134 53  118 108 30  153 140 62  168 155 78  131 121 43  135 125 46  109 99  23  142 131 57  164 152 85  168 151 98  134 116 63  126 106 46  187 168 106 162 142 80  131 114 51  177 162 99  186 174 121 140 132 98  121 114 96  160 158 145 247 246 238 236 238 230 231 232 224 225 224 218 220 219 213 223 222 215 229 227 221 234 233 227 237 236 229 239 238 229 240 239 231 243 242 233 244 243 234 245 243 232 245 243 232 245 243 232 245 243 232 240 237 226 240 237 226 236 233 223 233 230 219 243 240 230 243 240 230 243 240 230 243 240 230 242 239 229 242 239 229 242 239 229 241 238 227 241 238 227 241 238 227 241 238 227 241 238 227 244 241 231 244 241 231 243 240 230 243 240 230 244 241 231 244 241 231 244 241 231 244 241 231 244 241 231 244 241 231 244 241 231 244 241 231 252 249 239 251 248 238 248 245 234 247 244 233 245 243 232 245 243 232 245 243 232 247 244 233 248 245 232 247 244 231 244 242 229 242 239 227 238 233 221 238 233 221 238 233 221 238 233 221 253 248 236 250 246 234 246 241 229 242 237 225 252 247 235 252 247 235 252 247 235 252 247 235 253 248 238 253 248 238 253 248 238 253 248 238 254 249 239 254 249 239 254 249 239 254 249 239 255 250 240 255 250 240 254 251 240 254 251 240 251 248 240 232 226 219 106 101 89  51  46  34  118 111 100 140 134 116 73  67  35  112 107 63  139 134 81  141 136 83  170 161 114 185 176 133 165 156 113 193 185 137 235 225 174 172 162 113 193 181 144 227 214 182 229 217 182 232 219 185 214 202 165 198 186 149 228 216 177 231 219 179 215 204 164 210 198 158 175 163 121 186 175 133 211 198 154 158 144 101 125 112 66  197 184 140 201 186 148 184 170 132 191 178 135 216 203 157 186 172 127 198 185 142 215 200 164 224 209 175 237 222 188 233 218 185 231 216 182 224 209 175 221 203 171 192 174 142 234 216 183 231 214 179 228 212 172 199 182 142 188 171 136 224 207 174 237 222 188 225 210 174 239 225 184 236 221 183 243 227 196 
129 108 58  122 108 56  118 113 49  181 184 101 166 168 86  209 206 141 183 181 122 182 185 125 178 184 120 165 169 104 204 206 141 215 213 155 205 201 152 227 222 183 202 195 168 210 206 189 215 212 202 220 216 208 217 213 210 216 208 211 205 199 194 92  89  65  63  62  28  73  69  34  53  50  14  57  51  17  57  51  15  65  58  20  74  67  26  91  84  41  80  71  28  106 94  53  123 110 64  114 99  49  99  83  27  148 131 69  147 131 62  133 118 41  132 117 40  99  88  14  128 120 46  126 120 44  107 102 24  111 103 24  107 97  16  115 106 22  143 134 48  131 123 35  131 122 39  222 212 133 184 172 101 106 92  26  94  80  16  97  82  19  107 92  29  103 89  20  87  73  5   128 113 50  126 111 50  94  79  18  97  82  21  136 121 60  78  64  0   139 127 46  121 110 25  93  82  0   108 96  16  113 101 23  110 97  21  100 87  12  124 111 33  97  86  1   121 111 21  146 135 45  144 134 46  126 113 28  106 92  15  109 93  23  117 101 29  133 116 35  113 97  13  112 94  20  117 99  28  120 100 27  147 128 48  162 147 54  152 139 41  144 130 35  145 131 36  145 133 37  122 112 22  153 140 64  137 124 53  150 137 66  118 104 34  127 115 44  121 109 40  94  82  13  113 101 34  80  70  3   92  83  15  76  67  0   94  84  17  95  85  20  96  86  23  76  67  8   66  58  6   71  65  17  57  53  9   44  41  1   37  31  0   55  47  13  30  19  0   46  35  3   38  28  0   72  62  22  110 101 59  75  67  22  95  88  43  69  63  17  48  42  0   48  41  0   83  78  34  81  78  31  66  63  14  69  66  12  44  42  0   58  54  0   67  62  5   88  84  24  78  75  12  79  76  11  82  79  12  79  77  7   100 98  28  93  91  21  95  92  22  89  86  21  57  53  0   58  53  12  37  33  0   47  44  6   59  56  16  55  53  13  76  67  27  77  59  17  66  45  2   112 99  51  108 98  49  79  71  19  78  68  17  92  80  32  113 98  50  165 145 97  172 156 104 136 127 71  61  55  0   71  61  0   109 99  34  78  72  8   106 102 44  77  71  25  56  50  4   84  79  24  96  90  40  106 99  70  225 219 203 232 227 213 232 227 215 230 228 215 230 228 215 231 229 216 231 229 216 233 230 217 233 230 217 233 230 217 231 229 216 233 230 217 231 229 216 233 228 216 233 228 216 232 227 215 233 229 214 231 230 210 181 178 150 87  83  41  127 121 77  94  83  50  66  53  23  61  51  16  63  56  17  46  41  6   53  48  11  55  50  6   52  46  0   95  87  26  155 148 77  135 129 52  111 105 29  94  89  22  86  84  16  84  83  6   85  83  11  86  84  28  57  54  3   119 117 58  156 154 93  103 101 45  56  56  2   98  97  48  74  73  25  100 100 57  107 108 60  75  78  13  71  76  4   107 112 42  105 107 40  124 124 58  126 123 58  124 119 54  114 104 42  118 106 44  109 97  33  145 135 70  133 122 62  134 124 71  157 148 105 170 162 130 178 172 151 222 222 206 222 224 212 222 221 212 222 220 214 223 222 215 223 222 215 223 222 215 223 222 215 225 224 218 225 224 220 224 224 222 224 224 220 225 226 219 225 226 219 229 230 225 226 227 220 233 235 223 151 153 125 139 139 84  132 128 66  112 105 55  112 103 61  154 141 105 118 103 67  140 126 85  139 127 83  116 107 62  121 116 65  133 130 67  141 138 71  141 139 69  138 135 68  152 149 84  162 159 94  144 139 72  147 142 76  164 159 92  157 152 85  169 161 95  178 171 105 133 125 59  115 108 42  125 117 53  143 135 72  116 109 41  126 118 54  93  85  33  87  79  31  128 118 67  157 147 96  119 109 58  125 114 65  122 112 63  156 146 97  123 115 65  88  80  32  161 153 106 130 122 82  143 142 110 228 227 207 216 213 205 221 217 214 222 219 211 222 219 209 224 222 211 229 226 216 229 226 216 229 226 216 229 226 216 228 225 215 228 225 213 230 228 215 233 230 217 234 231 218 238 233 221 239 234 222 236 232 220 230 225 213 224 219 205 212 208 193 206 202 185 210 206 189 213 209 192 219 215 198 225 221 202 226 222 203 226 220 204 226 220 204 226 220 204 226 220 204 226 220 204 229 222 206 231 225 209 233 227 213 235 225 215 235 225 215 233 226 215 233 226 215 233 226 215 236 228 217 236 232 220 239 234 222 240 235 225 235 230 220 235 230 220 240 235 225 238 232 223 238 232 223 238 232 223 238 232 223 239 234 224 234 229 219 228 223 211 225 220 208 232 227 215 220 215 203 225 220 206 223 218 204 228 224 209 241 237 222 245 240 226 242 238 223 245 238 227 246 239 228 245 240 228 245 240 228 246 241 229 246 241 229 246 241 229 246 241 229 249 244 232 249 244 232 249 244 232 249 244 232 250 242 231 250 242 231 250 243 229 250 243 229 244 237 223 255 251 237 252 244 236 242 234 223 129 122 106 72  65  49  133 126 113 87  78  63  79  70  42  104 94  57  172 161 117 199 187 139 168 154 102 114 98  44  110 91  38  130 112 54  120 106 36  117 107 31  113 105 28  112 104 27  124 116 39  114 107 30  102 94  17  86  80  7   85  79  17  81  74  17  69  63  6   72  65  8   87  78  24  120 110 59  133 120 74  127 114 80  222 215 199 251 248 242 248 242 237 247 241 236 248 244 238 245 242 236 252 249 243 245 242 236 248 244 238 248 244 238 248 244 238 248 244 238 249 245 240 249 245 240 249 245 240 249 245 240 248 247 241 248 247 241 250 247 239 250 247 237 254 249 237 206 199 185 169 160 145 164 154 137 192 182 163 209 199 177 166 156 132 149 140 113 201 190 160 207 197 161 167 157 120 140 132 85  139 134 70  115 111 37  135 131 55  125 121 48  126 118 52  128 121 55  101 91  24  126 118 43  150 141 55  136 128 37  127 118 30  106 97  11  111 103 17  115 106 22  128 121 39  125 117 38  113 105 30  99  90  20  104 94  29  102 92  27  89  77  11  95  84  13  114 104 23  122 113 27  134 125 39  108 99  15  98  91  11  90  81  9   77  65  0   97  85  21  131 120 58  138 126 71  104 92  50  146 132 100 180 169 139 182 171 145 147 135 112 177 166 150 243 234 221 221 213 204 127 120 111 80  72  61  94  88  69  179 171 149 172 159 138 150 136 111 218 205 171 197 185 144 154 143 97  140 129 73  96  86  19  110 101 27  117 109 30  142 135 55  142 135 55  144 136 59  125 115 41  151 140 68  181 171 97  145 134 65  106 91  30  152 134 76  149 129 68  131 109 48  130 110 51  134 116 59  157 141 85  168 155 109 112 102 78  105 98  87  203 200 192 237 236 229 235 236 229 231 232 224 226 225 219 223 222 215 222 220 214 229 227 221 234 233 227 237 236 229 239 238 229 241 241 232 243 242 233 244 243 234 245 243 232 245 243 232 245 243 232 245 243 232 240 237 226 240 237 226 236 233 223 233 230 219 243 240 230 243 240 230 243 240 230 243 240 230 242 239 229 242 239 229 242 239 229 241 238 227 241 238 227 240 237 226 241 238 227 241 238 227 241 238 227 241 238 227 242 239 229 242 239 229 243 240 230 243 240 230 243 240 230 243 240 230 244 241 231 244 241 231 244 241 231 244 241 231 254 251 240 252 249 239 249 246 236 248 245 234 247 244 233 247 244 233 247 244 233 248 245 234 249 246 234 248 245 232 245 243 230 243 241 228 240 235 223 240 235 223 240 235 223 240 235 223 249 244 232 249 244 232 250 246 234 250 246 234 250 246 234 250 246 234 252 247 235 252 247 235 253 248 238 253 248 238 252 246 237 253 248 238 254 249 239 254 249 239 254 249 239 254 249 239 255 250 240 255 250 240 254 251 240 254 250 242 248 244 238 255 255 249 171 166 156 62  57  47  84  77  68  148 142 126 100 93  64  87  83  41  150 145 94  167 162 107 160 152 103 156 148 98  171 163 113 175 167 118 211 201 150 218 207 159 199 187 150 221 208 176 241 228 194 235 223 188 189 176 142 203 190 155 237 225 188 203 190 153 234 222 185 218 206 167 215 204 164 182 170 131 197 183 142 147 133 92  144 130 87  186 172 131 158 143 105 156 142 104 175 162 118 203 190 144 176 163 117 180 166 123 205 191 155 239 224 190 236 221 187 237 222 188 222 207 173 206 191 158 193 176 143 173 156 123 230 213 180 233 215 180 242 225 188 186 169 132 189 172 137 229 212 177 210 195 159 193 178 140 226 212 172 217 203 164 218 203 169 
158 137 85  158 143 96  91  82  26  174 176 98  216 220 137 207 207 137 195 195 138 206 209 162 191 196 153 187 191 140 202 202 145 187 186 125 189 185 123 183 180 117 195 192 141 215 210 184 220 215 205 223 220 212 221 217 214 221 214 217 216 209 205 98  95  71  61  59  26  63  62  26  51  47  12  45  41  6   52  47  10  60  55  16  60  56  14  76  71  27  76  69  26  72  63  20  92  81  37  96  83  35  100 86  31  91  77  11  111 96  23  134 117 38  117 102 25  117 105 39  83  73  10  122 115 49  121 114 46  134 127 57  109 100 28  112 104 29  133 126 46  182 175 93  208 200 119 218 211 131 216 207 133 116 106 39  105 95  32  113 99  44  136 122 69  162 148 91  172 159 98  149 136 72  139 127 61  136 122 54  115 101 33  155 141 73  120 106 38  131 117 46  83  70  0   92  79  6   114 101 28  111 98  25  98  85  12  122 110 34  136 124 46  115 104 21  108 97  12  125 113 30  115 103 23  125 110 33  117 102 27  116 101 26  136 121 44  124 108 29  112 95  16  124 107 31  114 97  21  122 104 23  155 137 52  137 122 32  130 116 21  124 110 15  123 110 12  138 127 28  134 124 34  119 106 31  97  83  15  106 92  24  103 89  18  107 96  24  102 91  22  100 88  21  96  84  20  117 107 44  99  89  27  92  82  17  95  85  20  78  68  4   77  67  6   70  61  5   64  56  4   52  45  0   46  42  0   63  60  23  65  59  25  79  71  40  82  71  41  114 101 69  121 108 74  140 127 91  163 151 112 173 162 120 164 155 112 165 155 117 114 104 64  56  50  4   69  64  13  71  66  13  64  59  6   93  88  35  97  92  37  82  77  22  54  50  0   84  80  20  98  95  32  86  84  16  97  95  25  96  93  24  90  88  18  98  96  26  97  95  25  99  97  27  79  76  13  74  71  24  35  29  0   39  35  2   54  50  17  48  45  8   71  64  25  82  68  29  60  44  2   80  67  21  101 91  42  74  67  14  58  50  0   61  50  3   105 92  48  157 139 95  141 126 76  122 114 55  123 116 50  131 119 53  94  82  17  97  88  29  81  74  19  91  85  37  67  61  13  86  81  28  120 114 66  109 103 71  225 220 199 232 227 213 232 227 215 231 229 216 231 229 216 231 229 216 231 229 216 233 230 217 231 229 216 233 230 217 231 229 216 233 230 217 231 229 216 232 227 215 234 229 217 232 227 215 233 229 214 231 230 210 170 168 137 81  77  33  116 109 64  81  70  38  53  42  12  51  41  3   54  47  6   46  43  5   55  53  13  59  55  9   54  49  0   88  81  17  151 142 70  151 143 64  126 119 39  116 112 38  110 106 32  77  76  0   92  90  18  95  91  31  43  39  0   98  94  36  149 145 89  84  80  33  36  32  0   84  84  30  73  73  18  78  79  31  114 116 63  99  105 39  68  75  7   103 109 48  97  99  42  98  101 41  98  100 36  87  87  19  80  75  6   111 104 33  135 128 58  132 122 55  114 105 40  127 119 58  149 141 89  163 156 117 172 167 141 219 220 204 222 224 214 222 220 214 222 220 214 223 222 215 223 222 215 224 223 216 224 223 216 225 224 218 225 224 220 224 224 222 224 224 220 225 226 219 225 226 219 228 229 224 226 227 220 233 234 225 151 153 125 116 116 59  127 124 59  104 98  48  124 115 75  142 129 95  95  83  48  95  84  42  93  82  36  79  70  25  105 100 49  124 120 58  124 121 54  117 114 47  123 120 52  131 128 63  150 147 82  144 139 72  157 152 83  125 121 52  136 131 62  134 127 59  141 134 66  152 145 77  144 137 71  122 115 49  123 116 50  140 133 62  142 134 69  112 105 51  117 109 60  98  88  37  151 142 88  155 146 90  100 91  35  147 137 83  121 111 60  96  88  41  112 104 59  152 145 104 108 102 68  184 181 157 226 224 208 226 222 216 214 210 207 220 216 208 224 222 211 228 225 215 227 224 213 229 226 216 229 226 216 229 226 216 228 225 215 228 225 213 230 228 215 233 230 217 235 232 220 238 233 221 239 234 222 236 232 220 230 225 213 225 220 206 212 208 193 206 202 187 211 206 192 213 209 192 219 215 198 225 221 202 226 222 203 229 222 206 229 222 206 229 222 206 229 222 206 230 223 207 231 225 209 235 228 212 237 230 216 239 229 218 239 229 218 237 230 218 237 230 218 235 230 218 238 233 221 240 235 223 241 238 225 242 239 229 237 234 224 237 234 224 242 239 229 236 233 223 236 233 223 236 233 223 236 233 223 240 237 226 236 233 223 230 228 215 226 223 210 236 234 221 224 222 209 229 227 212 227 225 209 233 230 215 242 240 225 244 242 227 242 238 223 245 238 227 246 239 228 245 240 228 245 240 228 246 241 231 246 241 229 246 241 229 246 241 227 249 244 232 249 244 232 249 244 232 249 244 232 250 242 231 250 242 231 250 242 231 250 243 229 245 238 225 255 251 237 244 236 227 250 242 233 186 179 163 75  69  51  94  86  75  127 118 101 145 136 103 99  89  49  152 141 101 168 154 115 155 139 96  134 116 72  80  61  10  103 85  27  92  78  12  108 96  27  117 108 38  117 108 38  118 108 41  89  79  12  73  66  0   84  76  11  81  77  15  70  66  6   78  74  14  88  82  22  108 100 41  106 97  39  120 110 49  125 114 67  166 158 140 242 236 231 248 242 237 242 236 231 250 246 241 243 239 234 250 247 239 248 244 236 247 243 237 247 243 237 248 244 238 248 244 238 248 244 238 248 244 238 249 245 240 249 245 240 248 247 241 248 247 241 248 248 239 250 247 237 253 248 238 251 244 232 206 199 183 150 142 124 150 140 121 185 175 156 199 189 168 169 159 135 154 142 119 154 143 117 152 140 115 159 148 116 140 134 88  119 115 57  100 95  28  89  84  15  88  81  15  81  74  6   134 126 49  145 138 52  135 127 34  129 122 26  141 133 40  141 133 42  125 117 31  115 106 22  120 113 31  118 110 31  106 98  25  92  83  15  97  87  24  96  86  23  93  81  14  99  87  16  113 103 24  110 101 20  138 129 48  117 107 29  121 114 35  125 117 42  110 100 33  97  86  26  104 92  39  104 93  46  173 162 122 171 160 127 156 144 118 153 143 121 184 173 159 251 241 233 255 248 246 255 252 252 236 230 228 151 146 137 84  80  61  89  84  60  148 140 120 190 180 156 180 170 135 179 169 129 192 183 140 164 154 105 123 115 54  111 104 33  108 103 23  112 107 24  115 110 30  144 139 61  132 123 51  142 133 64  157 146 74  179 166 93  194 179 104 233 215 141 243 220 150 185 161 96  134 112 53  160 141 88  165 148 99  155 141 103 116 105 88  137 129 122 242 238 233 232 231 224 235 236 229 232 233 226 226 225 219 222 220 214 223 222 215 227 226 220 233 232 226 236 234 228 240 239 231 243 242 233 244 243 232 244 243 232 245 242 234 245 242 234 245 243 232 245 243 232 240 237 226 240 237 226 236 233 223 233 230 219 243 240 230 243 240 230 243 240 230 243 240 230 243 238 229 243 238 229 242 239 229 241 238 227 241 238 227 240 237 226 241 236 226 241 236 226 240 237 226 240 237 226 238 237 226 238 237 226 239 239 227 239 239 227 240 240 229 240 240 229 243 240 230 243 240 230 244 241 231 244 241 231 249 246 236 247 244 233 244 241 231 242 239 229 241 238 227 241 238 227 241 238 227 242 239 229 243 241 228 242 239 227 240 237 224 237 235 222 236 234 221 236 234 221 236 234 221 236 234 221 236 232 220 240 235 223 247 242 230 250 246 234 252 247 235 252 247 235 252 247 235 252 247 235 252 246 237 254 249 239 252 246 237 253 248 238 254 249 239 254 249 239 254 249 239 254 249 239 255 250 240 255 250 240 254 251 240 254 250 242 250 246 243 255 252 249 228 223 215 112 106 99  53  45  39  131 124 110 131 124 97  80  75  36  128 123 74  174 169 114 175 168 114 156 149 92  175 169 112 168 161 107 183 173 122 193 182 138 199 187 150 228 215 183 240 227 193 217 204 169 183 170 138 221 208 176 239 226 194 204 191 157 198 185 151 220 208 171 197 185 148 189 176 140 167 152 116 147 132 96  76  61  25  135 121 85  151 136 100 166 151 113 201 187 146 233 220 177 202 189 143 190 177 133 204 190 153 236 221 187 232 217 183 231 216 182 205 190 157 198 183 150 174 156 126 182 165 134 228 210 180 230 213 180 202 185 150 179 162 127 195 178 143 223 207 169 201 187 144 189 176 132 230 216 175 226 212 176 227 212 179 
147 126 71  130 115 70  108 98  49  172 172 104 197 200 128 193 192 129 228 227 175 179 181 142 141 145 107 171 173 131 179 177 130 194 187 130 172 161 99  176 169 100 203 199 141 203 199 171 200 196 184 210 208 197 224 221 213 212 206 203 206 201 191 99  97  70  76  75  39  57  56  20  48  45  10  37  33  0   49  43  8   58  53  16  59  54  15  64  59  18  61  54  13  67  58  18  76  67  25  77  66  22  83  71  20  100 85  22  104 91  18  127 112 38  124 110 39  103 92  34  104 94  42  187 178 124 108 99  43  106 97  39  129 121 60  162 152 89  101 91  24  123 117 42  177 171 96  159 153 80  187 180 112 149 141 78  125 116 57  205 195 144 227 215 165 234 223 168 206 196 136 119 109 44  96  85  16  110 99  28  113 99  29  83  69  1   106 92  26  82  67  4   101 87  23  91  77  11  65  51  0   107 94  23  114 101 30  115 102 29  124 109 34  129 114 35  112 98  19  140 125 50  84  69  0   109 93  21  100 84  12  120 105 31  140 125 50  123 105 34  94  76  5   123 106 32  135 118 41  119 100 20  134 116 31  120 104 16  141 126 33  156 142 46  122 110 12  127 118 19  144 134 42  125 112 35  120 106 36  86  73  0   76  63  0   109 98  25  123 112 41  104 93  24  99  86  22  118 107 47  94  82  25  71  61  0   101 90  28  84  74  11  57  49  0   51  44  0   71  63  11  67  60  15  81  77  35  139 136 98  162 156 121 181 172 141 187 176 146 155 142 110 133 120 86  148 136 99  164 152 113 170 159 117 170 158 119 158 148 112 188 178 143 146 137 95  93  84  37  71  63  13  76  69  19  100 92  42  82  76  26  106 102 46  77  73  15  84  81  18  93  90  25  95  92  24  79  77  7   61  58  0   71  69  1   52  48  0   71  68  3   91  89  19  77  74  9   79  76  25  45  40  1   42  39  6   52  48  17  36  32  0   52  47  10  78  66  29  66  52  11  64  51  6   88  79  27  79  70  16  69  59  7   48  37  0   71  60  16  101 85  43  118 104 54  101 93  32  105 97  31  109 97  31  106 93  29  105 96  38  47  40  0   94  86  34  77  72  19  93  89  33  130 127 78  121 117 84  224 218 198 232 227 213 232 227 215 231 229 216 231 229 216 231 229 216 231 229 216 233 230 217 231 229 216 233 230 217 230 228 215 233 230 217 231 229 216 232 227 215 234 229 217 231 226 214 233 229 214 236 235 215 177 175 144 91  87  40  114 109 60  67  57  22  58  47  14  63  56  15  63  58  16  65  62  22  60  57  17  59  55  9   68  63  8   115 108 42  139 130 58  141 131 52  135 125 44  146 140 60  147 144 66  109 105 31  142 140 70  128 125 62  106 102 44  104 100 40  46  41  0   110 103 58  86  83  34  105 103 44  126 127 65  58  61  3   96  98  40  130 136 70  114 120 54  99  104 45  113 118 59  100 104 41  87  91  26  114 115 49  123 123 55  123 121 48  139 135 64  135 130 61  136 131 64  156 150 86  157 150 93  152 145 102 172 168 137 222 222 206 215 217 209 222 220 214 222 220 214 223 222 215 223 222 215 224 223 216 224 223 216 225 224 218 225 224 218 224 224 220 224 224 220 225 226 219 225 226 217 228 229 222 226 227 220 232 233 224 152 152 125 107 107 50  124 121 56  89  84  31  115 106 63  114 104 66  86  74  37  83  72  27  74  66  18  64  58  12  100 95  44  150 147 84  135 133 65  132 129 62  161 158 91  132 129 64  147 144 79  163 158 89  150 145 76  138 133 64  138 133 64  132 124 56  158 152 81  148 141 71  157 150 80  100 93  25  120 113 45  119 112 41  133 126 57  131 125 65  124 117 63  119 109 56  144 135 79  149 141 80  135 127 66  127 118 62  140 130 76  114 106 54  145 137 90  128 121 80  120 113 84  224 220 201 220 217 206 227 223 220 215 211 208 217 214 206 226 223 212 229 226 216 224 222 211 229 226 216 229 226 216 229 226 216 228 225 215 228 225 213 230 228 215 233 230 217 235 232 220 238 233 221 239 234 222 236 232 220 230 225 213 225 220 206 212 208 193 206 202 187 211 206 192 213 209 192 219 215 198 225 221 202 228 221 205 231 225 209 231 225 209 231 225 209 231 225 209 231 225 209 233 227 213 237 230 216 238 231 218 240 230 220 240 230 220 238 231 220 238 231 220 236 232 220 239 234 222 240 237 224 242 239 227 243 241 228 238 236 225 238 236 225 243 240 230 236 233 223 236 233 223 236 233 223 236 233 223 242 239 229 237 234 224 233 230 217 228 225 213 240 237 224 228 225 213 233 230 215 230 228 213 235 233 218 243 241 226 245 243 228 242 238 223 245 238 227 246 239 228 245 239 230 245 239 230 246 241 231 246 241 231 246 241 229 246 241 227 249 244 232 249 244 232 249 244 232 249 244 232 250 242 231 250 242 231 250 242 231 250 242 231 255 251 237 243 236 222 240 233 224 255 251 243 221 214 198 94  87  71  86  78  67  139 133 117 122 116 84  84  77  38  149 139 101 121 107 71  124 107 72  188 169 130 84  66  22  87  71  19  97  84  25  125 113 49  120 110 47  89  79  16  76  66  3   91  82  22  99  91  30  92  86  24  89  85  23  78  77  13  93  90  25  89  86  21  101 95  33  85  77  16  97  86  26  146 135 86  113 106 79  214 210 195 242 237 227 246 240 233 252 249 241 241 237 229 248 244 236 250 247 239 247 243 237 247 243 237 248 244 238 248 244 238 248 244 238 248 244 238 249 245 240 249 245 240 248 247 241 248 247 241 248 248 239 250 247 239 236 231 222 255 255 249 250 243 229 192 185 169 147 138 120 134 124 104 197 186 167 190 180 160 144 131 111 116 103 83  160 148 127 241 232 205 199 192 153 117 111 63  103 98  41  122 116 54  119 114 52  100 93  27  113 105 28  124 117 33  151 143 54  122 114 23  123 115 26  134 124 41  122 112 31  107 97  18  112 105 25  113 105 30  87  77  8   109 99  34  97  87  24  82  72  9   101 89  24  106 94  27  97  86  15  110 100 26  118 108 34  103 94  22  112 103 31  122 115 47  114 106 45  100 91  37  137 126 82  179 169 131 167 156 126 146 136 110 157 147 128 208 199 184 255 245 237 255 248 244 241 234 234 249 242 242 255 255 255 222 219 211 168 164 147 90  86  67  83  77  61  148 140 120 181 175 147 177 169 135 206 199 162 211 202 160 189 182 128 124 119 54  72  67  0   99  95  19  124 121 44  108 104 30  116 109 41  106 97  29  170 158 87  177 164 89  169 152 73  201 179 102 214 189 118 202 174 108 145 118 61  169 147 97  168 153 110 123 112 82  115 106 93  172 166 162 238 232 227 241 237 231 236 234 228 232 233 226 227 226 220 222 220 214 222 220 214 227 226 220 233 232 226 236 234 228 241 241 232 243 242 233 244 243 232 245 243 232 245 242 234 245 242 234 245 242 234 245 243 232 240 237 226 240 237 226 236 233 223 233 230 219 243 240 230 245 239 230 245 239 230 245 239 230 245 237 229 243 238 229 243 238 229 242 237 227 242 237 227 241 236 226 241 236 226 242 234 225 240 235 225 239 234 224 237 234 224 237 234 224 238 236 225 238 236 225 238 236 225 238 236 225 244 241 231 244 241 231 244 241 231 244 241 231 240 236 228 237 234 226 235 232 222 233 230 219 231 229 218 231 229 218 231 229 218 233 230 219 234 231 220 233 230 219 230 227 217 228 225 213 228 225 213 229 227 214 229 227 214 229 227 214 221 217 202 228 224 209 239 234 220 247 242 228 252 247 235 252 247 235 252 247 235 252 247 235 252 246 237 254 249 239 250 245 236 253 248 238 254 249 239 254 249 239 254 249 239 254 249 239 255 250 240 255 250 240 254 251 240 254 250 242 255 255 255 252 248 245 249 243 238 153 147 142 44  35  31  105 98  87  156 148 126 87  82  45  139 133 85  149 141 87  172 165 108 175 169 110 140 135 73  171 164 105 180 171 119 129 118 74  190 178 139 244 232 195 228 216 177 187 175 138 199 186 154 242 229 199 232 219 187 232 219 185 205 193 156 192 180 141 200 188 149 171 160 118 173 159 118 142 128 90  113 98  65  176 161 128 189 174 138 198 184 148 219 205 167 237 223 182 197 184 140 190 177 133 201 186 150 223 208 174 229 214 180 218 203 169 190 175 142 205 190 157 178 160 130 216 198 168 229 211 181 222 204 174 174 156 126 208 191 158 209 192 157 199 183 140 229 216 166 215 202 154 226 212 172 220 206 170 227 213 177 
159 141 85  129 113 69  103 95  50  78  72  24  158 155 106 185 183 136 211 209 165 210 208 163 209 208 167 217 223 184 217 217 176 172 155 108 176 152 101 185 169 115 224 213 166 198 190 166 203 199 182 210 209 189 215 213 196 214 210 195 216 212 193 112 110 79  84  83  45  67  64  28  48  41  9   46  41  6   43  37  3   67  59  23  69  61  25  67  59  21  64  57  18  60  51  11  67  58  18  59  47  12  89  75  34  87  76  16  101 91  24  98  90  27  112 103 47  115 105 58  126 117 75  173 164 121 82  73  31  106 95  51  192 181 135 109 96  48  87  75  20  119 112 43  102 97  28  119 113 54  161 154 100 154 147 95  144 136 84  172 164 112 179 170 116 144 136 75  110 100 37  97  87  22  118 106 40  102 90  24  82  70  6   128 115 51  110 98  36  62  46  0   75  59  3   77  60  0   83  67  0   137 121 51  84  68  0   132 115 50  102 83  19  127 108 39  128 110 39  95  77  6   117 99  30  141 122 53  114 95  27  107 89  18  133 114 47  79  59  0   82  62  3   117 98  36  142 123 57  124 107 33  143 126 48  144 128 45  155 143 54  159 147 53  127 118 21  136 127 28  139 129 34  120 110 27  159 149 71  115 105 24  92  82  1   139 129 51  124 116 37  117 109 32  108 98  29  99  88  31  81  69  16  67  56  0   73  62  0   66  58  0   94  86  25  60  53  0   73  65  13  77  71  25  89  85  43  112 109 72  134 128 93  167 158 127 195 184 154 189 176 144 165 153 118 193 178 142 168 154 115 184 172 131 173 162 122 172 159 127 185 172 142 176 163 131 173 161 124 147 135 96  113 101 62  95  84  44  79  70  25  81  74  21  81  74  17  92  86  24  95  90  23  104 99  33  76  71  7   51  45  0   55  49  0   78  71  14  103 96  40  93  90  27  58  55  0   71  69  12  67  64  15  55  53  13  51  47  12  48  42  7   45  39  5   67  59  21  51  42  0   67  54  8   81  66  17  102 90  35  78  68  15  66  56  9   59  48  4   88  74  31  109 96  48  97  88  27  97  89  23  103 93  28  84  74  11  77  68  8   69  60  0   103 98  33  89  86  21  121 118 55  117 115 61  132 129 93  230 226 205 233 229 214 231 229 216 231 229 216 233 230 217 234 231 218 233 230 217 231 229 216 230 228 215 241 236 226 231 225 216 246 241 231 233 228 218 232 227 217 235 230 220 231 225 216 234 229 217 234 230 215 150 148 121 103 100 53  107 102 53  81  71  36  76  68  34  59  55  13  70  68  26  71  71  30  65  62  22  74  71  24  84  79  24  105 97  31  126 117 45  123 113 35  157 148 64  130 123 37  155 150 67  75  71  0   116 110 46  176 172 112 128 124 64  105 100 38  80  74  12  117 112 55  95  90  33  93  93  24  115 117 46  129 134 64  93  99  31  124 130 65  109 117 53  117 125 63  135 141 77  140 144 77  122 127 59  163 166 104 144 145 81  151 153 84  141 140 72  126 128 61  123 123 57  141 138 75  144 137 80  145 138 95  167 163 132 222 220 203 226 225 217 222 220 214 222 220 214 222 220 214 222 220 214 224 223 216 224 223 216 225 224 218 225 224 218 226 225 221 226 225 221 226 225 219 226 225 217 230 229 222 227 226 220 233 232 224 160 160 135 130 127 76  139 135 75  102 95  40  102 94  44  104 96  49  73  64  19  66  58  10  56  50  2   62  56  10  99  94  43  147 145 82  156 156 85  152 149 82  136 134 66  123 119 54  114 112 44  150 145 74  131 127 55  145 141 69  138 134 62  126 122 51  153 149 75  124 120 46  144 140 66  146 142 68  116 112 38  135 131 57  129 124 53  168 163 99  119 114 52  116 110 50  115 107 48  128 120 57  143 135 72  143 134 76  152 146 86  146 141 77  147 143 83  130 123 80  145 139 109 238 234 217 227 222 214 221 215 211 223 216 212 225 219 212 226 221 211 223 220 210 223 220 210 228 225 215 220 217 206 229 229 215 233 233 220 222 220 207 235 232 220 234 231 218 228 225 213 240 237 222 240 237 222 237 235 220 233 229 214 232 227 213 221 214 200 211 205 189 212 206 190 222 215 199 222 215 199 226 220 204 233 227 211 227 218 205 243 234 221 246 236 223 232 222 209 235 226 213 236 226 216 236 226 216 236 226 216 243 233 223 243 233 225 243 233 225 242 234 223 239 234 220 240 236 221 238 236 221 240 237 222 243 241 226 237 235 222 237 235 222 243 241 228 240 237 224 240 237 224 240 237 224 241 238 225 242 239 229 240 237 226 235 232 220 230 228 215 234 231 218 228 225 213 228 226 211 236 234 219 227 225 209 242 240 225 246 241 227 249 245 230 236 228 217 255 251 243 245 237 231 240 234 229 247 241 234 247 244 233 252 250 237 240 237 222 247 244 231 247 244 231 248 243 231 248 243 231 248 243 231 248 243 231 248 243 231 248 243 231 242 238 223 248 244 229 248 243 233 242 237 227 244 237 223 158 151 135 73  65  54  98  91  78  100 92  72  86  77  51  167 157 120 136 124 85  114 97  61  182 165 132 108 91  54  60  44  2   90  76  24  89  78  20  82  71  11  69  60  0   84  75  15  101 93  34  88  82  22  85  82  19  86  85  22  80  79  14  95  95  27  92  90  22  78  75  10  85  78  21  57  49  0   102 93  50  122 117 78  124 120 89  236 232 216 252 246 237 249 246 234 252 249 239 248 248 239 236 235 226 247 243 235 247 243 235 248 242 235 248 242 235 249 244 236 249 244 236 248 244 236 248 244 236 249 246 238 249 246 238 249 246 238 249 246 238 250 245 236 250 245 236 250 246 234 252 245 234 201 192 177 138 127 110 146 135 118 198 187 170 202 191 172 187 176 155 189 179 157 197 190 160 198 192 155 191 187 142 162 158 109 149 146 92  135 128 73  112 103 45  110 100 35  106 97  27  134 126 53  144 135 61  133 124 52  121 113 41  123 113 44  128 119 50  113 104 34  106 97  29  104 92  26  94  82  17  80  67  6   89  77  15  70  56  0   72  59  0   82  72  9   126 116 51  119 109 44  90  80  17  109 101 42  128 121 66  145 137 90  152 143 103 143 135 102 149 140 113 138 127 110 179 170 157 222 213 202 250 242 233 250 242 235 248 242 235 248 242 237 247 243 237 241 237 231 247 243 235 235 232 222 175 170 158 104 96  88  91  84  73  141 135 121 194 186 168 205 198 171 206 199 162 141 135 89  126 121 68  120 116 60  84  80  20  92  90  22  89  84  15  75  70  4   92  85  17  120 109 35  180 165 90  135 115 42  144 119 50  168 138 73  154 121 59  168 134 77  190 164 118 158 147 114 111 107 86  112 107 95  217 211 204 255 249 242 241 237 231 236 234 228 234 233 229 227 226 222 222 220 216 223 220 214 228 224 219 234 230 224 236 232 227 254 250 244 243 240 232 238 236 223 243 240 230 255 250 245 220 214 209 172 167 160 185 180 170 218 213 203 210 205 193 219 214 202 220 215 203 232 227 215 235 227 216 227 217 207 235 225 215 221 211 201 205 195 185 196 189 178 201 194 182 187 180 168 195 188 177 192 182 172 209 200 189 200 190 180 178 170 159 180 173 161 183 178 166 155 150 138 160 155 143 177 172 160 166 163 153 178 175 167 163 159 151 156 153 140 159 156 146 138 137 130 127 126 120 125 124 115 115 114 103 122 121 112 115 114 105 120 120 111 142 142 133 127 123 115 121 118 110 141 137 129 143 140 130 150 145 133 149 144 132 148 144 129 142 138 123 108 104 87  135 131 112 151 148 127 195 191 172 249 247 232 248 245 232 250 248 235 250 248 235 250 247 237 254 251 240 249 246 236 252 249 239 252 249 239 252 249 239 252 249 239 252 249 239 254 250 242 254 250 242 254 250 242 254 250 242 254 253 247 254 250 244 255 253 250 203 196 194 57  51  46  70  63  54  171 162 145 117 111 81  133 127 81  151 144 89  177 168 110 166 158 97  164 156 95  176 167 109 196 186 134 168 157 110 176 165 121 210 199 154 219 208 162 170 159 115 240 225 192 213 198 167 224 209 177 215 200 164 197 184 140 167 154 106 175 163 112 189 177 124 154 143 85  146 134 83  148 134 98  205 190 159 230 215 181 226 212 176 222 207 171 220 206 168 213 196 156 199 182 142 215 198 161 215 198 163 219 201 168 241 223 190 191 173 140 217 200 167 186 169 136 238 221 188 227 209 178 185 167 137 219 200 172 229 211 181 220 203 167 195 179 137 220 206 151 192 177 125 230 214 174 227 210 174 222 207 169 
97  81  25  138 125 77  92  82  40  65  60  21  189 186 149 202 199 161 174 172 127 190 185 130 200 198 142 212 218 168 210 209 161 186 167 116 181 155 105 185 165 117 224 212 172 223 216 191 216 212 193 209 208 186 209 208 188 214 210 195 214 211 191 107 106 72  80  77  39  60  55  20  44  38  6   50  44  10  53  44  11  48  40  4   55  47  11  60  52  16  62  54  18  50  40  0   69  60  22  62  49  17  58  46  7   113 105 44  113 105 40  118 112 53  140 135 84  143 136 96  158 148 110 172 162 124 116 107 66  226 214 173 137 126 82  73  60  14  83  71  18  125 117 51  147 142 76  224 218 159 168 161 109 161 154 102 101 94  39  89  83  24  99  93  29  107 100 32  63  56  0   84  75  5   68  56  0   98  83  22  87  72  13  82  64  8   77  59  6   72  53  0   116 98  40  97  80  15  105 89  20  133 117 48  96  80  12  65  45  0   65  45  0   82  63  0   100 81  15  103 85  16  116 98  27  143 125 54  136 118 45  126 108 32  108 90  19  58  39  0   96  77  15  141 122 55  145 127 58  110 93  19  106 92  13  116 102 20  117 103 19  114 103 18  127 117 27  129 120 25  135 125 33  114 105 21  121 112 28  129 120 32  120 111 23  140 133 49  103 95  16  109 101 24  94  84  15  61  49  0   77  65  14  78  67  12  84  74  13  105 96  36  99  90  32  88  81  26  96  88  39  100 94  50  113 108 68  111 108 73  97  93  61  98  91  61  126 117 88  164 153 122 147 134 100 147 134 98  140 128 89  179 168 126 156 144 105 151 138 106 162 148 119 156 143 113 159 146 114 180 167 135 166 154 119 142 129 95  100 88  49  67  59  9   85  78  21  88  82  22  81  75  13  100 94  32  102 96  36  87  80  23  69  62  8   101 93  41  103 96  44  100 96  38  95  90  33  48  46  0   86  83  30  69  64  20  28  23  0   49  43  8   48  42  7   73  68  29  82  75  32  70  54  9   97  80  31  108 94  40  80  68  15  92  81  35  62  50  9   78  67  25  106 93  48  106 97  39  85  77  14  89  78  18  88  77  17  93  85  22  92  84  19  92  87  16  104 100 29  113 110 43  128 125 72  173 170 134 236 234 210 233 231 213 233 230 217 231 229 216 233 230 217 235 232 220 234 231 218 231 229 216 230 228 215 238 232 223 230 224 215 241 236 226 232 227 217 232 227 217 235 230 220 230 224 215 234 229 217 227 223 206 132 128 100 101 97  51  107 104 55  67  59  21  65  57  24  58  53  12  61  59  16  61  60  20  61  59  18  62  58  11  77  72  17  120 112 47  120 108 37  98  86  8   108 97  14  95  86  1   124 116 37  98  90  24  139 133 74  104 100 42  135 131 71  88  82  20  97  91  32  65  61  3   106 102 42  127 126 62  117 119 52  108 113 45  80  86  20  106 111 50  120 128 66  130 137 76  112 120 56  113 120 49  124 131 63  143 148 89  111 116 58  114 118 55  133 137 70  120 126 60  119 123 58  145 141 79  130 125 69  135 131 87  157 153 120 219 217 199 212 211 203 222 220 214 222 220 214 222 220 214 222 220 214 224 223 216 224 223 216 225 224 218 225 224 218 226 225 221 226 225 221 226 225 219 226 225 217 230 229 222 227 226 220 232 231 222 160 159 137 105 101 54  119 115 57  87  80  25  105 98  46  96  90  40  64  58  10  56  50  2   61  55  9   67  60  17  88  82  32  142 141 77  124 125 54  142 140 72  133 130 63  143 140 75  117 114 47  125 121 50  129 124 53  145 141 69  137 133 61  117 113 41  140 136 63  133 129 56  166 162 88  149 145 69  83  79  6   101 96  27  131 126 61  123 117 55  140 134 75  129 122 63  128 119 61  119 109 46  120 110 47  159 151 90  138 132 70  142 140 72  141 137 77  114 110 66  186 181 153 235 231 216 226 220 213 223 217 210 225 219 212 227 222 212 227 222 212 226 223 212 226 223 212 229 226 216 222 219 209 230 230 216 229 229 215 226 223 210 238 236 223 230 228 215 238 236 223 234 232 216 226 224 208 223 221 206 227 223 208 229 222 208 212 206 190 207 200 184 219 213 195 236 230 211 231 225 207 232 226 208 236 230 211 234 225 210 246 237 221 249 240 225 242 233 218 242 233 220 242 233 220 243 234 221 242 233 220 240 230 218 240 230 220 240 230 220 240 230 218 245 239 223 243 240 221 241 237 218 241 237 218 252 248 231 246 242 225 240 236 219 238 234 217 246 241 227 246 241 227 246 241 227 246 241 227 239 234 220 239 234 220 241 237 222 241 237 222 240 236 221 235 231 214 228 224 207 226 222 205 236 232 216 238 234 217 250 246 230 240 234 218 254 247 234 237 230 218 249 240 234 244 235 231 242 237 229 242 239 229 252 250 237 248 246 230 247 244 231 247 244 231 248 243 231 248 243 231 248 243 231 248 243 231 248 243 231 248 243 231 248 244 229 242 237 225 242 237 225 248 243 231 249 242 228 203 196 183 94  86  75  86  79  65  125 119 103 74  67  44  135 128 91  174 165 125 118 103 69  151 133 103 117 100 67  67  51  13  78  66  18  91  80  24  90  81  24  77  68  12  90  81  24  97  88  31  90  84  27  89  85  25  89  88  27  81  80  17  101 101 33  71  71  2   74  71  6   82  77  20  85  79  33  89  82  41  116 112 66  115 110 69  165 160 134 250 246 230 248 246 230 254 251 240 238 237 228 245 244 235 247 243 235 247 243 235 248 242 235 248 242 235 249 244 236 249 244 236 248 244 236 248 244 236 249 246 238 249 246 238 249 246 238 249 246 238 250 245 236 250 245 236 250 245 236 252 245 234 255 253 240 206 195 183 156 145 131 156 145 131 182 171 154 195 187 167 181 174 151 172 165 140 172 166 134 179 173 139 185 180 143 166 159 118 147 139 94  128 117 71  108 95  45  123 109 57  125 112 55  135 122 62  104 91  32  128 118 58  130 119 59  103 92  32  113 103 42  84  74  11  110 98  36  99  86  26  92  78  21  115 101 47  85  70  18  71  59  9   73  60  12  118 106 55  120 108 56  112 102 49  133 126 76  140 133 90  141 133 97  156 148 116 157 150 123 168 159 139 205 195 185 233 222 217 254 246 240 255 247 241 248 242 235 248 242 235 247 243 235 247 243 235 246 245 236 252 249 241 244 241 233 230 224 217 186 181 174 98  90  84  75  67  61  126 119 108 183 174 157 119 112 84  101 96  57  123 119 75  131 124 83  124 117 72  72  68  10  98  95  32  89  83  22  101 94  28  114 103 29  148 133 59  147 124 57  145 116 53  147 114 52  158 121 65  177 140 89  178 151 107 131 124 97  108 108 92  143 140 128 235 230 220 238 232 225 241 235 230 236 232 229 234 233 229 229 227 223 222 220 216 222 218 213 228 224 219 234 230 224 236 232 227 231 228 222 250 247 239 254 251 238 242 239 227 240 234 229 189 183 178 175 169 162 200 196 184 201 194 178 195 187 171 207 198 183 208 199 184 209 201 185 225 214 199 221 210 196 227 213 199 216 202 189 224 211 197 195 181 168 199 185 171 192 178 164 182 169 155 189 176 162 172 158 145 190 179 164 167 155 141 167 155 141 166 157 142 157 148 133 157 148 133 164 155 140 147 141 125 138 131 115 165 158 142 165 159 138 139 133 113 125 120 106 113 108 96  120 116 99  140 136 117 132 128 109 129 126 106 139 135 116 145 141 122 136 133 113 131 127 108 143 140 120 155 151 132 157 150 132 148 143 122 150 144 121 162 157 132 139 135 107 145 142 113 126 124 95  142 139 115 233 229 212 252 250 237 250 248 235 250 248 235 250 247 237 254 251 240 248 245 234 252 249 239 252 249 239 252 249 239 252 249 239 252 249 239 254 250 242 254 250 242 254 250 242 254 250 242 253 252 243 252 251 244 255 252 249 229 225 224 110 103 101 62  54  48  147 137 124 148 139 112 111 102 60  156 148 96  192 183 125 149 141 80  185 177 116 159 151 92  180 171 119 154 143 94  175 165 113 184 174 123 173 164 110 164 154 103 196 182 141 180 165 129 197 183 144 188 174 131 156 144 94  138 126 71  184 174 114 166 156 91  162 153 83  175 164 104 211 197 156 205 190 157 230 215 179 203 188 152 237 222 186 230 216 177 220 204 159 213 198 150 188 172 130 220 203 163 224 208 168 194 177 140 202 186 148 221 204 169 177 160 124 237 220 187 213 195 162 196 179 148 245 227 199 233 215 184 214 197 162 195 180 135 198 184 129 156 142 87  198 182 139 227 210 172 233 219 179 
125 114 56  99  91  41  88  81  38  179 173 139 239 235 203 216 214 180 215 213 166 203 199 128 202 199 118 208 212 133 202 203 130 185 171 103 166 146 87  162 150 99  204 197 158 219 215 189 218 214 195 217 216 198 223 221 206 225 220 210 216 211 197 97  93  65  59  55  20  60  54  22  44  38  6   52  43  10  53  44  11  43  32  0   50  39  6   54  44  11  57  46  13  60  50  13  43  33  0   43  32  0   64  55  12  133 128 66  105 101 32  90  87  22  86  82  26  133 126 85  169 162 123 152 143 101 135 126 79  111 101 49  109 100 44  90  79  19  88  77  15  155 145 80  228 221 153 199 192 122 106 99  31  74  66  5   170 162 97  143 139 63  156 153 70  160 158 74  142 137 57  110 101 27  84  70  4   53  33  0   109 83  35  93  64  21  72  43  0   95  70  13  156 135 69  136 118 49  95  79  9   146 130 62  106 89  27  79  61  3   124 106 50  102 84  24  87  70  5   106 90  21  123 108 33  148 134 55  122 108 24  119 106 17  103 90  1   116 102 18  134 121 37  165 151 67  167 153 69  165 151 67  141 130 45  133 122 37  131 119 36  119 106 33  96  86  12  104 92  10  114 103 20  129 119 40  99  89  8   106 98  7   117 109 19  97  90  6   102 94  15  106 98  25  118 108 45  66  54  1   60  47  0   74  62  7   80  68  11  66  58  0   59  50  0   66  58  6   73  64  19  96  89  48  99  93  57  105 102 69  111 107 79  91  83  58  88  78  54  117 107 81  139 128 98  164 153 120 142 131 96  136 126 88  149 139 101 131 121 86  137 127 91  135 124 89  147 137 104 149 136 104 150 137 107 170 157 127 175 162 126 128 120 70  94  87  32  65  57  5   62  55  5   66  58  8   58  50  0   58  51  0   66  59  4   62  55  5   36  27  0   41  36  0   84  79  26  57  52  0   96  90  40  65  61  15  31  27  0   33  25  0   25  20  0   41  39  0   64  58  14  66  51  6   95  75  27  101 87  35  91  79  26  105 94  48  65  54  12  67  55  18  85  74  32  90  80  26  65  56  0   73  64  8   84  75  17  65  57  0   88  81  13  93  88  17  129 124 55  133 130 65  127 124 70  210 207 169 231 228 202 233 231 213 233 230 217 233 230 217 234 231 218 235 232 220 234 231 218 231 229 216 230 228 215 231 225 216 231 225 216 233 228 218 231 225 216 231 225 216 236 231 222 230 224 215 234 230 215 210 206 185 114 110 77  107 103 57  98  94  45  57  50  11  60  52  16  64  59  18  58  56  11  55  55  14  62  60  20  53  50  3   75  70  15  140 132 66  129 118 46  113 101 23  114 102 22  118 108 30  78  70  0   109 101 40  83  76  22  100 93  38  105 98  44  78  70  18  76  69  17  123 117 67  141 138 86  127 123 74  82  81  33  84  85  37  90  91  43  110 114 63  132 139 84  83  90  33  85  95  35  95  103 39  104 112 50  123 129 75  129 135 83  115 122 63  104 112 48  113 119 53  100 104 39  115 114 51  118 113 58  116 112 68  157 153 120 226 224 206 229 228 219 222 220 214 222 220 214 222 220 214 222 220 214 225 224 218 225 224 218 225 224 218 225 224 218 226 225 221 226 225 221 226 225 219 226 225 217 229 227 221 227 226 220 232 231 222 160 159 137 102 98  54  123 116 61  75  68  14  88  81  28  78  73  22  62  56  8   53  46  1   62  55  12  53  46  3   110 104 54  178 177 114 144 144 74  146 143 76  118 115 50  130 126 61  120 117 50  121 116 47  151 146 77  156 151 82  137 132 63  124 119 50  159 155 83  152 148 76  145 141 69  112 109 35  160 155 86  153 147 90  105 98  48  93  84  37  152 144 97  124 117 63  150 141 83  117 106 46  108 97  35  143 135 74  125 119 60  141 138 75  117 112 59  130 125 88  225 220 197 232 227 215 225 219 212 224 218 211 228 223 215 230 224 215 230 224 215 228 225 215 228 225 215 230 227 217 227 224 213 230 230 216 222 222 208 229 227 212 237 235 220 231 229 214 223 221 206 233 230 215 231 230 212 229 227 210 226 222 205 229 222 206 217 211 193 210 204 186 215 209 188 212 207 186 210 204 184 215 209 186 221 215 192 228 220 198 228 220 198 225 217 194 219 211 191 206 198 178 206 198 178 207 199 179 206 198 178 198 190 170 198 189 172 198 189 172 198 190 170 188 183 159 185 179 156 180 175 151 178 172 149 188 183 159 187 182 158 182 177 154 174 168 147 174 168 147 174 168 147 174 168 147 173 167 146 172 166 145 171 165 144 173 167 146 173 167 146 172 166 145 173 168 144 167 162 138 159 154 130 155 150 127 167 162 138 152 147 123 150 144 121 144 138 115 133 127 109 194 187 173 253 246 237 254 248 241 243 240 230 245 243 230 242 240 225 247 244 231 247 244 231 248 243 231 248 243 231 248 243 231 248 243 231 248 243 231 248 243 231 248 243 231 242 237 225 242 237 225 248 243 231 247 240 229 251 244 232 129 121 110 61  54  41  126 120 104 98  93  70  101 95  63  177 169 135 147 134 102 105 90  59  98  83  50  84  70  32  96  83  37  83  71  20  81  72  18  94  85  31  87  78  24  80  71  17  83  76  22  83  78  23  104 100 42  65  62  1   74  74  8   87  87  19  101 100 35  78  76  17  72  69  20  55  51  4   93  90  41  112 108 61  117 114 76  207 205 178 249 246 234 243 239 234 251 250 243 243 241 235 245 242 234 245 242 234 248 242 235 248 242 235 248 242 235 248 242 235 248 244 236 248 244 236 250 245 236 250 245 236 250 245 236 250 245 236 250 245 236 250 245 236 250 245 236 250 245 236 246 239 228 255 254 244 235 226 213 166 157 142 141 132 115 145 139 120 167 161 141 194 188 167 169 161 141 154 145 125 152 141 120 142 129 106 160 144 117 167 149 119 153 136 103 150 131 94  139 121 75  135 118 67  103 86  35  128 113 61  117 103 51  85  70  18  94  80  28  72  58  3   95  83  28  81  69  16  74  61  11  106 93  48  71  57  19  63  50  16  61  47  15  97  84  50  162 150 109 154 146 101 148 141 100 124 119 82  123 117 85  159 152 125 197 189 166 225 219 201 254 247 236 255 253 244 255 249 242 243 238 231 248 242 235 248 242 235 247 243 235 247 243 235 249 246 238 247 243 235 243 238 231 252 246 239 242 237 229 172 167 160 96  88  82  73  65  56  103 96  85  169 163 145 96  90  60  74  69  34  102 96  64  163 157 121 92  86  38  81  76  21  79  72  13  100 93  27  103 95  18  112 97  21  140 119 51  159 133 71  163 131 71  178 146 91  163 133 84  159 138 99  111 106 81  111 111 95  188 186 173 252 246 237 234 228 221 242 236 231 236 232 229 236 234 230 229 227 223 222 220 216 222 218 213 228 224 219 234 230 224 236 232 227 245 242 234 244 241 231 243 241 228 243 241 228 243 239 234 186 182 177 179 177 164 145 139 120 111 101 77  121 107 82  152 138 113 168 153 129 183 169 144 204 190 165 192 178 153 176 162 137 184 168 144 180 161 138 158 137 115 186 162 140 178 154 132 155 134 111 174 155 132 159 142 118 164 150 125 141 127 102 150 136 111 158 144 119 165 151 126 139 124 100 150 136 111 168 157 129 165 154 121 166 156 121 152 143 103 132 123 83  146 136 103 145 136 105 147 139 103 159 152 111 149 142 101 150 143 103 169 162 121 157 150 110 157 150 110 143 136 96  140 133 92  157 150 112 161 155 118 145 140 103 137 133 89  150 147 98  152 149 102 159 157 114 130 126 93  126 121 98  188 183 167 255 255 243 249 246 234 248 245 232 249 246 236 255 252 241 248 245 234 252 249 239 252 249 239 252 249 239 252 249 239 252 249 239 254 250 242 254 250 242 254 250 242 254 250 242 252 251 242 253 252 245 254 249 246 255 254 253 176 169 167 67  59  52  101 92  79  173 163 139 126 117 77  123 115 65  170 161 103 156 148 87  176 167 107 139 130 71  163 153 100 159 150 96  150 141 83  150 142 81  161 153 89  180 172 111 191 179 131 182 169 125 201 188 142 184 172 122 135 124 67  140 130 67  184 175 107 165 156 84  170 162 85  183 174 106 212 200 152 195 181 142 189 174 138 201 186 150 196 181 145 215 201 158 194 180 128 164 150 93  172 158 102 180 166 112 207 193 141 170 155 105 198 183 135 195 179 137 186 169 132 203 186 151 187 170 137 224 207 174 233 215 182 226 208 173 217 201 161 216 201 156 214 200 145 179 165 111 206 191 143 241 225 182 227 214 173 
148 139 81  97  92  39  133 128 84  172 168 137 176 173 147 227 227 197 221 219 174 193 186 116 179 174 92  191 193 108 208 207 125 195 185 111 167 152 86  158 149 93  203 197 151 216 212 179 217 214 188 217 213 192 219 215 198 221 216 206 220 216 201 112 108 80  81  78  42  69  62  30  48  41  9   48  40  6   45  36  3   53  42  10  55  45  12  53  42  12  51  40  7   43  32  0   47  37  2   60  49  17  59  49  9   93  86  29  93  87  23  113 110 45  113 109 51  66  62  16  112 107 63  166 160 110 143 136 79  116 108 47  122 114 51  109 98  36  124 113 51  202 191 129 199 190 125 136 129 59  121 115 42  179 173 102 224 217 144 187 185 101 132 130 44  156 154 68  173 169 86  94  85  11  122 105 40  118 93  38  118 86  42  89  55  16  104 70  29  105 77  23  95  71  8   121 100 36  112 92  30  115 95  36  113 92  36  108 87  33  89  69  14  92  71  15  82  62  3   122 103 37  120 102 30  96  79  3   94  78  0   135 120 31  133 121 29  129 119 27  129 119 29  131 120 30  108 98  10  107 96  13  115 104 21  122 110 30  156 145 69  103 91  27  141 128 64  126 113 40  107 94  19  111 100 29  97  87  13  158 149 65  132 124 38  90  81  0   88  79  5   91  81  16  57  46  0   66  53  3   111 99  48  88  76  21  109 97  42  51  42  0   74  64  15  85  76  31  92  85  44  114 109 72  106 99  70  148 143 118 218 213 190 159 151 131 95  87  67  108 100 78  95  85  61  111 102 73  151 140 109 193 182 151 188 178 145 147 137 102 151 141 105 150 140 104 170 159 126 181 171 138 179 166 136 193 180 150 193 183 147 190 182 135 185 177 127 159 150 106 112 103 61  67  58  16  58  49  4   71  63  13  92  84  34  54  45  3   51  41  1   69  62  19  100 94  48  98  93  42  77  72  19  50  47  0   66  63  14  56  49  8   48  43  3   44  41  0   53  46  3   60  45  0   76  56  11  84  67  16  103 89  39  67  53  10  54  41  4   74  62  27  91  79  40  118 108 56  88  79  25  79  69  18  70  60  7   70  61  3   93  85  22  131 126 61  158 152 92  123 118 63  170 166 119 219 216 183 232 229 207 235 231 216 234 231 218 234 231 218 235 232 220 235 232 220 234 231 218 231 229 216 228 225 213 228 223 213 232 227 217 228 223 213 230 224 215 231 225 216 234 229 219 228 223 213 234 230 213 190 188 159 107 104 64  115 114 64  86  83  34  57  50  11  61  53  17  74  70  26  60  58  13  56  56  15  68  65  25  52  48  2   78  74  18  128 121 55  127 115 44  137 125 47  147 135 55  118 108 32  111 102 30  93  85  22  100 93  34  124 118 58  81  74  17  71  63  11  85  80  29  117 115 61  105 105 53  97  95  50  97  95  52  108 109 65  124 124 78  101 103 52  98  100 47  102 106 53  102 107 51  96  102 41  88  93  35  91  94  43  122 125 76  113 117 61  101 106 45  111 117 54  121 125 60  114 113 49  119 114 59  102 98  54  160 156 123 209 208 190 220 220 211 222 220 214 222 220 214 222 220 214 222 220 214 225 224 218 225 224 218 225 224 218 225 224 218 226 225 221 226 225 219 226 225 219 226 225 217 227 226 220 227 226 220 232 231 222 162 158 139 81  74  33  118 111 59  65  57  5   66  58  8   61  55  7   65  59  14  56  50  6   57  51  7   35  29  0   86  81  30  140 138 75  143 143 73  161 158 91  154 151 86  139 136 71  125 122 57  118 113 47  146 141 75  140 135 69  118 113 47  143 138 71  165 160 93  165 160 93  159 154 85  151 147 73  138 133 64  166 159 106 129 120 77  109 100 59  116 107 64  138 131 78  157 148 90  124 113 53  113 103 42  101 93  32  122 115 56  141 136 81  87  83  37  166 162 131 238 232 214 228 223 211 224 218 211 225 219 212 231 225 218 232 227 217 232 227 217 230 227 217 230 227 217 230 227 217 230 227 217 230 230 216 217 217 203 231 229 214 233 230 215 236 234 219 193 191 176 125 124 106 141 139 121 138 137 119 119 115 96  134 128 110 153 147 129 164 158 137 164 158 135 151 146 120 157 152 124 169 165 137 182 178 150 197 190 162 184 177 150 169 162 134 161 154 126 154 147 119 154 147 119 155 148 120 154 147 119 147 140 112 147 140 112 147 140 112 147 140 112 147 140 112 142 135 108 135 128 101 131 124 97  135 128 101 142 135 108 142 135 108 135 128 101 135 128 101 135 128 101 135 128 101 135 128 101 148 141 113 143 136 109 138 131 104 134 127 98  137 131 101 148 141 111 148 141 111 140 133 101 133 126 94  129 123 91  123 117 85  107 101 69  100 94  62  94  89  61  137 131 110 242 235 221 250 245 236 238 236 225 247 244 231 250 248 233 247 244 231 247 244 231 248 243 231 248 243 231 248 243 231 248 243 231 248 243 231 248 243 231 242 237 225 248 243 231 248 243 231 242 237 225 239 232 221 255 251 239 185 177 166 73  69  55  100 96  79  145 141 120 83  78  53  144 138 108 159 148 118 95  82  50  84  71  37  83  69  30  104 91  47  91  80  34  84  74  25  84  74  23  79  69  18  62  52  0   72  64  14  71  66  13  67  62  7   92  88  30  84  81  18  79  78  13  56  55  0   70  68  7   77  74  20  71  67  18  83  79  28  102 99  48  96  95  47  141 140 106 227 225 209 254 250 244 252 250 246 244 242 238 245 242 236 245 242 234 248 242 235 248 242 235 248 242 235 248 242 235 248 244 236 248 244 236 249 244 234 249 244 234 249 244 234 249 244 234 250 245 236 250 245 236 250 245 236 250 245 236 249 244 234 255 249 240 250 242 231 247 241 227 208 201 185 134 128 110 107 100 82  146 140 122 180 174 155 184 175 158 159 148 131 144 131 113 138 120 101 136 116 96  150 130 110 150 131 106 146 131 95  134 121 78  125 112 68  138 124 81  134 121 78  124 110 67  109 95  52  118 107 60  129 119 72  122 112 65  106 94  53  135 123 86  130 117 85  142 131 100 143 131 105 165 153 125 145 134 102 147 139 103 141 135 100 145 139 109 180 173 148 225 220 199 244 238 219 249 242 228 251 244 232 254 247 238 250 245 238 241 235 228 248 242 235 248 242 235 247 243 235 247 243 235 238 235 227 241 237 229 253 247 240 247 241 234 243 238 231 253 247 240 195 187 181 97  89  83  75  67  61  130 123 111 150 142 120 91  84  56  69  61  36  94  88  58  142 135 94  107 102 53  82  75  21  113 105 42  112 104 29  111 98  23  134 115 48  154 132 71  151 124 67  152 126 74  138 113 69  149 131 98  105 102 80  115 114 101 226 223 210 249 244 232 242 237 229 242 238 233 236 232 229 234 233 229 230 228 224 222 220 216 222 218 213 228 224 219 234 230 224 236 232 227 236 233 225 240 237 226 247 244 231 255 252 239 207 204 196 149 146 135 163 161 141 108 103 75  67  56  24  78  64  28  110 95  59  126 112 75  142 128 92  177 163 127 169 157 120 151 136 100 188 171 136 171 152 117 152 128 95  141 114 82  152 125 93  130 106 73  155 135 101 180 163 128 175 158 123 141 123 88  143 126 91  156 137 102 180 163 128 146 129 94  148 130 95  157 141 101 158 143 96  160 146 94  168 155 98  177 163 106 170 158 108 144 131 83  131 119 66  167 155 100 145 133 80  153 141 88  180 168 115 155 145 92  149 140 86  144 135 81  147 137 83  181 174 122 157 148 101 156 148 98  154 148 89  168 165 100 157 154 93  160 155 102 117 112 73  102 97  69  141 137 120 252 247 235 247 244 231 248 245 232 249 246 236 252 249 239 248 245 234 251 248 238 252 249 239 252 249 239 252 249 239 252 249 239 254 250 242 254 250 242 254 250 242 254 250 242 253 252 243 251 250 243 249 245 242 255 255 255 225 218 216 98  90  84  63  53  41  168 158 134 152 142 107 96  88  41  136 127 69  152 145 81  135 126 68  130 121 65  157 148 92  169 160 102 148 140 77  150 143 75  149 142 72  162 154 89  179 167 114 169 157 108 181 169 116 153 142 84  121 111 49  149 140 73  154 145 73  162 154 77  195 187 108 190 181 109 175 163 110 204 191 147 180 165 127 184 170 132 205 191 153 183 170 124 172 158 102 184 171 107 164 151 89  189 176 117 174 161 104 180 166 114 179 164 115 153 138 93  158 142 102 158 141 104 166 150 112 203 187 149 200 184 144 212 196 153 208 193 148 192 177 129 205 190 138 205 190 138 215 200 151 212 196 151 182 168 127 
132 126 67  113 111 54  109 107 64  53  53  28  136 136 118 229 230 207 211 210 176 223 215 166 180 172 111 173 168 99  194 190 116 163 154 84  173 163 96  193 185 122 211 207 149 234 230 182 219 217 177 216 212 179 224 219 196 223 216 200 208 202 183 122 119 81  114 111 69  77  71  36  48  41  9   42  34  2   39  30  0   53  42  10  58  47  14  58  47  16  57  46  15  53  42  10  60  49  17  45  34  1   68  58  21  107 98  51  74  67  12  57  53  0   92  87  34  183 180 128 171 168 115 210 206 146 153 148 84  140 132 68  109 101 40  83  72  16  114 103 50  138 127 69  99  89  29  90  81  20  103 98  31  219 213 138 214 209 129 193 189 113 115 111 35  114 110 32  120 114 39  105 96  24  111 94  29  122 97  41  99  69  20  114 80  37  82  48  5   95  62  16  85  54  8   90  60  16  104 78  30  96  70  20  114 88  37  80  54  1   88  62  10  78  52  1   61  36  0   93  67  12  153 128 71  133 110 45  139 116 47  166 144 67  166 147 67  141 130 45  148 139 53  116 106 25  94  84  5   93  82  8   113 101 30  86  74  5   104 92  28  67  54  0   121 108 48  135 123 56  90  79  12  83  71  9   99  86  24  100 88  19  121 110 38  73  62  0   124 112 48  111 98  43  68  54  4   77  62  12  85  70  20  88  76  21  56  44  0   54  43  0   80  71  28  111 101 64  113 105 71  99  92  63  98  93  70  188 182 163 242 235 219 247 241 225 209 202 186 148 142 124 95  87  67  105 97  74  95  85  61  93  84  58  131 122 93  176 167 136 191 183 151 181 172 141 177 169 135 185 177 144 201 191 155 215 205 169 200 190 152 173 164 119 187 178 133 197 188 150 192 181 146 171 160 125 131 121 84  100 91  46  69  60  18  53  42  12  39  27  2   36  25  0   32  22  0   99  93  47  86  82  26  98  95  32  128 124 64  77  71  25  57  52  11  53  51  8   47  40  0   79  63  18  63  44  0   84  66  20  109 94  49  73  58  20  50  37  3   58  45  15  78  65  31  115 107 59  87  79  27  80  70  23  66  56  9   90  80  28  122 112 61  167 159 112 166 157 115 110 102 64  221 215 183 222 216 195 238 231 218 236 232 220 236 232 220 236 232 220 236 232 220 236 234 221 234 231 218 231 229 216 229 227 214 228 223 213 234 229 219 236 231 222 228 223 213 231 223 215 235 227 218 232 225 216 233 227 209 146 143 105 111 110 62  115 114 64  77  73  26  65  58  20  68  60  22  70  65  21  70  69  24  63  61  21  67  64  24  63  59  12  89  82  28  92  84  19  97  86  15  139 126 48  158 147 64  104 95  14  110 102 23  81  76  0   123 117 46  131 127 55  124 119 50  91  87  27  90  86  28  96  97  35  73  77  14  87  90  34  94  96  45  100 99  49  118 118 65  108 108 51  119 116 60  127 124 68  116 114 58  113 111 52  113 111 54  100 97  48  130 126 80  117 115 61  127 128 69  100 104 41  125 128 63  152 151 88  138 133 78  117 113 69  157 153 120 223 218 202 210 207 199 222 220 214 222 220 214 222 220 214 223 222 215 224 223 216 224 223 216 225 224 218 225 224 218 225 224 218 225 224 218 226 225 219 227 226 220 227 226 220 227 226 220 232 231 222 167 163 144 57  50  9   97  89  40  67  59  9   55  47  0   72  66  23  61  54  13  67  60  19  46  39  0   52  48  4   80  77  26  105 104 38  114 114 43  148 147 79  154 153 87  135 134 68  127 124 59  140 137 72  123 119 54  125 122 57  121 118 53  149 143 79  143 137 73  166 161 96  171 166 99  164 163 88  131 128 59  150 145 92  146 139 96  138 131 90  86  80  36  135 127 75  170 161 103 128 118 58  119 108 48  129 121 58  136 129 70  140 134 86  95  90  53  209 204 180 229 222 208 221 216 206 221 216 208 221 216 208 221 216 208 227 222 214 227 222 214 226 223 212 226 223 212 226 223 212 228 225 215 230 230 216 231 231 215 228 226 211 234 232 216 240 238 220 141 139 121 136 132 115 151 148 129 162 158 139 158 155 134 169 164 143 178 172 151 171 165 144 157 152 126 153 149 118 164 160 125 162 159 124 172 168 133 179 173 139 170 164 130 152 147 112 161 155 120 141 135 100 142 136 102 147 141 106 148 142 107 144 138 104 136 130 96  131 126 91  134 128 93  124 119 84  125 117 83  121 113 80  120 112 78  135 127 93  132 124 90  127 119 85  125 117 83  121 113 80  130 121 88  130 121 88  130 121 88  123 114 81  107 99  66  120 112 76  130 122 86  109 101 65  106 98  62  119 112 73  84  77  38  102 94  56  86  79  41  99  92  53  97  90  49  100 93  52  115 110 73  96  91  63  215 209 188 246 241 227 247 244 231 242 239 227 252 250 237 248 245 232 248 245 232 249 244 232 248 243 231 248 243 231 247 242 230 247 242 230 247 242 230 240 235 223 254 249 237 243 239 227 245 240 228 253 248 236 246 241 229 227 222 210 103 101 86  67  66  46  132 128 107 80  77  56  132 127 104 157 150 121 106 98  64  87  77  41  69  56  20  88  77  37  95  86  43  95  86  43  73  64  19  64  53  7   63  52  6   90  82  35  75  67  20  65  57  7   54  47  0   52  48  0   97  94  29  95  91  27  105 102 39  74  69  14  36  31  0   76  71  18  64  59  6   119 116 64  91  89  49  142 139 117 251 248 238 232 231 227 246 244 240 245 242 236 245 242 234 247 241 234 248 242 235 248 242 235 248 242 235 248 242 235 248 242 235 249 244 234 249 244 234 249 244 234 249 244 234 249 244 234 249 244 234 249 244 236 249 244 236 247 241 234 255 250 240 255 251 241 248 243 231 254 249 235 232 228 211 178 174 157 113 110 88  117 114 88  150 145 117 150 143 118 164 154 133 179 164 144 180 162 145 189 169 153 179 161 144 160 150 126 161 154 124 188 182 150 202 196 164 213 207 173 219 211 177 218 210 176 234 226 190 210 202 166 202 194 158 182 174 138 161 153 119 153 145 111 147 139 105 142 134 100 140 131 100 142 133 107 172 165 140 195 188 165 223 217 196 255 251 232 252 247 233 248 244 229 250 246 234 249 244 234 247 242 232 247 242 232 247 242 232 247 243 235 247 243 235 247 243 235 247 243 235 250 247 239 241 237 229 251 248 240 252 246 239 245 239 232 250 242 235 253 245 239 199 190 184 109 98  95  86  76  68  142 133 116 135 127 105 78  68  46  75  65  39  99  91  55  192 186 140 111 103 54  106 97  39  118 109 37  134 123 49  124 109 45  108 90  32  110 92  34  124 105 54  114 100 62  142 133 104 94  92  75  148 150 136 255 250 238 252 247 235 248 244 236 234 230 227 236 232 229 236 232 229 230 226 223 223 219 216 222 218 215 228 224 221 234 230 227 236 232 227 238 236 225 245 243 230 255 253 241 245 243 230 137 134 126 109 107 92  150 150 120 98  95  58  74  65  23  90  77  31  123 110 64  135 122 77  137 124 78  160 147 101 164 153 107 148 135 90  146 131 86  155 137 93  170 147 105 155 130 88  184 159 117 176 153 110 168 148 105 172 155 110 160 142 98  147 129 85  148 128 85  171 150 107 166 146 102 133 115 71  120 102 58  142 125 76  181 165 105 175 161 93  170 157 84  176 162 92  158 144 80  135 122 58  146 135 66  166 154 88  146 134 72  138 125 66  184 171 111 174 163 103 146 135 75  156 146 86  172 161 101 182 173 114 148 139 81  165 157 96  162 155 84  163 159 83  164 159 88  170 164 100 142 134 84  116 111 74  114 108 87  220 215 203 255 253 241 250 246 234 250 247 237 251 248 238 249 246 236 251 248 238 251 248 238 251 248 238 251 248 238 251 248 238 252 249 241 252 249 241 251 250 241 251 250 241 252 251 242 251 250 243 252 250 246 251 247 246 255 253 251 155 147 141 59  50  37  131 121 99  168 157 127 137 128 85  144 136 77  106 98  35  145 134 76  170 159 104 149 139 79  182 172 107 169 162 93  137 131 60  151 145 70  144 138 67  177 166 109 186 174 121 154 143 87  128 118 58  128 119 54  153 144 74  144 135 63  158 150 73  174 164 86  155 143 72  143 129 74  191 175 132 153 137 97  174 158 120 216 200 162 193 177 133 164 150 93  148 135 71  131 118 57  152 139 80  185 170 118 159 144 95  179 164 117 155 139 94  152 136 94  165 149 107 208 192 150 173 158 113 179 164 117 195 181 129 178 164 111 162 147 95  150 135 88  160 145 98  152 138 88  149 134 86  136 120 80  
150 147 86  122 120 64  72  73  29  39  38  18  160 159 148 226 229 210 223 223 198 208 202 168 199 190 147 214 207 152 220 214 152 180 169 107 184 174 109 166 157 85  133 126 57  198 196 137 224 223 175 232 229 194 217 212 187 210 204 188 215 209 188 121 118 80  83  81  36  62  56  19  41  34  2   47  38  7   52  43  12  53  42  10  54  44  11  51  40  9   46  35  5   59  48  17  37  26  0   53  42  12  61  51  18  83  74  36  45  36  0   105 98  57  164 158 115 113 109 62  131 129 75  121 118 55  200 195 128 224 216 150 155 147 86  83  71  20  215 202 154 140 128 77  65  56  2   61  55  0   111 105 44  171 166 95  195 191 119 164 158 96  152 147 82  125 122 46  196 190 112 210 201 129 124 112 46  96  76  19  105 81  30  93  66  20  85  55  15  103 76  35  72  47  8   94  70  35  105 81  46  66  43  3   84  61  18  103 82  34  115 93  46  100 77  35  94  71  29  106 83  41  129 107 62  121 99  50  172 151 97  145 125 66  96  79  16  101 91  24  125 117 49  122 115 49  105 97  33  121 112 54  139 129 73  91  79  26  67  54  4   113 98  50  118 104 54  107 93  36  113 99  40  104 91  36  85  71  14  82  70  8   92  80  13  86  71  8   91  75  17  108 93  46  56  40  0   45  30  0   100 85  33  116 104 49  81  72  20  52  43  0   79  69  31  113 105 71  103 96  69  77  72  49  130 124 105 224 219 205 230 225 213 228 223 211 219 212 201 237 230 216 212 206 190 150 143 125 84  76  56  53  46  23  65  57  35  59  52  27  106 99  72  142 135 106 159 153 121 172 167 130 171 164 126 175 168 127 163 157 113 173 166 125 144 134 96  137 127 91  149 138 105 173 162 130 166 156 121 168 159 121 170 159 124 161 150 124 123 111 88  86  74  48  50  39  8   74  67  26  88  82  32  89  85  23  75  71  9   75  69  19  64  58  14  62  57  13  45  38  0   97  82  39  66  49  5   82  67  22  111 98  54  88  76  39  51  38  6   42  28  1   66  55  22  103 95  50  89  81  32  88  77  33  87  76  32  109 99  52  92  81  37  184 174 134 181 171 136 187 178 147 239 231 206 222 215 199 240 233 222 235 230 218 235 230 218 235 230 218 236 232 220 235 232 220 234 231 218 231 229 216 229 227 214 231 225 216 234 229 219 234 229 219 231 225 216 228 220 211 238 230 222 239 232 223 221 215 194 119 118 73  116 116 61  105 104 55  67  65  20  69  64  24  66  61  22  62  60  16  60  58  13  63  61  21  58  53  12  64  58  10  94  87  32  92  84  19  114 103 31  135 123 45  133 121 41  118 108 30  104 96  17  119 113 35  120 114 39  135 131 55  150 145 74  131 127 67  83  81  22  63  65  1   70  74  9   91  94  34  99  102 44  96  96  39  124 123 64  116 111 54  116 111 54  126 121 66  117 112 55  113 109 49  131 126 69  120 115 64  136 131 83  125 120 67  131 130 71  119 122 60  104 107 42  128 127 63  126 121 66  152 148 104 159 155 122 226 222 205 224 221 213 222 220 214 222 220 214 222 220 214 223 222 215 224 223 216 224 223 216 225 224 218 225 224 218 225 224 218 225 224 218 226 225 219 227 226 220 226 225 219 227 226 220 233 232 224 165 163 146 83  77  38  105 97  50  61  53  6   61  53  8   71  64  23  55  48  9   57  50  11  53  45  7   53  49  5   93  90  39  149 148 82  141 141 70  134 133 65  119 118 52  124 124 58  133 132 66  133 130 67  146 142 82  152 148 88  121 117 57  142 135 76  130 124 62  157 151 89  142 136 72  132 130 58  154 152 82  146 142 84  146 140 92  153 147 101 114 109 60  131 124 69  126 120 63  113 104 46  127 119 56  174 169 102 138 134 74  108 104 60  131 125 95  224 218 200 229 221 210 221 216 206 221 216 208 221 216 208 221 216 208 227 222 214 227 222 214 226 223 212 226 223 212 226 223 212 228 225 215 229 229 215 231 231 215 235 233 218 234 232 216 217 215 200 115 113 96  107 104 84  76  73  51  50  47  25  42  39  15  51  45  22  48  43  20  51  45  22  59  54  26  83  80  45  89  86  46  74  71  31  70  68  28  76  71  31  72  67  28  64  59  20  78  73  34  72  67  26  74  70  28  78  73  32  79  74  33  81  77  35  72  67  26  66  62  20  67  63  21  79  72  34  82  72  35  85  75  37  87  77  39  82  72  35  71  61  23  65  55  17  68  58  21  93  83  43  86  76  36  96  87  47  104 95  55  95  86  46  75  66  26  82  73  31  86  77  34  109 100 57  107 98  55  101 92  47  97  89  44  72  63  18  100 91  46  68  60  15  83  77  29  82  76  26  107 101 55  91  85  48  178 173 147 250 246 230 250 248 235 238 236 223 240 237 224 248 245 232 248 245 232 249 244 232 248 243 231 248 243 231 247 242 230 247 242 230 247 242 230 242 237 225 252 247 235 247 242 230 243 239 227 255 251 239 247 242 230 245 243 230 144 142 127 59  58  38  98  96  76  100 96  81  98  94  77  201 196 168 105 98  66  60  51  18  58  48  12  87  77  39  79  69  31  60  51  11  68  59  17  79  68  26  62  51  7   73  64  19  68  60  15  44  35  0   82  74  25  105 101 43  64  61  0   62  59  0   95  91  29  100 97  36  64  60  4   60  53  0   52  44  0   110 104 54  112 110 68  87  85  56  157 155 138 243 242 233 255 254 250 245 242 236 245 242 234 247 241 234 248 242 235 248 242 235 248 242 235 248 242 235 248 242 235 248 243 233 248 243 233 248 243 233 248 243 233 248 243 233 248 243 233 248 242 235 248 242 235 254 250 242 242 239 231 243 240 232 255 252 241 251 249 236 248 246 230 245 243 228 235 234 214 192 191 166 157 155 128 140 137 113 109 104 80  119 109 87  144 131 113 146 130 113 144 131 113 161 153 130 185 180 154 195 190 164 208 203 175 191 184 157 174 168 138 176 169 139 171 164 135 159 153 123 151 145 115 148 141 111 151 145 115 154 145 116 152 143 114 161 154 124 178 171 146 213 204 187 234 225 212 249 242 228 255 254 241 245 240 228 234 229 219 242 237 225 254 249 237 247 242 232 247 242 232 247 242 232 247 242 232 247 243 235 247 243 235 247 243 235 247 243 235 247 243 235 250 247 239 238 235 227 248 242 235 255 255 250 247 239 233 238 230 224 252 244 238 205 194 191 122 112 104 115 107 87  136 129 104 107 97  76  92  83  56  99  92  53  124 117 72  100 92  42  90  81  22  113 106 36  127 118 48  99  89  27  107 93  36  102 89  32  101 88  40  125 117 83  135 132 108 80  83  66  199 201 189 252 247 235 255 251 239 238 235 229 237 235 231 237 233 230 235 231 228 230 226 223 223 219 216 223 219 216 228 224 221 234 230 227 236 232 227 243 240 230 244 242 229 248 245 232 220 217 206 100 97  87  125 124 106 152 154 117 97  96  48  78  73  22  102 93  41  132 122 70  128 118 67  94  84  33  95  86  34  92  82  31  86  76  25  135 123 73  120 105 55  147 130 81  124 104 56  154 135 87  160 143 94  151 134 85  167 153 103 123 108 59  136 119 70  148 129 81  143 123 75  131 113 65  121 104 55  144 127 78  175 159 103 168 154 86  158 146 70  167 155 74  184 172 94  193 180 109 184 172 101 163 152 76  125 115 41  167 155 89  152 139 78  164 151 89  150 137 75  121 108 46  135 125 63  159 148 86  175 165 102 161 151 88  166 156 89  148 142 66  144 139 61  157 152 74  176 169 98  170 162 101 145 138 93  101 95  72  186 182 170 250 246 234 253 248 236 250 247 237 250 247 237 250 247 237 250 247 237 251 248 238 251 248 238 251 248 238 251 248 238 252 249 241 252 249 241 251 250 241 251 250 241 252 251 242 251 250 243 252 250 246 251 247 246 254 248 245 215 207 200 87  78  65  84  76  56  157 148 122 121 111 73  123 115 56  94  87  21  139 127 72  137 125 70  155 145 80  160 151 81  137 130 62  121 114 44  142 136 63  134 127 57  181 170 112 186 174 121 146 134 79  103 92  32  126 116 53  119 109 44  134 125 55  140 131 59  159 149 73  153 142 73  195 181 131 214 198 158 209 193 153 214 198 158 201 184 147 181 165 123 136 122 67  106 92  35  156 142 87  174 160 110 202 186 144 174 158 118 166 150 110 127 110 70  144 128 86  193 177 133 187 172 127 168 154 104 160 147 90  179 166 107 172 159 100 168 155 100 170 154 109 181 166 121 180 166 114 206 191 141 214 197 160 
147 143 83  131 132 72  86  86  43  44  42  27  133 132 126 220 222 208 215 219 197 210 210 187 209 205 174 221 216 175 221 213 165 179 166 116 185 170 109 166 151 74  132 119 41  168 164 102 196 195 147 221 217 184 223 217 196 217 209 201 216 209 195 114 110 75  69  67  25  86  80  46  71  65  33  84  76  44  93  85  54  90  79  49  94  83  52  94  83  52  93  82  51  90  81  52  97  88  59  123 114 85  113 104 77  121 112 88  145 134 113 190 180 158 162 152 128 116 110 78  129 125 81  162 158 100 216 211 146 201 194 126 184 176 113 168 156 103 213 200 155 128 117 75  163 154 109 224 217 165 191 187 131 167 162 109 151 142 97  140 131 93  144 136 88  194 191 112 208 206 118 249 246 165 236 230 159 154 143 85  145 132 84  144 130 89  145 131 92  153 139 98  142 130 91  153 143 110 131 120 92  161 150 122 132 122 89  132 124 86  133 126 87  157 149 116 154 145 114 151 140 109 149 138 107 119 109 76  135 124 89  104 91  55  104 94  57  85  78  37  100 93  52  111 102 62  97  88  50  102 92  55  124 114 79  113 100 66  110 95  61  118 103 71  111 96  60  103 90  44  71  59  9   64  49  0   88  74  20  81  69  5   101 89  22  127 112 51  91  74  23  60  44  4   47  33  0   61  46  0   97  86  30  109 100 44  62  55  3   55  46  6   62  54  20  71  62  35  58  50  30  72  65  49  190 183 170 243 239 227 230 224 215 225 219 212 247 241 234 230 224 215 217 212 200 236 232 218 216 209 193 144 138 119 79  72  54  65  58  42  59  53  34  49  45  19  88  84  53  120 115 75  136 132 88  154 150 99  162 158 109 134 128 91  162 154 122 160 152 118 133 125 89  119 111 75  116 107 74  114 106 75  128 120 89  132 123 92  136 128 97  158 146 118 146 135 105 130 120 84  123 114 73  116 108 58  112 105 53  104 98  48  86  81  32  83  79  32  74  67  22  101 85  43  71  53  11  77  64  21  93  81  42  95  83  48  73  62  31  73  61  35  106 98  66  135 129 85  128 119 72  115 106 63  119 111 66  104 93  44  102 92  45  202 193 153 217 207 174 255 246 217 226 218 194 218 212 194 231 224 211 233 228 216 233 228 216 233 228 216 234 229 217 235 232 220 234 231 218 231 229 216 230 228 215 233 228 216 231 226 214 231 225 216 234 229 219 228 220 211 242 234 225 237 229 220 181 176 152 111 110 60  122 122 63  87  86  36  62  60  16  66  62  20  64  59  18  59  57  12  56  55  10  65  62  20  63  58  16  82  76  28  100 93  38  119 111 45  143 132 60  139 126 48  125 112 35  101 90  18  94  84  15  119 112 39  96  92  18  72  66  0   117 112 45  68  63  10  58  55  6   71  73  18  78  83  22  80  86  20  90  94  29  95  94  31  118 112 51  108 101 44  114 110 54  124 122 66  140 141 81  115 120 52  107 111 44  103 105 49  105 107 54  106 109 51  115 119 56  138 144 79  101 105 40  103 104 40  116 114 58  134 130 85  150 146 113 217 213 196 223 220 212 222 220 214 222 220 214 222 220 214 223 222 215 224 223 216 224 223 216 225 224 218 225 224 218 225 224 218 225 224 218 226 225 219 227 226 220 227 226 220 227 226 220 233 232 226 165 163 146 126 120 83  133 127 79  62  56  10  58  52  9   64  57  16  53  48  9   51  46  9   53  48  9   46  42  0   91  88  34  155 154 88  152 153 80  147 147 76  137 137 69  127 126 58  117 117 51  104 100 40  126 122 64  146 142 84  126 122 64  125 119 62  145 139 79  163 157 95  129 123 59  142 140 70  112 110 38  127 124 57  147 143 81  152 148 88  138 133 76  121 117 59  75  69  12  111 105 46  123 117 53  177 172 103 124 120 60  89  84  45  177 169 147 231 224 211 224 218 209 221 216 206 221 216 206 221 216 206 221 216 206 227 222 212 227 222 212 226 223 212 226 223 212 226 223 212 228 225 215 230 230 216 231 231 217 238 236 223 231 229 216 174 172 159 101 99  82  108 105 83  60  57  33  28  26  0   29  27  0   37  32  6   30  25  0   36  31  3   54  50  17  70  68  28  83  81  39  68  66  23  58  55  13  62  57  13  62  57  13  57  53  9   73  69  25  73  69  25  76  71  27  79  75  31  80  76  32  81  77  33  76  71  27  77  72  28  83  76  33  73  64  21  79  68  26  87  76  34  94  83  41  83  71  30  63  51  10  64  53  11  84  72  31  106 95  51  76  65  21  84  73  29  102 91  47  94  84  37  74  64  17  81  71  24  86  76  27  119 108 60  128 118 69  98  88  39  132 122 70  69  59  7   109 100 48  61  51  0   87  80  25  95  90  33  107 103 47  98  93  51  125 121 91  228 225 203 243 241 226 245 243 230 251 248 238 248 245 232 248 245 232 249 244 232 248 243 231 248 243 231 247 242 230 247 242 230 247 242 230 243 239 227 247 242 230 252 247 235 242 237 225 253 248 236 248 243 231 255 252 239 209 207 192 82  83  60  78  76  56  128 125 114 85  80  70  228 222 201 116 109 82  30  24  0   58  50  19  85  75  37  80  70  30  47  38  0   82  73  31  79  68  26  65  54  12  62  53  11  62  53  11  64  55  12  59  50  5   93  85  33  82  76  17  100 94  32  89  84  20  75  69  8   79  72  15  52  44  0   57  48  3   82  75  32  96  92  50  84  83  45  79  79  49  183 184 168 238 237 228 245 242 234 245 242 234 245 242 234 247 243 235 247 243 235 247 243 235 248 242 235 248 242 235 248 243 233 248 243 233 248 243 233 248 243 233 248 243 233 248 243 233 247 244 233 245 242 234 245 242 236 248 244 238 249 246 238 247 244 233 240 237 226 244 242 229 248 249 233 248 249 233 247 247 236 237 236 225 233 234 218 194 195 174 165 163 138 155 150 125 141 134 104 152 146 116 155 148 118 172 166 136 174 165 136 178 169 141 174 165 136 157 149 118 159 150 119 155 146 117 159 153 123 161 154 126 171 164 139 184 176 154 202 194 176 216 207 192 239 229 216 255 249 238 255 249 242 251 243 236 238 230 224 250 242 235 250 245 238 250 245 238 255 253 244 235 230 220 247 242 232 247 242 232 247 241 234 247 241 234 247 243 235 247 243 235 247 243 235 247 243 235 243 240 232 249 246 238 238 235 227 242 237 229 255 250 243 255 249 242 242 234 227 247 239 233 254 244 236 170 161 148 95  88  63  87  81  51  162 153 126 62  53  22  74  67  24  75  69  21  84  79  28  87  80  23  111 103 35  113 106 38  79  70  12  99  90  34  85  76  20  82  76  30  124 119 91  116 116 98  118 120 105 235 237 225 252 247 235 254 249 239 238 237 230 239 237 233 236 232 229 234 230 227 227 226 222 222 220 216 222 220 216 227 226 222 233 232 228 236 234 228 230 228 215 247 244 231 254 251 240 185 182 172 98  93  83  135 131 112 124 123 82  97  99  46  84  84  30  101 99  43  122 120 64  114 112 56  106 104 47  112 107 52  121 117 61  133 126 72  136 129 74  129 122 67  158 151 96  130 123 68  157 150 95  149 141 87  142 133 79  158 146 93  135 124 71  113 98  46  120 105 53  114 99  47  120 105 53  135 120 68  175 161 109 178 164 107 148 136 67  153 143 67  164 154 73  164 154 75  176 167 95  174 165 93  151 143 66  126 118 41  154 145 75  167 157 92  184 174 109 197 187 122 183 173 108 170 162 97  152 145 79  141 133 68  162 152 87  166 156 89  159 150 78  168 160 85  176 168 93  174 166 91  162 155 82  129 122 65  103 96  69  153 146 135 246 241 227 252 247 235 250 247 237 250 247 237 250 247 237 250 247 237 251 248 238 251 248 238 251 248 238 251 248 238 252 249 241 252 249 241 251 250 241 251 250 241 252 251 242 251 250 243 252 250 246 251 247 246 254 248 245 239 231 225 137 128 115 57  49  29  159 148 127 117 107 72  123 115 56  140 132 66  142 131 76  119 108 52  168 159 91  152 143 71  168 160 92  148 140 75  171 164 94  175 167 99  186 174 119 197 185 134 158 146 93  98  86  33  146 134 79  132 121 63  131 120 58  149 139 75  153 142 73  158 145 84  194 178 136 198 181 145 195 179 141 164 147 110 217 202 166 187 172 134 160 147 101 147 134 86  151 137 96  165 150 116 213 195 167 205 186 160 143 125 97  124 107 74  162 145 105 172 157 112 149 134 86  171 157 102 178 165 101 192 180 113 188 176 112 195 182 125 181 165 123 193 177 137 173 159 107 198 183 133 207 190 155 
135 134 68  122 123 61  68  68  25  52  50  35  147 146 142 229 231 221 207 210 195 217 217 201 210 210 187 222 216 186 217 207 170 191 178 135 183 167 111 178 161 85  175 163 83  189 185 116 165 164 110 175 172 135 209 204 180 226 219 208 214 207 191 131 128 92  125 123 80  136 131 94  120 114 80  131 122 91  139 130 101 142 133 104 153 141 116 163 150 127 166 156 132 159 149 125 173 163 139 153 143 119 164 154 133 164 154 137 180 168 154 173 161 149 168 159 141 168 161 133 178 173 134 205 200 147 215 211 148 184 178 114 204 195 134 172 163 109 198 187 141 172 162 124 176 168 132 176 169 128 184 177 136 191 183 149 177 168 139 181 171 147 185 175 135 193 190 109 187 189 90  196 197 106 230 229 149 226 223 158 180 174 124 199 192 155 179 173 143 171 165 133 174 170 139 183 178 155 192 186 165 173 167 146 186 184 159 190 188 157 182 180 151 172 170 145 164 161 139 155 152 130 154 149 128 146 140 120 147 142 121 126 121 100 134 126 104 130 123 98  112 104 79  112 103 76  98  89  62  102 92  66  86  77  51  76  65  37  88  75  47  78  64  37  67  51  20  57  45  6   71  60  16  87  72  25  86  70  16  90  75  14  106 91  28  94  78  22  87  72  23  81  67  26  77  64  21  75  61  9   82  71  13  52  44  0   67  60  5   60  53  12  64  55  26  67  60  37  38  29  14  105 98  87  243 235 226 223 215 206 232 227 217 228 225 217 224 221 215 219 215 209 235 232 224 224 219 207 232 227 213 245 240 226 211 206 192 158 154 142 125 120 106 63  59  40  61  59  30  80  76  41  94  90  46  112 108 59  114 110 64  124 119 84  133 126 94  140 134 97  141 135 98  149 143 107 143 137 103 134 127 98  157 150 121 169 161 127 167 159 123 189 178 148 182 171 141 201 190 158 184 172 135 178 167 123 190 179 133 209 201 152 170 164 116 168 161 118 179 169 129 172 157 119 157 140 103 157 146 104 151 139 100 145 134 102 137 126 98  118 108 82  111 102 71  110 102 64  114 108 64  107 100 59  126 117 75  129 122 67  185 178 123 224 216 169 245 238 197 220 213 174 227 221 189 221 214 189 237 231 212 232 226 208 231 227 210 231 226 212 231 226 214 238 233 221 233 230 217 231 229 216 229 227 214 234 229 217 228 223 211 228 224 209 236 232 220 229 221 212 240 233 224 225 218 205 140 136 106 127 127 73  111 112 50  67  66  18  63  61  19  56  51  9   58  53  12  62  57  13  62  60  16  66  64  21  79  75  29  109 104 49  104 98  37  133 124 54  144 133 59  120 109 33  110 100 26  84  75  5   108 101 33  104 100 29  94  90  18  89  86  19  121 117 57  36  34  0   42  43  0   84  88  32  82  88  25  77  81  14  105 107 38  131 128 63  134 126 65  123 114 58  150 142 90  121 120 66  138 140 82  113 119 53  122 128 62  124 129 71  101 106 49  88  94  33  85  90  29  93  96  36  114 114 55  108 109 47  106 104 47  91  90  45  154 150 120 218 213 199 228 225 217 222 220 214 222 220 214 222 220 214 223 222 215 224 223 216 224 223 216 225 224 218 225 224 218 225 224 218 225 224 218 226 225 219 226 225 219 227 226 220 227 226 220 233 232 226 165 163 146 117 112 75  136 131 83  61  55  9   57  50  9   52  47  8   58  53  16  53  48  13  50  45  8   34  29  0   77  74  22  121 120 54  143 143 73  123 123 53  158 158 88  112 112 41  97  94  27  128 124 64  114 110 52  123 118 63  123 118 63  108 101 44  129 122 63  129 123 59  140 135 69  149 147 79  138 135 68  148 145 78  135 132 67  154 151 86  130 126 63  126 122 64  130 125 69  125 118 64  109 102 45  133 130 67  99  94  41  92  86  54  204 198 182 224 216 208 221 216 208 221 216 206 221 216 206 221 216 206 221 216 206 227 222 212 227 222 212 226 223 212 226 223 212 226 223 210 228 225 213 230 230 216 233 230 217 236 234 221 232 227 213 135 131 112 107 104 82  98  95  71  55  52  26  27  25  0   30  25  0   37  32  4   34  30  0   37  32  2   45  41  6   45  42  2   72  69  27  70  68  26  63  62  17  69  64  20  65  61  15  57  53  7   71  67  21  65  61  15  66  62  16  71  67  21  72  68  22  65  61  15  66  62  16  77  73  26  91  84  41  48  39  0   58  47  5   70  58  17  80  69  27  78  67  25  57  46  4   67  56  12  102 91  47  92  81  35  65  55  6   88  78  29  109 99  50  84  74  25  69  58  9   81  71  22  91  81  32  107 97  48  83  72  23  84  74  23  80  70  19  69  59  7   84  74  21  55  45  0   81  72  16  91  82  24  87  80  23  113 107 61  96  90  58  219 216 194 242 237 225 248 245 234 252 249 239 248 245 232 248 245 232 249 244 232 248 243 231 248 243 231 247 242 230 247 242 230 247 242 230 245 240 228 245 240 228 254 249 237 242 237 225 243 239 227 250 246 234 237 235 222 254 251 236 109 107 90  64  62  44  123 120 110 132 126 117 197 191 175 156 148 128 38  31  6   50  41  13  52  42  6   126 117 79  89  80  40  82  73  33  63  51  10  71  60  18  65  56  11  59  50  5   64  55  10  50  41  0   73  65  13  86  79  22  92  85  26  90  84  23  62  57  0   110 104 45  76  69  15  60  52  3   33  25  0   57  51  7   76  74  32  83  80  45  76  73  51  199 195 180 245 243 232 245 242 234 245 242 236 247 243 235 247 244 233 247 244 233 247 243 235 247 243 235 248 243 233 248 243 233 248 243 233 248 243 233 248 243 233 248 243 233 247 244 233 245 242 234 245 242 236 248 244 238 248 244 236 245 242 234 245 243 232 247 244 233 246 246 232 246 246 234 244 243 236 255 255 249 238 239 227 247 248 232 251 250 230 233 230 206 227 225 196 218 214 184 222 215 188 207 200 175 210 200 176 205 195 171 202 192 168 205 195 171 204 194 170 220 211 187 220 212 190 235 227 207 249 240 223 253 244 228 246 236 225 255 248 240 255 247 241 242 233 229 247 239 235 251 242 238 247 239 235 255 255 251 240 234 229 233 227 220 253 247 240 238 232 223 247 242 232 246 241 231 247 241 234 246 240 233 247 243 235 247 243 235 247 243 235 245 242 234 244 241 233 238 235 227 247 244 233 240 235 225 249 241 232 244 236 229 252 244 238 246 239 230 226 217 202 135 127 105 94  88  56  128 122 88  65  57  26  61  53  17  93  87  43  98  93  42  95  90  37  95  90  33  109 101 38  109 101 38  100 91  35  115 107 55  92  86  38  102 99  59  128 127 102 106 106 93  177 179 167 240 239 231 249 244 234 242 237 227 246 245 238 233 232 228 233 232 228 233 229 225 226 225 221 220 219 215 220 219 215 227 226 222 233 232 228 234 233 227 239 239 225 250 248 235 234 230 222 135 132 124 105 100 90  151 148 127 100 100 57  77  79  24  89  91  35  89  90  37  105 107 54  105 107 54  116 116 61  112 112 58  102 99  48  92  87  36  71  66  15  104 98  48  124 122 68  95  95  38  124 125 65  113 111 52  152 145 90  156 147 91  127 118 62  101 89  32  119 108 52  112 101 45  112 100 47  88  76  23  119 107 56  127 116 60  160 150 85  170 164 89  166 161 81  168 162 82  170 162 87  155 146 74  134 126 51  151 142 70  161 154 83  168 161 90  151 145 74  158 152 81  166 160 89  161 154 83  152 146 75  146 138 70  159 149 82  158 148 81  151 141 72  166 157 85  174 166 91  163 155 78  169 164 83  163 157 91  119 114 74  138 132 111 246 240 224 249 245 230 252 247 235 250 247 237 250 247 237 250 247 237 250 247 237 251 248 238 251 248 238 251 248 238 252 249 241 252 249 241 251 250 241 251 250 241 252 251 242 250 249 240 252 251 244 251 247 244 252 249 243 255 253 246 189 182 169 76  67  51  103 95  75  133 125 91  86  79  22  127 119 54  130 118 65  104 92  39  155 145 80  137 127 60  180 169 107 156 148 85  175 167 101 191 183 120 142 131 76  167 155 102 172 160 107 123 111 58  149 138 85  162 151 95  117 106 46  149 139 75  157 145 78  177 164 104 177 160 120 201 184 149 155 138 98  136 119 82  173 157 128 174 158 127 190 176 135 182 168 127 202 187 153 160 144 115 184 165 141 216 197 174 139 122 91  189 172 137 228 212 170 195 180 135 195 179 137 212 196 149 194 181 122 199 186 122 191 177 120 200 185 136 185 168 131 215 198 161 187 173 121 202 188 134 208 192 150 
148 149 71  143 144 80  77  78  32  67  66  48  147 146 142 219 220 213 212 213 204 208 208 194 226 222 205 219 214 193 225 216 187 214 203 161 199 185 130 138 127 56  148 140 63  189 185 112 180 180 114 212 211 164 209 205 172 230 222 202 228 221 196 115 110 69  137 134 85  151 147 105 169 163 126 182 173 142 182 173 146 152 141 120 140 129 112 134 122 110 136 127 114 131 122 107 126 117 99  126 117 99  131 122 107 127 118 103 124 115 102 121 112 99  117 109 91  123 116 89  163 158 119 205 202 150 176 172 114 136 132 76  192 185 130 216 209 152 195 189 139 118 110 76  137 130 103 156 148 126 99  91  71  80  72  54  102 94  76  80  72  52  98  91  48  174 175 86  181 185 74  168 173 67  206 210 115 214 215 140 168 165 111 156 150 118 86  79  61  54  47  36  50  45  35  60  54  45  75  70  58  63  59  44  65  64  44  64  63  40  58  57  37  53  52  34  46  44  29  51  49  34  68  63  49  57  53  38  51  47  32  55  50  36  61  55  39  84  78  60  74  67  44  95  88  63  71  64  37  49  42  15  61  52  23  77  69  37  89  78  48  72  59  27  57  44  12  48  35  1   81  70  28  79  64  14  73  54  1   103 85  29  96  78  22  84  67  16  65  50  0   82  70  19  106 94  42  77  63  4   109 99  34  104 100 31  113 110 47  88  81  40  73  66  39  51  43  23  62  52  39  190 180 172 246 235 227 226 219 208 230 225 213 229 226 218 229 225 220 228 224 219 227 223 218 230 224 215 231 225 216 230 224 215 233 228 218 236 231 224 228 223 213 203 198 184 168 164 143 132 130 101 112 109 74  93  90  50  84  82  40  96  93  53  101 98  58  107 104 64  111 109 68  131 128 88  136 133 93  143 139 104 149 143 109 169 163 128 201 192 159 204 196 162 187 177 142 193 181 144 191 177 139 186 172 129 198 188 139 194 185 133 181 173 126 160 152 114 160 150 115 158 143 109 138 123 87  146 134 94  116 107 66  92  81  48  97  88  57  96  87  58  86  80  48  102 97  62  133 127 90  176 170 135 206 200 156 231 227 165 208 205 137 205 201 141 225 221 163 223 218 161 223 217 167 247 241 206 229 222 195 225 221 191 216 211 185 217 211 193 235 228 214 236 232 218 234 230 215 234 231 218 229 227 214 230 228 215 228 226 211 230 226 205 230 226 207 247 239 233 235 227 218 180 175 149 131 129 86  131 131 74  95  95  38  54  52  9   53  50  12  52  48  6   67  63  21  66  61  22  69  64  24  71  67  23  80  78  24  128 126 58  123 118 40  126 119 37  155 145 66  104 93  22  159 147 81  105 96  28  102 96  25  101 97  21  126 126 53  100 100 39  88  92  39  48  53  10  12  17  0   82  88  25  106 111 39  94  96  27  112 109 44  122 114 53  111 100 44  116 103 53  141 131 82  117 116 64  103 108 54  103 108 52  107 111 55  116 120 67  102 107 51  93  98  39  96  98  40  94  91  40  107 104 53  105 103 44  121 121 64  93  93  52  149 147 120 226 223 212 216 212 209 223 222 215 222 220 214 222 220 214 223 222 215 224 223 216 224 223 216 224 223 216 224 223 216 225 224 218 225 224 218 225 224 218 226 225 219 227 226 220 226 225 219 234 233 227 174 173 155 88  83  44  103 97  49  70  64  18  54  47  6   49  41  5   53  44  11  50  41  13  54  45  14  48  41  2   65  60  12  124 120 58  149 147 77  130 128 55  136 135 62  114 112 40  121 119 51  145 139 77  119 113 56  93  85  33  116 109 56  128 121 66  117 111 49  142 137 68  126 122 53  124 121 56  130 126 65  128 124 68  131 126 71  145 141 79  157 154 91  124 119 64  143 138 90  126 120 74  140 134 88  103 97  49  52  48  6   136 128 108 228 220 211 232 224 218 224 216 210 225 220 210 225 220 210 225 220 210 225 220 210 228 223 213 228 223 213 227 224 211 227 224 211 231 231 215 231 231 215 231 229 216 233 230 217 243 238 229 212 206 190 91  87  57  117 114 78  82  78  49  42  38  12  41  37  9   41  37  9   34  27  0   39  33  1   41  34  2   42  36  1   50  45  8   39  34  0   59  54  15  63  58  16  79  74  33  81  77  33  56  51  7   70  65  21  65  61  17  86  82  38  78  74  30  79  75  31  62  57  13  78  74  30  71  67  23  72  65  25  44  32  0   55  40  6   101 85  52  94  79  43  73  58  22  77  63  25  97  83  42  81  68  22  87  74  26  88  75  25  90  78  25  92  80  30  70  58  9   98  86  37  102 89  41  87  73  28  94  84  37  72  61  15  77  66  20  58  48  1   54  43  0   85  75  24  80  70  19  104 92  39  87  73  19  96  82  30  107 96  52  109 98  68  164 155 140 255 247 241 249 244 234 250 247 237 248 243 231 248 243 231 248 243 231 248 243 231 248 243 231 248 243 231 248 243 231 248 243 231 247 242 230 246 241 229 247 242 230 246 241 229 247 242 230 249 244 232 247 242 230 247 242 230 176 173 160 78  75  62  85  81  66  184 180 163 192 185 171 174 166 150 39  29  7   57  48  22  36  25  0   99  88  53  98  85  51  87  75  38  76  64  23  73  62  18  91  81  32  79  69  18  104 94  42  78  68  17  70  60  9   69  59  5   65  56  0   87  79  20  87  79  18  119 111 45  91  84  13  98  91  22  74  67  10  94  86  36  79  70  27  92  81  46  96  85  57  90  80  58  215 208 194 245 239 232 248 244 240 242 238 233 239 239 225 248 250 236 243 247 234 243 245 235 245 243 232 247 242 232 247 242 232 247 242 232 246 241 231 242 237 227 243 238 229 250 245 236 247 241 234 247 241 234 245 242 234 245 242 234 247 244 233 247 244 233 247 244 233 247 244 233 244 243 234 244 243 234 245 243 232 245 243 230 248 243 231 248 244 229 248 244 227 249 245 228 252 246 230 252 245 232 252 245 232 252 245 232 251 244 230 250 243 229 249 242 228 249 242 228 249 242 228 249 242 228 249 241 230 247 240 229 249 241 232 249 241 232 249 241 232 247 239 233 247 239 233 246 238 232 246 240 233 246 240 233 247 241 234 248 242 235 249 244 236 249 244 236 251 248 240 244 241 233 240 236 228 244 241 233 247 241 234 247 241 234 247 241 234 247 241 234 247 241 234 249 244 234 245 240 228 247 242 228 255 249 238 251 243 234 255 252 248 238 231 220 162 155 127 137 132 95  103 98  59  85  80  39  76  69  30  70  63  22  73  69  25  88  85  36  92  89  37  86  82  26  83  74  13  110 99  41  84  74  23  99  90  45  81  76  39  108 106 79  117 115 100 110 109 98  219 218 210 240 239 231 248 243 233 245 239 232 238 237 230 236 234 230 232 231 224 230 229 222 225 224 218 219 218 212 220 219 215 218 217 213 222 223 218 233 234 227 238 239 227 248 248 237 225 224 218 98  94  88  135 130 120 148 145 121 69  67  23  72  71  19  76  75  27  90  88  43  89  86  46  98  96  56  111 110 62  87  86  36  88  86  43  64  59  20  52  48  6   77  72  28  121 120 68  102 102 43  133 131 70  107 105 45  117 112 55  150 143 84  147 142 78  102 95  29  126 118 54  139 130 71  120 111 55  88  79  27  113 103 54  99  89  38  128 120 59  144 139 70  139 138 61  166 161 83  163 150 77  159 143 73  120 106 40  141 129 62  142 133 64  160 151 79  166 157 85  152 143 71  173 164 92  168 159 87  135 127 55  147 138 68  144 137 69  170 163 95  142 135 65  147 140 67  161 155 79  158 153 73  157 152 70  160 157 80  150 146 88  106 101 59  214 208 185 255 255 242 249 245 230 250 248 235 250 248 235 248 248 235 250 250 236 251 251 237 252 250 237 252 249 239 252 249 239 252 249 239 252 249 239 252 249 239 255 255 244 250 249 238 249 246 238 255 253 245 243 240 232 255 251 243 236 231 222 107 102 90  85  76  61  142 133 104 116 109 56  104 95  34  144 132 79  147 135 84  114 99  47  153 139 85  153 142 84  165 154 94  148 140 77  187 179 118 112 101 45  151 139 84  140 129 71  125 113 58  138 126 75  155 144 88  159 149 84  172 162 93  153 141 75  189 176 117 181 167 124 177 163 125 145 131 88  179 164 128 169 152 131 168 151 129 187 172 134 187 173 130 161 146 110 165 149 118 159 141 111 131 114 79  156 141 93  194 180 128 166 151 102 188 172 130 205 187 154 193 176 143 173 158 113 207 192 145 192 175 140 213 195 165 190 169 142 209 189 155 219 202 151 189 173 115 162 148 93  
166 165 85  137 137 71  70  69  22  68  64  43  152 149 141 230 229 222 226 225 217 230 228 213 226 222 203 218 213 192 228 219 191 234 225 180 218 209 150 161 153 87  149 142 74  215 210 141 127 124 59  199 197 141 228 226 179 201 196 157 227 222 183 152 149 102 103 100 53  154 149 107 157 152 115 157 151 119 154 146 121 133 124 106 119 109 96  102 92  84  94  84  76  99  89  79  105 95  83  105 95  83  99  89  77  72  63  50  72  65  51  91  84  71  117 111 92  157 150 123 186 181 144 152 148 104 131 128 81  112 107 63  149 143 95  215 211 150 180 178 122 89  84  47  123 116 93  108 99  86  63  53  43  67  58  47  57  48  31  62  55  27  129 126 75  156 157 68  171 177 68  159 168 58  168 175 75  208 210 130 159 157 101 81  77  46  33  26  13  58  52  48  48  41  41  45  41  36  53  50  42  45  43  30  54  52  37  57  58  42  57  58  42  56  56  43  49  49  36  47  45  34  53  50  40  59  56  46  67  64  54  70  65  53  37  33  18  67  60  44  66  60  39  67  60  37  55  47  22  53  46  19  57  50  21  62  53  22  66  55  22  50  37  3   57  44  10  43  32  0   77  65  26  120 103 54  100 81  26  91  69  17  84  66  13  90  73  20  96  82  28  109 98  40  73  65  6   117 106 46  83  73  10  89  84  17  83  79  21  72  67  26  59  52  25  45  37  17  94  85  72  222 212 204 242 232 224 238 231 218 228 221 207 228 223 213 228 225 217 229 226 218 228 225 217 230 224 215 230 224 215 232 226 219 231 225 218 225 219 214 227 222 214 233 228 218 221 217 202 220 217 195 206 204 177 177 175 144 150 149 113 112 109 72  104 101 64  94  91  53  87  84  46  87  84  46  87  84  46  89  86  50  89  85  52  96  90  58  141 135 102 161 153 119 151 141 105 180 169 129 202 188 145 205 193 145 198 186 136 176 167 111 155 145 92  97  89  44  64  54  14  87  75  40  90  77  45  86  75  42  81  70  40  91  82  53  112 103 76  150 143 116 185 178 151 221 214 187 227 220 193 235 228 201 241 235 199 199 194 141 219 216 153 199 197 129 195 192 123 219 217 147 225 222 157 221 218 167 235 231 185 226 226 174 230 228 185 238 233 210 236 229 215 238 233 219 236 232 218 228 223 211 228 225 213 230 228 215 220 218 202 236 233 212 226 222 203 236 228 217 223 216 200 126 123 88  115 113 66  114 113 59  72  71  19  61  58  20  55  52  17  63  58  16  69  64  20  62  55  14  64  58  14  58  55  4   99  95  35  109 105 29  115 111 26  133 127 38  118 109 26  130 119 48  142 130 61  126 117 45  85  79  6   123 119 43  86  86  15  50  53  0   56  59  10  63  68  23  56  63  10  66  73  2   146 151 74  137 138 65  127 124 57  129 123 59  126 117 58  113 102 47  163 155 101 123 123 68  133 135 80  125 126 74  99  101 48  124 125 72  113 115 60  114 117 59  137 137 82  141 135 87  112 107 56  89  88  29  96  96  39  82  81  43  142 141 118 228 225 217 222 218 217 223 221 217 222 220 214 222 220 214 223 222 215 224 223 216 224 223 216 224 223 216 224 223 216 225 224 218 225 224 218 225 224 218 225 224 218 227 226 220 226 225 219 234 233 227 174 173 155 91  86  46  104 98  50  70  64  18  50  43  2   46  38  2   49  41  9   47  38  9   50  41  13  68  60  26  76  69  26  139 135 77  159 156 91  168 166 96  155 153 81  141 139 69  140 137 70  146 140 79  152 146 86  150 143 86  157 150 93  147 141 84  116 110 48  123 118 51  125 120 56  138 133 76  126 121 70  189 183 137 138 131 86  133 128 73  148 143 88  161 155 107 157 150 110 139 131 93  142 135 96  92  87  48  57  51  19  174 167 154 230 221 218 228 219 215 226 218 214 225 220 210 225 220 210 225 220 210 225 220 210 228 223 213 228 223 213 227 224 211 227 224 211 231 231 215 231 231 215 231 229 216 234 229 217 244 236 227 187 181 162 101 95  61  109 104 65  55  51  21  27  22  0   34  30  2   34  30  2   39  33  3   48  41  9   55  49  14  58  53  16  42  37  0   66  61  22  60  55  16  49  44  4   52  47  8   76  71  31  88  83  44  74  70  28  70  65  23  71  67  23  85  81  34  65  61  15  66  62  16  62  58  11  49  45  0   53  45  7   42  28  0   64  49  20  78  63  34  96  80  49  57  42  9   87  72  36  98  84  46  85  72  29  106 93  48  92  80  30  91  79  26  102 90  35  123 111 58  103 91  40  87  74  26  119 106 60  99  88  42  87  76  32  86  75  31  79  68  24  67  56  12  73  63  16  84  73  27  74  61  15  89  71  23  96  78  32  108 92  50  113 100 68  126 115 100 236 228 219 235 230 220 244 241 231 248 243 231 248 243 231 248 243 231 248 243 231 248 243 231 248 243 231 248 243 231 248 243 231 247 242 230 247 242 230 247 242 230 247 242 230 247 242 230 247 242 230 247 242 230 247 242 232 231 228 220 103 97  88  68  64  47  148 142 124 96  87  74  161 152 136 79  69  48  63  54  27  69  58  30  54  44  11  86  74  35  129 119 72  94  84  33  84  75  19  121 112 54  90  81  20  133 124 65  83  74  15  98  88  35  37  27  0   81  72  20  72  63  9   65  56  0   125 117 51  104 97  24  109 103 28  88  83  14  84  75  17  74  61  13  103 89  48  101 85  52  67  53  28  71  63  43  178 174 159 254 248 241 255 254 246 236 236 220 238 243 226 254 255 249 241 244 236 250 247 239 252 246 237 252 246 237 252 246 237 248 243 233 250 245 236 247 242 232 239 234 224 247 242 232 247 242 232 245 242 234 245 242 234 247 244 233 247 244 233 247 244 233 247 244 233 245 243 232 245 243 232 247 242 232 247 242 232 247 242 232 247 242 232 247 242 232 247 242 232 248 243 233 248 243 233 248 243 233 248 243 233 247 242 232 246 241 231 245 239 230 246 241 231 247 240 231 247 240 231 247 240 231 247 240 231 247 240 231 247 240 231 247 240 231 247 240 231 247 240 231 247 240 231 246 241 231 246 241 231 246 241 231 246 241 231 246 240 233 246 240 233 238 235 227 247 243 235 250 247 239 247 243 235 247 241 234 247 241 234 247 241 234 247 241 234 248 243 233 242 237 227 252 247 235 246 241 227 235 228 214 255 249 238 238 230 222 129 122 106 130 124 90  109 105 61  78  74  30  55  50  6   74  67  24  82  75  32  83  78  34  76  72  25  72  69  18  76  71  16  94  85  29  91  80  24  97  86  37  78  68  28  77  73  45  129 126 106 121 118 105 145 142 134 227 227 218 249 246 238 245 243 232 243 240 232 238 237 230 236 234 230 231 230 223 229 227 221 224 223 216 218 217 211 219 218 214 218 217 213 222 223 218 232 233 226 232 234 222 249 251 241 198 197 193 91  87  81  151 147 135 126 123 99  93  90  48  83  82  32  69  67  23  76  74  34  73  69  34  86  82  47  98  97  52  84  83  38  90  88  48  76  73  36  61  59  18  68  66  23  91  90  41  81  81  24  99  97  38  101 100 39  105 101 43  118 114 54  136 131 64  123 118 49  105 100 36  128 122 60  96  89  33  64  56  4   64  56  6   123 115 63  122 115 56  122 117 50  135 133 61  151 147 71  143 127 55  162 143 76  134 117 55  193 179 115 150 138 69  144 135 61  151 142 68  132 124 49  162 154 79  146 138 63  138 129 57  133 124 52  150 143 73  165 158 90  137 131 60  122 116 43  136 130 55  139 133 55  150 145 65  168 165 87  154 151 84  128 125 74  176 172 144 252 246 230 254 249 235 250 246 232 249 247 232 250 250 234 251 251 237 251 251 237 252 250 237 252 250 237 252 249 239 252 249 239 252 249 239 254 251 240 252 251 240 251 250 239 251 248 238 254 251 240 250 247 239 255 254 246 244 241 233 150 145 135 76  69  56  136 129 104 139 133 85  129 122 65  126 116 63  135 123 73  138 123 76  134 119 69  149 138 81  142 132 72  136 128 67  175 166 105 120 109 51  133 122 64  134 124 63  141 130 72  147 135 82  160 148 93  149 139 75  147 138 68  158 146 80  160 148 86  134 122 69  140 127 79  177 165 117 210 196 155 175 159 132 187 170 144 138 124 81  152 139 93  156 142 104 175 160 126 164 147 112 181 165 125 164 150 97  171 157 100 179 165 113 195 180 135 210 193 162 177 159 128 213 197 152 202 187 142 223 206 173 195 177 151 203 182 155 210 191 154 189 172 121 177 162 103 166 153 94  
155 154 75  130 130 62  83  82  32  70  67  41  148 145 132 219 215 207 209 206 196 214 212 195 209 206 182 219 215 189 227 221 185 224 219 164 216 211 146 192 186 124 193 186 129 218 213 162 166 161 108 208 207 144 186 188 119 152 152 82  200 199 136 211 207 160 185 180 143 171 167 132 162 159 126 155 151 123 154 149 126 162 156 138 164 157 143 160 153 142 154 147 138 165 157 148 171 163 152 171 163 152 165 157 146 157 149 138 148 143 131 155 150 138 174 168 152 176 171 146 200 196 165 159 154 126 159 154 126 158 154 123 165 161 119 216 216 150 192 193 127 193 190 148 193 188 162 165 158 144 173 166 154 162 156 140 160 156 125 172 171 119 211 210 142 185 187 106 195 199 107 186 193 93  175 182 86  178 180 99  148 146 85  159 156 120 186 179 163 175 169 162 169 163 158 172 168 163 184 180 172 195 193 180 198 195 182 191 191 178 184 184 171 187 187 173 195 195 181 203 201 190 209 206 196 202 199 189 205 202 191 165 161 149 50  46  31  60  53  37  74  68  47  46  39  16  50  43  18  58  51  24  56  49  19  54  45  14  53  42  10  66  54  19  62  49  15  47  37  4   69  57  18  93  76  27  98  80  25  91  73  20  66  47  0   122 108 44  139 127 61  100 93  27  76  67  6   103 91  36  61  49  0   53  47  0   51  47  1   67  62  25  44  38  8   49  44  21  155 149 133 232 222 209 226 216 204 228 221 205 223 216 200 224 219 205 226 222 207 228 224 209 230 225 211 231 226 214 230 224 215 228 223 215 228 223 215 228 222 218 228 222 218 233 227 220 231 225 216 223 218 204 231 227 208 233 230 206 228 226 199 225 223 194 209 206 178 186 184 155 170 168 139 149 147 118 139 137 108 124 121 93  116 111 85  111 106 81  138 131 104 152 143 112 150 140 104 171 160 116 202 190 139 198 187 132 169 158 100 194 183 121 231 223 159 184 178 114 117 110 54  116 105 65  152 138 113 172 159 143 182 170 158 226 215 200 221 213 195 227 218 201 237 231 212 247 238 221 241 232 215 233 224 207 227 219 199 209 202 175 239 234 192 214 213 148 195 197 119 203 202 123 208 206 129 215 216 143 204 204 129 213 215 134 222 221 158 243 239 208 228 220 209 233 226 215 242 234 223 226 221 209 232 227 215 232 227 217 221 216 204 236 232 218 226 222 205 232 227 204 180 176 145 86  83  41  118 117 69  89  88  40  58  55  13  61  58  22  62  59  24  66  62  20  65  61  15  58  53  3   68  63  8   97  93  33  102 99  29  117 114 33  104 100 10  123 117 26  118 110 22  115 105 24  137 127 50  125 117 38  116 111 33  152 146 73  82  77  13  66  64  10  52  51  1   71  73  22  76  79  19  85  90  16  131 137 55  167 171 92  161 165 88  124 125 52  134 132 62  144 139 72  139 135 73  154 152 91  161 162 102 144 144 87  109 109 52  140 140 83  136 136 79  141 142 83  187 185 129 218 211 159 153 146 92  121 119 58  102 102 45  85  85  46  142 141 118 222 219 211 215 211 210 223 221 217 222 220 214 222 220 214 223 222 215 224 223 216 224 223 216 224 223 216 224 223 216 225 224 218 225 224 218 225 224 218 225 224 218 229 227 221 226 225 219 234 233 227 174 173 155 94  91  51  105 101 52  66  62  16  45  41  0   41  35  0   44  38  6   42  35  6   45  38  11  35  26  0   85  77  41  181 175 127 177 173 115 169 166 101 141 138 71  143 140 75  139 135 73  147 142 80  156 150 88  158 152 88  138 133 68  143 137 73  114 107 48  117 110 56  139 131 82  181 175 129 197 190 149 206 199 162 175 167 131 132 125 82  139 132 89  155 149 112 180 175 138 154 149 109 129 124 85  73  67  33  84  79  54  217 210 199 233 225 221 222 213 211 226 218 214 226 221 211 226 221 209 226 221 209 226 221 209 228 223 211 228 223 211 227 224 211 227 224 211 231 231 215 231 231 215 233 230 217 234 229 217 236 228 217 143 137 118 105 99  64  89  84  47  42  38  10  26  21  0   41  37  9   40  36  8   41  34  4   55  49  14  64  58  22  60  55  16  50  45  4   79  75  31  71  67  23  58  53  12  55  50  10  62  56  19  72  66  32  43  37  3   48  42  5   45  41  0   85  81  32  63  60  6   74  72  18  50  46  0   50  45  4   68  60  26  60  49  21  78  64  39  83  69  42  85  72  42  56  43  11  85  72  38  97  84  48  84  72  33  112 101 57  101 91  42  102 93  39  116 108 49  125 116 55  105 96  38  86  76  25  87  77  28  101 88  40  103 90  44  92  79  36  96  82  41  69  55  16  69  54  18  97  82  46  67  52  16  76  57  18  85  67  25  99  83  40  112 99  65  92  82  60  206 199 185 248 243 233 244 241 233 248 243 233 248 243 231 248 243 231 248 243 231 248 243 231 248 243 231 248 243 231 248 243 231 247 242 230 247 242 230 247 242 230 247 242 230 247 242 230 247 242 230 247 242 230 247 242 232 249 244 236 134 129 119 77  71  55  98  92  74  87  78  65  121 112 97  128 118 97  61  51  25  68  56  31  50  39  6   119 108 60  134 126 63  98  91  18  141 135 57  113 105 30  123 114 42  120 111 41  97  87  22  125 114 56  113 101 49  90  77  29  88  75  25  82  70  17  59  48  0   101 94  28  99  93  20  105 99  21  90  84  8   92  82  17  83  71  18  78  65  31  80  67  39  74  65  36  71  64  39  162 158 141 241 239 223 248 249 231 242 245 230 230 233 228 253 253 251 243 240 232 245 239 230 245 239 230 245 239 230 239 234 224 247 242 232 250 245 236 248 243 233 247 242 232 247 242 232 247 242 232 247 242 232 248 243 233 248 243 233 248 243 233 248 243 233 247 242 232 247 242 232 247 242 232 247 242 232 247 242 232 247 242 232 247 242 232 247 242 232 246 241 231 246 241 231 246 241 231 246 241 231 245 239 230 245 239 230 245 239 230 245 239 230 245 239 230 245 239 230 246 241 231 246 241 231 246 241 231 246 241 231 246 241 231 246 241 231 246 241 231 246 241 231 246 241 231 246 241 231 246 241 231 246 241 231 246 241 231 246 241 231 237 234 226 245 242 234 249 246 238 245 242 234 247 241 234 247 241 234 247 241 234 247 242 232 245 240 228 253 248 236 241 236 226 250 245 236 255 255 246 214 206 195 153 146 133 107 101 78  102 97  60  86  82  38  71  67  23  65  61  17  77  70  27  82  75  32  74  70  26  61  60  12  89  88  38  89  87  33  97  87  33  77  65  14  87  73  30  58  48  12  86  81  55  128 124 107 113 110 99  187 184 176 245 242 234 250 247 239 245 242 234 243 240 232 238 237 230 236 234 228 230 229 222 227 226 220 221 222 215 215 217 209 218 219 214 217 217 213 222 223 218 230 234 226 232 236 226 243 245 235 151 149 145 89  86  80  154 149 135 87  85  58  96  94  51  88  86  39  67  65  22  65  62  22  58  54  19  74  71  33  88  86  43  90  88  43  101 98  56  103 101 58  65  63  18  49  48  3   79  77  30  76  75  25  67  64  13  80  78  24  84  82  23  114 110 50  102 98  33  117 114 49  92  89  26  78  74  14  102 95  38  133 126 72  115 107 55  82  75  21  118 112 51  97  92  26  133 131 59  170 164 91  151 135 65  160 142 75  111 94  29  147 132 67  175 164 95  159 150 78  154 146 71  152 143 69  160 152 77  127 119 44  131 122 50  135 127 55  169 162 91  163 156 86  142 135 65  123 117 46  143 137 64  147 141 65  154 148 70  180 176 102 153 150 83  140 137 85  139 135 104 236 229 213 255 255 241 246 241 227 245 243 228 253 253 237 251 251 237 251 251 237 252 250 237 252 250 237 252 249 239 252 249 239 252 249 239 252 249 239 251 250 239 253 253 241 254 251 240 251 248 238 255 251 243 255 254 246 254 250 242 202 196 187 76  69  58  99  91  69  148 141 100 121 113 61  111 101 47  118 106 53  137 123 71  101 87  33  141 130 72  139 128 68  135 127 66  163 155 94  135 125 65  123 112 52  130 119 59  142 132 72  139 128 70  155 144 86  144 133 71  133 123 58  159 147 81  151 139 73  128 119 50  151 141 76  188 176 121 177 165 117 184 172 133 175 163 121 145 133 80  116 104 51  172 158 117 167 152 118 127 112 79  175 161 122 191 179 129 173 161 106 180 166 112 182 167 120 188 172 134 129 113 73  149 135 78  201 188 129 189 174 127 189 173 133 210 191 154 195 176 135 167 150 99  170 155 96  157 144 82  
139 138 61  119 119 48  89  87  33  70  66  36  153 149 132 228 225 213 222 220 207 222 221 201 221 218 194 230 227 198 217 214 176 197 194 138 190 188 127 194 191 140 220 216 172 235 230 193 187 183 139 162 161 95  174 178 99  188 190 110 188 188 120 205 200 158 229 223 193 230 225 197 218 214 186 212 208 182 217 211 191 225 219 203 232 225 212 232 225 214 221 216 204 228 223 213 223 217 208 223 218 206 228 223 211 240 235 223 233 228 216 225 220 208 218 213 199 228 225 203 236 230 207 236 230 211 237 230 214 237 230 214 218 214 184 208 208 151 210 213 152 236 237 193 225 222 196 223 216 202 238 231 220 235 229 208 225 223 183 217 219 152 217 221 140 194 196 114 187 190 105 179 184 94  168 173 87  184 184 113 197 194 140 228 224 191 218 212 194 236 232 220 224 218 211 217 214 206 222 219 209 224 222 211 231 229 218 231 231 219 226 226 215 225 225 213 230 229 218 231 229 218 227 224 213 222 219 209 240 237 226 197 192 180 44  40  25  66  59  43  93  87  66  44  36  14  58  51  26  52  45  18  51  44  15  50  42  10  49  41  7   60  50  15  32  22  0   46  37  4   70  58  19  93  76  27  100 81  26  138 119 66  127 111 55  93  78  15  72  60  0   58  50  0   80  72  13  82  70  19  69  56  10  47  41  0   71  66  25  65  59  25  41  34  4   84  79  54  208 202 179 239 230 212 233 224 207 228 222 203 245 239 221 235 228 210 230 224 203 225 220 197 226 223 201 228 224 209 230 224 215 231 225 216 230 224 215 228 223 215 228 222 218 227 221 216 225 219 212 226 221 209 225 220 206 232 228 211 243 240 221 228 225 203 230 226 205 230 226 205 231 227 208 235 232 212 230 226 207 224 220 201 218 215 193 212 207 186 200 192 170 189 180 153 190 180 145 183 173 122 220 210 150 225 215 152 212 203 135 212 203 133 220 214 139 200 196 120 217 213 142 237 229 170 235 226 183 231 221 199 242 230 221 237 228 217 246 236 225 245 238 227 238 231 220 239 229 218 242 232 222 244 235 224 247 237 227 242 233 220 244 237 210 234 232 173 216 217 142 199 199 119 203 202 123 211 210 133 195 194 115 209 210 118 209 211 131 242 238 192 233 228 203 231 225 209 240 233 224 220 215 205 231 225 216 230 224 215 230 224 215 230 224 215 231 225 207 189 185 153 137 135 92  105 104 57  115 113 68  68  65  25  59  55  20  55  52  19  75  72  36  60  56  14  59  56  7   60  55  0   78  75  12  124 121 54  95  91  17  94  89  7   84  78  0   116 110 17  120 112 21  103 94  9   135 125 44  139 130 49  141 133 56  108 99  27  82  72  9   108 98  47  81  71  22  110 103 49  119 116 51  103 104 29  127 128 48  132 136 55  135 136 58  141 142 64  147 145 71  116 114 41  96  93  24  154 151 86  149 146 83  128 125 62  117 113 53  134 130 70  142 138 78  139 135 75  188 184 124 185 178 119 135 128 69  136 135 70  101 101 44  75  74  36  136 135 113 224 221 213 221 217 214 223 222 215 220 219 213 220 219 213 222 220 214 224 223 216 224 223 216 224 223 216 224 223 216 225 224 218 225 224 218 225 224 218 225 224 218 229 227 221 226 225 219 234 233 227 174 173 155 96  93  53  106 102 53  65  61  15  43  38  0   38  33  0   42  36  4   39  33  3   43  36  9   33  24  0   63  55  21  147 141 95  128 124 68  120 117 54  114 111 46  121 118 55  117 113 51  138 132 70  140 135 71  152 147 78  131 126 57  149 143 77  126 120 61  114 106 56  124 115 73  174 166 130 164 156 125 130 121 90  205 197 165 189 181 147 166 157 124 184 177 148 152 146 114 163 158 119 109 104 65  56  52  22  122 116 97  226 219 210 232 224 220 222 213 211 226 218 214 226 221 211 226 221 209 226 221 209 226 221 209 228 223 211 228 223 211 227 224 211 227 224 211 231 231 215 231 231 217 233 230 217 234 229 217 224 218 202 107 101 80  102 96  64  71  65  31  29  22  0   19  14  0   34  29  4   34  30  2   42  35  6   58  52  18  60  55  18  48  43  3   62  57  15  72  68  24  84  79  37  89  85  43  78  73  34  60  55  18  51  45  11  46  41  6   57  51  17  55  50  10  88  85  36  65  62  9   80  78  24  46  43  0   44  39  0   61  53  19  73  61  33  71  57  32  86  72  45  65  52  22  71  58  26  76  63  29  95  83  48  79  67  28  79  68  24  87  77  28  98  88  35  106 98  37  108 101 33  111 103 35  130 122 63  102 93  41  73  60  14  78  65  22  70  57  14  74  60  19  56  42  4   74  59  23  111 96  60  89  72  37  49  30  0   75  59  19  89  75  34  101 89  52  92  83  56  171 164 146 248 243 233 247 241 234 248 243 233 248 243 231 248 243 231 248 243 231 248 243 231 248 243 231 248 243 231 248 243 231 247 242 230 247 242 230 247 242 230 247 242 230 247 242 230 247 242 230 247 242 230 247 242 232 243 238 231 189 183 174 90  84  68  75  69  51  145 136 123 77  68  53  133 123 101 82  72  46  46  34  9   104 94  59  104 94  40  127 120 52  90  84  6   127 120 40  117 108 36  106 97  27  94  84  15  124 114 47  66  54  0   71  60  7   64  52  2   101 89  36  99  88  31  68  57  0   106 98  37  97  89  23  133 127 49  135 130 50  112 103 31  61  49  0   35  22  0   51  37  10  83  74  36  82  74  38  68  63  37  143 140 118 233 231 211 245 247 230 240 241 236 234 234 232 248 244 236 249 244 234 249 244 234 249 244 234 250 245 236 243 238 229 242 237 227 247 242 232 247 242 232 247 242 232 247 242 232 247 242 232 248 243 233 248 243 233 248 243 233 248 243 233 247 242 232 247 242 232 247 242 232 247 242 232 247 242 232 247 242 232 247 242 232 246 241 231 245 239 230 243 238 229 243 238 229 243 238 229 243 238 229 243 238 229 245 239 230 245 239 230 245 239 230 245 239 230 246 241 231 246 241 231 246 241 231 246 241 231 246 241 231 246 241 231 246 241 231 246 241 231 246 241 231 246 241 231 246 241 231 246 241 231 246 241 231 246 241 231 251 248 240 242 239 231 240 236 228 246 240 233 247 241 234 247 241 234 247 241 234 248 243 233 247 242 228 245 240 226 249 244 234 251 243 234 212 205 194 154 147 134 116 110 89  97  93  63  81  76  37  67  63  19  62  57  13  67  63  19  68  61  18  60  53  10  57  53  9   61  60  12  76  75  25  84  81  29  77  67  16  81  68  20  85  72  31  80  67  35  128 120 98  135 131 116 124 121 111 215 212 204 250 247 239 244 241 233 245 242 234 243 240 232 238 237 230 236 234 228 229 227 221 226 225 219 220 221 214 214 215 208 215 216 211 214 215 210 218 222 216 228 231 225 239 243 235 234 235 228 111 110 103 94  91  83  140 136 119 57  55  26  80  77  37  83  81  36  72  69  27  62  59  22  53  50  12  73  70  32  62  60  20  76  74  32  91  90  45  105 104 57  97  96  48  53  52  4   61  59  14  62  60  16  66  62  18  96  93  44  78  75  21  79  77  19  83  79  19  74  70  10  111 107 49  105 101 43  95  88  33  101 94  39  132 126 69  94  88  28  102 96  34  67  62  0   109 106 36  146 139 68  140 124 57  165 146 80  146 129 64  164 150 82  159 148 77  152 143 71  130 121 47  155 147 72  167 159 84  121 113 39  118 109 37  153 144 72  166 160 87  141 134 62  126 119 46  132 125 52  152 146 73  146 140 64  144 138 63  171 164 94  150 144 80  139 133 83  143 136 107 203 197 181 255 252 237 246 241 227 243 241 226 255 255 240 251 251 237 251 251 237 251 249 236 251 249 236 251 248 238 251 248 238 252 249 239 252 249 239 248 248 237 255 255 244 255 252 241 250 247 237 248 244 236 255 251 243 251 248 240 227 224 213 120 115 103 83  78  57  148 142 105 111 103 56  132 122 68  132 121 63  136 122 65  99  85  28  126 115 55  140 129 69  148 140 79  147 138 77  148 138 77  126 115 55  130 119 59  126 115 55  124 113 51  135 125 63  109 98  40  84  73  15  103 90  31  114 101 39  113 104 34  148 139 71  141 130 72  108 95  45  139 128 81  125 114 65  159 147 92  113 101 49  154 140 101 128 113 84  195 179 150 170 155 124 177 164 121 172 159 109 149 135 80  165 151 99  194 179 132 136 122 69  142 129 65  155 142 78  157 143 90  182 167 122 149 130 91  184 166 124 207 190 141 181 164 111 132 120 58  
113 112 37  103 104 31  93  91  33  75  72  34  155 152 128 216 215 197 216 214 199 226 222 205 223 219 200 220 217 193 210 208 175 202 202 158 203 203 160 198 197 159 213 212 178 218 214 186 206 201 164 159 158 97  205 205 134 199 199 130 201 199 143 224 221 183 211 206 181 221 215 194 219 216 194 220 216 197 220 216 199 221 217 202 221 216 204 223 218 206 223 218 206 224 218 209 224 218 209 224 218 209 225 220 210 227 222 212 227 222 212 225 220 210 224 219 207 234 229 217 224 219 205 239 234 220 228 223 211 232 226 219 234 230 215 189 187 158 219 218 182 214 213 179 241 239 212 241 237 222 223 218 204 235 230 204 218 216 172 198 198 125 206 209 121 216 220 128 170 173 83  176 180 99  169 171 105 198 195 143 206 201 164 180 175 149 194 188 169 205 201 186 221 216 204 230 228 215 228 225 215 228 225 215 229 226 218 230 229 220 230 229 220 229 228 219 227 227 216 229 226 216 229 226 216 229 226 216 236 233 223 220 215 203 65  61  46  72  65  49  102 96  75  36  28  6   53  46  21  42  35  8   42  35  6   43  35  4   43  35  1   45  35  0   57  46  11  52  43  10  67  56  16  103 85  37  80  61  6   78  62  8   103 86  33  88  69  16  68  51  0   78  67  14  70  60  9   94  81  31  74  61  13  71  63  13  80  76  30  56  50  15  67  63  32  159 153 123 218 211 183 228 221 196 240 232 210 230 222 204 232 223 205 234 227 202 214 208 178 204 198 163 214 209 179 228 221 205 231 224 213 232 225 212 229 222 208 240 233 224 231 223 217 231 223 217 239 232 223 244 237 225 232 225 214 228 221 207 231 224 211 233 229 214 233 229 214 233 229 214 233 228 216 228 220 209 228 220 209 228 220 209 228 221 207 229 222 206 232 223 203 251 240 219 253 243 208 239 230 173 228 221 151 214 208 135 184 178 101 229 225 142 207 202 120 182 180 99  202 200 116 229 228 137 238 235 156 240 234 186 247 237 213 235 226 213 240 230 222 247 240 231 246 239 230 240 233 224 238 230 222 235 227 218 232 225 216 237 229 220 231 226 203 226 222 175 222 221 158 227 225 155 223 220 151 218 214 154 235 230 163 204 202 117 178 179 90  223 221 147 228 225 172 228 223 197 238 231 220 238 230 224 230 222 215 238 232 223 216 211 199 237 230 218 210 204 184 133 128 88  105 101 52  129 125 79  66  62  20  51  45  11  52  46  14  45  41  8   59  55  20  49  47  7   53  50  1   88  84  24  107 102 35  115 110 39  115 111 35  109 105 22  114 108 21  116 110 19  105 100 8   110 102 14  141 131 48  143 133 52  127 114 39  105 91  21  106 91  28  120 102 49  105 86  36  149 134 75  132 120 54  138 129 57  137 131 56  158 154 78  150 146 70  137 133 57  124 123 46  117 116 39  152 150 75  167 165 93  132 128 59  131 126 59  144 139 72  156 150 84  145 140 73  159 154 87  156 150 84  149 141 76  116 111 44  143 141 73  101 101 44  63  62  24  122 121 99  217 215 204 222 218 213 219 218 212 220 219 213 220 219 213 222 220 214 223 222 215 223 222 215 223 222 215 223 222 215 224 223 216 224 223 216 224 223 216 224 223 216 225 224 218 222 220 214 236 234 228 185 183 166 84  82  42  108 105 56  76  72  25  50  45  4   38  33  0   48  41  9   38  32  2   37  31  1   48  41  9   57  52  13  126 123 71  159 158 97  160 157 90  135 133 63  126 123 56  133 130 65  150 144 82  115 109 45  110 105 36  96  91  22  112 107 41  142 135 76  153 145 96  142 132 92  139 130 99  166 157 128 123 114 85  174 165 136 217 207 181 134 125 98  157 150 123 172 166 134 151 147 103 88  84  42  75  70  44  179 172 158 230 222 213 230 221 218 226 218 214 229 221 214 226 221 211 226 221 209 226 221 209 226 221 209 228 223 211 228 223 211 227 224 211 227 224 211 225 225 211 236 236 222 221 218 208 240 236 221 185 178 160 96  91  65  103 97  67  67  58  27  30  23  0   31  24  1   34  26  1   34  27  0   39  33  3   53  47  15  74  69  34  74  69  32  80  75  38  44  39  2   46  43  3   65  62  22  76  74  32  101 98  56  70  69  24  58  55  13  58  53  16  71  65  29  60  57  10  73  70  19  83  79  28  63  59  12  55  49  12  39  33  1   71  63  31  64  53  22  85  74  41  52  42  6   92  82  44  79  69  31  100 90  50  72  63  20  60  52  3   95  88  35  82  75  23  99  92  33  121 117 43  118 115 39  123 118 51  116 107 51  99  88  44  86  74  35  91  77  36  76  63  19  50  34  0   75  60  15  99  84  36  68  53  8   62  43  4   77  59  24  78  64  28  81  71  36  130 121 92  124 119 95  234 229 217 246 240 233 250 242 233 250 242 231 248 243 231 248 243 231 248 243 231 248 243 231 248 243 231 248 243 231 247 242 230 247 242 230 247 242 230 247 242 230 247 242 230 247 242 230 247 242 230 247 242 232 249 244 236 247 242 232 116 109 93  68  62  44  127 117 105 95  86  71  84  74  52  85  76  49  97  86  58  102 92  55  115 105 54  113 105 42  106 97  29  91  81  16  116 102 48  100 85  33  97  84  25  102 89  30  101 87  33  77  63  8   106 95  38  133 123 60  114 105 36  84  75  7   85  74  21  70  58  5   101 91  24  112 103 31  134 124 59  101 89  36  59  43  12  41  27  0   99  90  45  84  78  32  93  85  52  80  73  46  126 123 97  215 213 196 253 252 245 247 246 242 245 242 234 240 235 225 241 236 226 253 248 238 248 243 233 241 236 226 241 236 226 248 243 233 246 241 231 246 241 231 246 241 231 246 241 231 245 239 230 245 239 230 245 239 230 245 239 230 246 241 231 246 241 231 246 241 231 246 241 231 246 241 231 246 241 231 246 241 231 246 241 231 245 239 230 243 238 229 243 238 229 243 238 229 245 239 230 245 239 230 245 239 230 245 239 230 246 241 231 246 241 231 246 241 231 246 241 231 246 241 231 246 241 231 246 241 231 246 241 231 246 241 231 246 241 231 246 241 231 246 241 231 246 241 231 246 241 231 246 241 231 246 241 231 249 244 236 242 237 229 242 237 229 247 241 234 255 247 241 247 239 233 239 231 225 237 229 220 244 237 225 255 253 240 250 242 233 187 180 168 143 134 121 133 124 104 103 96  69  79  73  39  72  67  26  66  62  18  60  56  12  55  50  6   68  61  18  71  65  21  73  69  25  72  70  25  56  55  8   70  66  19  81  71  24  98  85  41  64  50  14  69  55  28  140 131 113 118 113 101 152 149 139 238 235 227 238 235 227 244 241 233 245 242 234 236 233 225 231 230 221 236 235 226 229 228 219 226 225 219 220 221 214 214 215 210 214 215 210 213 214 209 217 221 213 227 230 224 238 241 236 193 194 189 90  89  82  99  96  85  111 107 88  60  57  28  63  61  21  66  64  21  74  71  31  59  56  18  52  49  9   65  62  22  54  51  13  55  53  13  59  57  12  84  83  36  81  80  30  60  59  9   68  66  21  76  74  32  60  56  14  91  86  42  73  70  21  78  75  23  110 105 52  68  63  10  105 100 47  117 112 59  86  79  24  102 95  38  143 136 77  101 95  33  125 120 56  108 103 36  118 113 47  133 126 57  124 107 42  135 116 52  148 132 67  156 142 74  136 125 53  169 160 88  127 119 46  149 141 68  168 159 87  144 135 63  119 111 36  162 154 79  152 147 69  162 157 76  144 139 59  150 145 67  151 146 68  152 147 71  143 137 62  146 139 68  143 137 73  119 114 63  162 155 125 151 144 128 246 241 227 247 242 228 255 254 239 245 245 229 247 247 234 247 247 234 251 249 236 251 249 236 251 248 238 251 248 238 251 248 238 251 248 238 252 249 239 252 249 239 254 251 240 251 248 238 252 249 241 252 249 241 255 251 243 249 246 236 163 158 146 89  83  65  135 128 99  121 111 71  139 129 75  137 126 64  113 100 38  121 108 46  116 105 45  134 124 63  125 116 55  129 121 60  130 119 59  144 133 73  140 129 69  132 122 59  139 129 62  135 126 61  114 103 48  114 102 52  114 99  51  137 122 73  118 106 51  121 110 55  117 105 54  128 116 68  155 145 96  134 124 75  97  85  34  109 95  52  127 112 81  168 151 129 199 182 165 152 134 115 175 160 128 165 151 108 136 122 69  153 140 81  170 157 95  164 151 87  162 152 89  158 146 89  173 158 109 142 126 83  192 174 134 202 183 144 178 160 118 162 145 96  167 151 91  
123 121 48  134 134 61  119 121 56  100 100 57  170 168 137 221 220 198 217 216 196 209 205 186 212 209 187 214 212 183 203 201 170 214 215 183 214 215 183 203 204 172 209 210 180 213 211 182 238 235 195 195 195 129 184 184 111 149 147 86  194 191 142 235 231 196 219 214 191 212 208 191 217 212 198 221 219 204 226 224 208 221 218 206 221 218 206 221 218 206 221 218 208 224 218 209 224 218 209 224 218 209 223 217 208 223 217 208 224 218 211 228 223 215 230 224 217 227 223 215 224 221 213 224 222 211 224 222 211 234 230 222 224 222 211 199 198 175 209 209 182 220 218 189 232 229 205 242 238 221 223 218 202 233 229 201 238 237 189 218 218 147 186 189 104 186 189 101 157 159 76  183 183 112 202 200 144 211 206 164 216 210 180 207 201 178 167 163 144 138 133 117 184 180 165 223 221 206 234 231 218 236 233 225 233 229 221 226 225 217 224 223 214 226 225 217 227 227 218 229 226 216 229 226 216 234 231 220 231 229 218 211 206 194 60  55  41  77  71  55  98  93  72  31  24  1   39  32  7   42  35  8   42  35  6   43  35  4   43  35  1   43  32  0   58  48  12  58  50  17  60  51  11  115 100 51  100 84  28  96  82  28  111 94  43  106 87  41  100 79  36  83  70  24  55  42  0   80  65  18  74  61  11  48  41  0   71  65  19  60  55  20  72  68  35  202 197 162 222 216 182 234 228 196 211 203 178 219 210 193 230 222 202 220 213 184 202 197 160 198 194 149 212 206 169 230 224 205 229 221 210 230 224 205 233 227 209 235 228 214 232 225 214 230 223 211 231 224 213 232 225 212 230 223 209 230 223 209 233 226 215 233 228 216 233 228 216 233 228 218 231 225 216 231 223 215 230 222 213 230 222 213 230 223 211 236 229 215 240 231 216 244 233 216 223 212 180 200 192 129 205 199 122 210 205 122 189 184 99  200 197 107 234 230 143 228 225 142 235 234 143 210 211 106 235 234 139 237 233 171 238 230 194 246 237 219 243 233 225 242 234 225 240 233 224 243 235 226 243 235 226 239 232 223 237 229 220 243 235 224 212 208 182 220 216 170 218 216 157 212 208 148 220 216 156 225 218 164 209 204 139 195 194 105 178 177 82  212 213 124 233 231 161 227 221 185 236 229 213 240 233 224 232 225 216 237 230 218 219 215 198 214 208 189 144 139 111 102 98  54  123 120 71  96  92  48  50  45  6   49  43  10  49  43  10  53  50  14  40  37  0   51  48  8   53  50  3   88  84  24  93  88  19  114 109 38  118 111 38  117 109 32  121 114 32  113 107 22  128 122 35  117 108 23  132 123 40  129 117 39  120 105 33  146 130 58  115 96  30  157 132 74  145 120 65  130 106 45  117 95  32  145 126 62  123 106 41  155 141 75  139 128 59  105 96  24  104 97  24  139 136 59  175 172 96  168 162 86  134 128 55  141 133 60  124 115 45  153 144 74  131 122 52  147 138 68  126 119 48  158 152 81  135 130 59  145 142 73  111 112 52  63  62  26  122 121 99  217 215 204 222 218 213 219 218 212 219 218 212 219 218 212 220 219 213 223 222 215 223 222 215 223 222 215 223 222 215 224 223 216 224 223 216 224 223 216 224 223 216 225 224 218 222 220 214 236 234 228 185 183 166 101 98  58  114 111 62  77  73  26  56  51  9   55  49  12  58  52  20  46  40  10  45  39  9   35  29  0   69  64  24  145 142 91  165 164 103 138 135 68  121 119 49  133 130 63  163 160 95  157 151 89  164 158 96  171 165 101 174 169 105 125 119 58  131 125 65  136 129 74  138 129 85  139 131 97  141 132 103 113 105 71  107 99  66  143 134 108 159 149 125 162 153 126 140 134 99  131 128 79  88  84  40  105 100 77  223 216 204 230 222 213 230 222 215 230 222 215 230 222 215 226 221 211 226 221 209 226 221 209 226 221 209 228 223 211 228 223 211 227 224 211 227 224 211 226 226 213 236 236 222 227 224 213 227 223 208 148 143 120 96  90  62  100 91  63  56  47  18  44  37  12  44  37  12  41  34  6   42  35  8   41  34  4   59  53  21  93  87  53  102 97  60  91  85  48  63  57  20  73  70  32  49  47  7   60  58  15  94  92  47  70  69  22  38  36  0   49  43  6   73  68  29  53  50  3   78  74  25  74  71  22  72  68  22  65  60  21  49  43  8   55  48  16  62  55  23  62  56  21  53  48  11  76  71  31  73  69  27  66  62  20  58  54  8   87  84  33  98  93  42  79  73  30  112 107 56  123 120 50  142 138 62  121 116 45  57  51  0   65  55  8   59  48  6   73  59  18  83  70  26  79  63  18  97  82  35  104 90  40  87  70  23  83  64  25  87  70  35  60  44  13  51  40  9   130 121 92  101 94  69  196 190 174 246 241 229 249 241 230 250 242 231 248 243 231 248 243 231 247 242 230 247 242 230 247 242 230 247 242 230 247 242 230 247 242 230 247 242 230 247 242 230 247 242 230 247 242 230 247 242 230 247 242 232 255 252 245 236 231 222 159 152 136 75  69  51  88  81  67  134 124 112 84  76  56  92  83  56  116 107 78  75  65  30  130 122 74  80  71  15  123 115 56  96  85  27  70  58  7   99  84  32  135 122 62  107 94  32  137 124 67  124 111 54  114 104 44  105 96  28  146 138 63  116 107 35  57  46  0   71  60  7   89  78  18  81  70  8   82  71  11  61  49  0   63  49  13  96  81  45  155 145 96  100 92  42  62  53  15  88  79  48  84  80  50  107 104 80  191 188 177 240 236 230 249 244 236 243 238 229 245 239 230 241 236 226 246 241 231 243 238 229 243 238 229 246 241 231 246 241 231 246 241 231 246 241 231 246 241 231 245 239 230 245 239 230 245 239 230 245 239 230 246 241 231 246 241 231 246 241 231 246 241 231 246 241 231 246 241 231 246 241 231 246 241 231 245 239 230 245 239 230 245 239 230 245 239 230 245 239 230 245 239 230 245 239 230 245 239 230 246 241 231 246 241 231 246 241 231 246 241 231 246 241 231 246 241 231 246 241 231 246 241 231 246 241 231 246 241 231 246 241 231 246 241 231 246 241 231 246 241 231 246 241 231 246 241 231 246 240 233 245 239 232 245 239 232 247 241 234 247 239 233 246 238 232 253 245 239 255 255 249 249 241 232 239 232 221 181 174 163 131 124 110 123 115 95  119 111 86  79  73  41  76  70  33  70  65  23  55  50  6   55  50  6   65  61  17  88  81  38  82  75  32  74  70  26  66  64  19  79  77  32  90  83  40  77  66  22  85  72  31  45  30  0   73  59  34  138 129 114 113 108 98  187 184 176 241 237 229 238 235 227 244 241 233 244 241 233 238 235 227 233 232 224 234 234 225 227 227 218 225 224 218 219 220 215 213 214 209 213 214 209 212 213 208 216 220 212 225 229 223 235 238 234 154 154 152 84  83  77  109 107 94  85  82  60  65  64  32  62  59  22  68  65  25  53  50  12  46  43  5   54  52  9   65  62  20  52  49  11  52  49  11  52  50  7   76  75  27  80  79  29  63  62  13  75  74  26  83  81  36  79  74  33  99  94  52  70  65  23  50  46  2   60  53  8   106 100 52  133 127 79  112 107 56  68  61  9   109 102 45  132 126 67  111 105 44  122 117 50  110 105 38  110 105 38  133 123 60  126 109 49  140 120 58  151 134 69  147 133 65  143 132 60  174 165 93  126 117 45  140 131 59  155 146 74  170 162 89  133 124 52  148 140 65  133 127 49  155 149 71  132 126 48  134 128 53  140 133 60  154 147 76  136 129 61  107 100 34  136 130 66  102 94  44  154 145 116 135 126 111 219 213 199 250 246 232 255 254 239 233 234 218 247 247 234 247 247 234 250 248 235 250 248 235 250 247 237 250 247 237 251 248 238 251 248 238 252 249 239 252 249 239 252 249 239 252 249 241 254 250 242 252 249 241 252 249 241 255 252 241 206 201 189 95  88  72  100 92  70  138 128 93  113 103 50  148 138 73  116 104 38  107 95  28  127 117 54  127 117 56  125 116 55  139 128 68  141 131 70  133 122 62  126 115 55  120 110 47  116 106 39  117 107 42  125 113 58  148 136 85  129 114 67  142 127 79  116 104 51  104 93  37  111 100 44  109 97  44  140 128 77  134 122 74  134 121 76  170 157 116 109 93  62  141 125 101 126 108 92  112 95  76  140 125 93  152 138 97  170 155 105 179 166 107 170 157 93  185 172 108 151 140 80  158 146 91  177 162 112 166 151 104 202 184 140 210 192 148 175 157 113 143 127 75  163 148 87  
115 116 43  141 141 68  110 111 47  76  77  29  144 146 109 206 206 178 217 217 192 211 209 180 219 218 184 217 216 178 196 194 161 206 205 182 211 213 189 200 203 170 201 205 165 226 225 187 207 206 154 187 189 109 161 163 80  180 180 121 190 188 146 211 208 173 224 221 195 212 208 193 217 211 202 221 218 206 226 223 210 221 218 208 221 218 208 221 218 208 221 218 208 222 219 211 222 219 211 222 219 211 222 219 211 231 225 218 228 222 218 222 218 213 220 216 211 231 227 224 231 228 222 230 229 218 230 230 214 234 231 218 219 217 197 195 196 164 186 187 153 229 229 202 222 221 199 225 221 202 233 230 208 231 227 196 233 231 189 222 220 162 181 181 113 143 143 73  181 181 113 190 188 127 146 140 90  121 114 73  171 165 133 245 243 214 185 184 159 192 191 170 210 209 191 223 221 206 222 220 207 222 221 212 225 224 218 231 230 223 231 232 224 230 229 222 229 228 219 230 227 217 230 227 217 234 231 220 234 231 220 227 222 210 93  89  74  83  77  61  98  93  72  41  33  10  43  36  11  42  35  8   42  35  6   43  35  4   43  35  1   38  28  0   44  34  0   53  44  11  52  42  2   82  68  18  100 84  28  102 88  34  89  75  23  72  51  8   64  46  4   49  36  0   63  50  5   61  46  1   66  53  5   50  42  0   82  76  30  45  39  5   81  75  43  215 210 171 225 220 180 236 231 194 219 212 183 228 220 200 233 225 203 220 214 180 208 204 160 211 208 156 229 225 181 242 236 215 233 227 213 235 229 208 243 237 214 232 227 206 235 228 210 237 231 212 236 230 211 218 212 194 226 220 202 233 227 211 235 228 214 233 229 214 233 228 216 233 228 216 233 228 216 233 226 215 233 226 215 233 226 215 233 226 215 229 221 210 237 228 217 246 235 220 229 218 185 210 202 134 206 202 115 218 214 126 215 212 122 215 212 120 221 218 128 192 190 104 218 217 129 209 209 109 215 214 121 212 209 142 242 236 193 247 239 216 242 233 220 239 232 219 242 235 221 245 238 225 244 237 223 240 234 220 238 232 216 226 221 200 207 203 168 219 216 160 200 199 136 198 193 140 221 216 166 214 207 152 189 185 116 215 214 121 215 215 115 220 222 128 231 230 153 232 228 179 239 232 204 240 231 216 236 227 214 228 221 205 209 203 182 164 159 131 98  95  60  109 105 61  93  89  43  57  52  13  58  53  16  49  43  8   50  44  10  59  56  16  48  46  6   56  53  16  105 100 58  88  83  26  82  77  13  101 96  29  90  82  14  116 107 37  104 95  23  101 92  18  135 127 50  114 104 25  135 125 46  140 126 56  123 107 37  150 132 59  126 104 32  160 132 66  165 134 72  134 100 41  137 103 47  150 117 67  134 104 53  117 92  39  95  72  14  130 111 49  143 129 61  143 132 60  180 171 97  151 141 64  133 120 45  144 132 56  134 121 46  143 132 56  121 110 34  128 117 41  120 112 35  153 145 68  142 136 61  126 124 52  105 106 47  63  62  26  122 121 101 217 215 204 222 218 213 219 218 212 219 218 212 219 218 212 220 219 213 223 222 215 223 222 215 223 222 215 223 222 215 224 222 218 224 222 218 224 222 218 224 222 218 225 224 220 222 220 216 236 234 230 185 183 168 117 114 74  114 111 62  70  66  19  57  52  11  65  60  23  62  55  23  49  42  13  50  43  16  42  34  10  83  76  46  159 155 113 172 169 118 148 144 86  143 140 79  137 130 73  128 121 64  172 165 108 159 152 95  125 119 62  144 137 82  145 138 81  149 142 83  137 132 65  115 109 49  156 146 106 123 112 80  90  81  41  123 114 73  132 121 91  118 107 79  62  54  20  110 106 62  101 98  45  87  85  38  147 142 121 224 218 209 228 223 213 228 223 213 227 222 212 227 222 212 227 222 210 227 222 210 227 222 210 227 222 210 228 223 211 228 223 211 227 224 211 227 224 211 229 228 217 233 233 222 234 231 220 209 204 190 98  93  68  93  87  55  95  86  57  41  32  5   38  31  4   42  35  8   41  34  6   52  45  18  41  34  4   53  47  15  87  82  45  100 95  56  81  76  37  87  82  43  122 119 79  100 97  57  51  48  8   55  53  13  49  47  5   47  45  2   63  58  16  85  80  39  62  58  11  84  80  33  62  58  11  57  53  7   51  49  4   59  56  16  80  76  41  89  85  52  72  68  35  77  74  39  79  76  38  82  79  39  65  62  20  74  72  27  74  73  23  77  72  28  67  61  31  120 114 80  98  94  36  140 138 68  131 126 57  58  52  0   47  40  0   58  48  1   63  50  5   92  79  34  81  65  23  82  63  22  98  80  38  86  68  28  96  77  38  81  64  31  50  34  10  30  18  0   100 91  65  99  92  65  159 153 132 242 238 221 247 241 227 250 242 231 248 243 231 248 243 231 245 240 228 245 240 228 246 241 229 246 241 229 246 241 229 246 241 229 245 243 230 245 243 230 245 243 230 245 243 230 245 243 230 245 243 232 242 239 231 238 232 223 218 214 197 98  94  75  71  67  52  124 117 103 110 104 83  101 94  69  71  62  35  98  89  58  90  83  42  72  63  16  97  87  33  59  51  0   70  62  1   90  80  15  89  80  8   124 115 43  96  86  21  110 100 37  84  74  13  95  85  20  108 99  27  114 106 34  81  71  6   74  63  3   59  48  0   62  51  0   87  75  22  77  65  14  96  83  35  126 114 63  128 117 64  121 111 62  62  53  13  48  40  6   99  93  59  98  94  66  76  72  53  142 137 125 219 214 204 241 236 226 255 250 240 254 249 239 243 238 229 246 241 231 246 241 231 245 239 230 245 239 230 246 241 231 246 241 231 246 241 231 245 239 230 245 239 230 245 239 230 245 239 230 246 241 231 246 241 231 246 241 231 246 241 231 246 241 229 246 241 229 246 241 229 246 241 229 245 239 230 245 239 230 245 239 230 245 239 230 245 239 230 245 239 230 245 239 230 245 239 230 246 241 231 246 241 231 246 240 233 246 240 233 246 240 233 246 240 233 246 240 233 246 240 233 246 241 231 246 241 231 246 241 231 246 241 231 246 241 231 246 241 231 246 241 231 245 239 230 245 239 232 247 241 234 247 241 234 245 239 232 243 235 228 250 242 235 249 240 234 243 235 228 216 207 204 159 151 144 133 126 113 123 117 96  88  81  54  70  64  31  69  63  28  83  77  40  76  71  29  58  54  10  56  51  7   70  65  21  76  69  26  69  62  19  59  55  11  52  50  5   74  70  28  77  70  29  77  65  24  67  53  14  62  46  17  115 100 80  137 128 115 136 131 124 224 221 213 241 237 229 238 235 227 244 241 233 241 237 229 242 239 231 237 236 227 231 230 221 227 227 218 225 224 218 219 220 215 213 214 209 213 214 209 212 213 208 216 220 212 225 229 223 222 224 224 106 106 104 87  86  77  116 114 99  64  61  37  68  66  33  68  65  27  56  54  14  45  42  4   39  36  0   60  58  13  60  58  13  65  61  26  61  58  22  58  55  15  80  78  33  66  65  15  66  65  13  94  93  41  97  97  44  76  72  25  66  62  20  55  49  14  57  51  17  39  31  0   81  74  31  99  93  47  96  90  42  79  71  19  93  86  29  108 102 42  126 121 59  136 129 61  107 100 32  104 96  32  118 107 47  131 113 55  142 122 63  141 125 60  140 126 56  137 125 57  135 126 57  114 105 36  123 113 44  153 144 74  170 161 91  139 130 60  132 123 53  140 133 62  159 152 84  128 121 55  143 135 72  159 151 92  148 139 83  149 140 86  104 94  40  139 133 74  88  80  30  127 118 89  133 124 108 199 192 178 254 249 235 250 248 235 244 244 230 247 247 234 247 247 234 250 248 235 250 248 235 250 247 237 250 247 237 251 248 238 251 248 238 252 249 241 252 249 241 252 249 241 254 250 242 254 250 244 254 250 244 252 249 243 252 249 241 249 244 232 164 157 141 92  83  66  135 127 95  120 110 57  151 141 74  132 121 50  117 106 37  133 123 60  126 115 55  134 124 63  140 129 69  149 136 76  134 120 61  131 118 59  120 106 47  119 109 46  104 94  31  117 106 48  144 132 75  116 103 46  122 109 49  123 112 50  130 120 55  134 122 55  115 103 38  132 121 63  123 111 58  142 126 81  186 170 130 167 151 113 194 177 142 206 191 160 166 151 117 145 130 94  117 103 62  150 134 90  159 144 95  155 141 86  165 151 97  147 136 80  189 178 122 130 116 62  132 119 62  186 171 112 178 163 104 159 141 81  164 146 86  130 113 48  
116 116 46  161 164 92  128 132 67  117 121 70  165 166 130 203 203 176 204 201 175 210 210 169 216 217 166 205 207 152 172 173 127 205 204 179 218 219 198 214 217 180 216 219 173 230 231 182 188 189 129 205 206 128 148 149 73  201 201 144 228 225 183 226 223 186 209 206 178 219 215 200 220 215 207 220 216 208 219 216 205 221 218 208 221 218 208 221 218 208 221 218 208 222 219 211 222 219 211 222 219 211 222 219 211 224 218 213 225 219 214 224 221 215 227 223 218 229 225 220 219 215 209 234 231 220 223 221 206 227 226 203 231 232 202 210 212 173 213 215 175 219 219 189 247 244 218 217 214 188 226 222 192 228 225 185 200 198 151 205 202 148 194 192 136 191 188 134 205 200 147 170 166 110 110 103 51  125 119 73  158 153 116 160 158 127 142 142 114 221 220 196 209 209 184 208 207 187 215 213 198 231 230 221 230 228 224 226 227 222 226 227 220 229 227 221 229 228 219 230 227 217 230 227 217 234 231 218 227 224 211 219 215 200 87  83  67  73  67  48  88  82  61  44  37  12  45  38  11  42  35  6   42  36  4   43  35  1   43  35  1   34  24  0   69  59  24  84  76  40  46  37  0   98  85  39  90  76  26  76  64  13  68  53  8   73  55  16  47  28  0   46  33  0   118 105 59  81  66  21  63  50  7   51  43  0   61  54  11  57  51  17  162 156 121 232 227 183 225 221 172 207 203 157 236 231 192 227 220 195 211 203 180 209 204 167 200 197 148 207 206 145 230 228 172 232 229 196 219 214 193 221 215 194 233 228 205 237 231 210 231 225 205 215 209 186 199 193 170 208 202 179 225 220 197 236 230 207 237 232 208 235 229 208 233 229 212 234 230 215 233 229 214 236 229 213 236 229 215 236 228 217 236 228 217 244 236 227 239 229 218 243 234 221 237 228 197 238 233 167 208 204 121 212 207 126 225 220 137 186 182 95  224 220 132 197 195 110 207 205 117 208 208 112 209 208 119 203 201 129 237 232 175 235 231 187 239 233 198 242 237 209 246 241 218 245 239 221 240 234 218 237 230 214 236 230 211 197 192 171 217 213 180 212 209 155 172 170 114 213 207 163 248 242 198 216 210 150 208 204 128 181 180 87  213 213 113 209 211 112 210 210 126 240 236 176 237 232 193 236 229 204 237 229 209 222 217 191 159 155 124 95  92  54  116 114 71  96  92  48  55  50  8   57  51  15  56  50  15  49  43  8   56  50  13  58  55  13  77  75  33  62  59  24  177 172 133 89  84  27  82  77  13  90  85  19  105 97  31  94  87  21  109 99  34  124 114 49  114 105 38  164 153 79  158 147 73  151 137 69  130 113 46  123 106 32  169 147 75  148 120 55  154 121 59  129 93  34  132 93  40  120 79  34  130 91  47  157 122 74  119 89  38  118 90  33  133 111 50  162 142 78  189 173 103 122 104 33  134 116 42  143 125 52  176 161 87  171 155 81  139 126 50  101 91  14  122 112 35  152 144 67  150 144 69  117 114 45  107 105 49  63  62  26  122 121 101 217 215 204 222 218 213 219 218 212 219 218 212 219 218 212 220 219 213 223 222 215 223 222 215 223 222 215 223 222 215 224 222 218 224 222 218 224 222 218 224 222 218 225 224 220 222 220 216 236 234 230 185 183 168 124 121 83  109 106 57  60  57  10  52  48  6   62  56  19  57  51  17  44  38  8   49  42  15  37  29  9   65  58  33  134 129 89  150 147 98  145 140 87  138 133 78  137 129 77  139 132 80  137 130 75  165 158 103 145 138 85  180 172 122 154 147 95  145 138 81  142 136 70  144 138 76  170 161 114 149 140 97  122 114 66  124 115 71  149 138 103 172 161 128 152 144 106 104 98  52  84  84  30  85  86  40  174 170 149 233 228 218 228 223 211 227 222 210 227 222 212 227 222 212 227 222 210 227 222 210 227 222 210 227 222 210 228 223 211 228 223 211 227 224 211 227 224 211 230 229 218 232 232 220 240 237 224 195 191 172 61  57  26  89  83  51  90  81  52  31  21  0   38  31  4   46  39  12  58  51  24  73  66  39  60  54  24  58  52  20  84  78  41  99  94  55  87  82  43  51  46  7   62  60  20  94  91  53  87  84  46  67  64  26  55  52  15  49  47  7   72  68  24  79  75  31  62  58  11  69  65  18  53  50  3   66  62  16  61  60  12  68  66  23  73  73  36  70  69  35  48  47  11  49  48  10  56  55  17  60  59  20  53  52  11  70  70  27  78  79  33  80  77  37  63  59  31  110 104 74  83  77  29  95  89  29  124 119 52  142 136 72  58  51  0   79  69  20  70  58  9   99  83  38  103 84  45  82  63  24  127 107 66  115 94  53  100 82  42  68  53  19  37  22  2   31  18  0   71  62  37  105 98  70  125 120 97  228 225 205 246 239 226 249 241 230 248 243 231 248 243 231 242 237 225 243 239 227 243 239 227 245 240 228 245 240 228 246 241 229 244 242 229 245 243 230 245 243 230 245 243 230 245 243 230 245 243 232 243 240 230 252 249 239 243 241 224 121 117 100 72  68  53  104 100 83  118 112 92  117 112 86  66  59  32  92  83  54  85  77  45  117 109 71  52  43  0   65  56  2   108 100 39  120 112 47  102 95  27  98  89  21  101 90  28  108 97  37  73  61  4   133 122 64  102 91  31  68  58  0   91  81  18  135 125 65  127 116 58  99  88  33  102 89  41  99  87  39  96  84  29  94  82  25  108 96  41  117 104 56  73  61  22  34  24  0   55  47  11  84  77  45  84  79  56  53  46  30  100 93  77  168 161 148 233 226 215 246 241 231 241 236 224 248 243 231 248 243 231 241 236 226 246 241 231 246 241 231 246 241 231 246 241 231 245 239 230 245 239 230 245 239 230 245 239 230 246 241 231 246 241 231 246 241 231 246 241 231 246 241 229 246 241 229 246 241 229 246 241 229 245 240 228 245 239 230 245 239 230 245 239 230 245 239 230 245 239 230 245 239 230 245 239 230 246 241 231 246 240 233 246 240 233 245 239 232 246 240 233 245 239 232 246 240 233 246 240 233 246 241 231 246 241 231 246 241 231 246 241 231 246 241 231 246 241 231 246 241 231 246 241 231 242 237 227 249 244 236 249 244 236 242 237 227 245 237 229 255 248 237 231 224 213 185 177 166 116 108 99  145 138 126 134 129 108 91  87  59  58  52  20  48  42  7   38  32  0   72  67  30  85  80  39  79  74  33  72  67  26  67  63  19  67  60  17  66  62  18  66  62  18  66  62  20  65  58  18  67  58  18  99  87  48  82  67  31  82  66  39  144 131 113 112 102 94  151 142 138 236 231 224 234 230 222 238 235 227 242 239 231 236 233 225 242 239 231 237 236 227 226 225 217 225 224 215 223 222 215 217 217 213 211 212 207 211 212 207 210 210 206 214 217 209 223 226 221 207 209 208 79  80  77  95  92  82  117 113 94  62  58  30  66  62  27  76  73  36  37  34  0   53  50  14  44  41  3   67  65  22  55  53  11  62  59  24  56  53  18  51  48  8   70  68  26  80  78  33  80  79  29  89  88  36  89  88  36  62  58  11  52  48  6   45  39  5   34  27  0   60  52  16  61  51  14  75  66  24  78  69  22  87  79  27  91  82  26  108 100 39  113 105 42  132 124 56  95  88  20  123 115 52  126 115 57  133 115 60  131 113 53  134 118 53  148 134 66  152 141 70  111 100 29  131 120 49  140 131 59  159 150 78  145 136 64  133 124 52  124 115 45  147 138 68  152 145 79  115 107 44  151 143 84  175 165 111 118 107 58  148 137 93  120 109 63  150 143 88  87  79  29  102 93  62  147 138 118 186 179 163 255 251 236 248 245 232 251 251 237 247 247 234 247 247 234 250 248 235 250 248 235 250 247 237 250 247 237 251 248 238 251 248 238 252 249 241 252 249 241 254 250 242 254 250 242 254 250 244 254 250 244 254 250 244 252 249 241 249 244 232 218 213 199 100 93  77  114 105 79  128 119 74  114 106 45  125 115 48  124 113 44  131 120 58  132 121 61  147 136 76  137 124 65  146 133 74  135 122 62  153 140 81  130 117 58  108 95  36  99  86  26  114 101 41  141 127 68  144 129 70  117 101 40  110 98  34  125 113 47  145 134 65  131 119 53  145 132 73  140 128 75  148 132 85  166 151 106 157 141 97  173 158 113 188 175 129 156 143 100 175 161 120 144 130 89  152 136 94  132 117 72  166 151 102 176 164 111 202 190 137 154 143 87  141 127 68  120 107 45  163 148 87  167 150 87  150 132 70  150 130 69  136 116 55  
107 108 42  132 134 65  84  87  25  86  89  40  151 153 116 210 206 185 200 199 167 214 214 157 210 213 139 207 210 134 191 195 130 211 210 174 193 193 164 189 192 148 218 220 167 214 214 155 190 191 132 200 197 144 181 178 127 183 180 128 216 213 166 212 210 170 217 213 185 213 209 194 223 216 212 221 218 210 215 212 204 221 218 210 221 218 210 222 219 211 222 219 211 222 219 211 222 219 211 222 218 213 222 218 213 223 220 214 223 220 214 224 221 215 223 220 212 223 220 210 226 223 212 227 224 213 230 225 209 220 218 187 219 218 180 209 208 167 195 194 153 228 227 193 232 230 197 224 222 179 231 230 180 208 206 152 179 177 119 197 195 136 225 222 168 211 204 165 143 136 96  165 156 100 112 103 42  136 129 74  112 108 61  155 153 122 174 174 147 127 126 92  176 175 141 224 222 193 234 232 212 231 230 223 227 225 224 226 227 222 227 228 221 230 229 220 229 228 217 230 227 217 232 227 215 231 226 212 224 220 203 230 226 207 100 97  75  70  65  42  95  90  64  46  41  15  32  27  0   30  24  0   51  45  13  36  30  0   47  39  5   64  56  22  88  80  44  92  86  42  49  43  0   91  79  42  62  47  13  41  27  0   60  43  8   48  28  0   54  38  0   60  47  0   78  67  14  106 90  47  59  45  4   58  47  5   63  56  15  123 117 83  206 201 164 229 226 175 188 187 128 205 204 138 221 219 163 227 221 189 228 221 196 200 195 158 209 207 153 195 196 121 190 190 115 213 209 161 187 181 151 223 215 195 246 237 221 237 229 211 226 218 198 222 214 192 228 221 194 228 221 192 229 223 191 235 230 193 234 228 192 232 229 196 235 230 204 237 230 214 237 230 214 237 232 208 236 230 209 236 229 215 237 230 218 240 230 220 240 230 220 244 235 224 253 244 217 211 205 146 166 162 90  216 210 150 203 197 138 147 143 70  213 210 129 188 186 102 164 162 76  201 201 112 219 220 133 188 187 108 206 207 129 200 202 122 204 204 133 218 218 166 238 235 199 244 238 217 240 234 220 235 231 216 231 226 212 227 223 206 226 221 198 186 183 145 229 225 183 239 230 199 238 229 189 230 225 158 174 172 88  200 199 106 200 200 100 200 201 98  200 199 106 215 212 142 237 231 181 249 244 207 212 206 174 138 135 95  98  96  54  114 110 66  106 102 57  67  63  19  58  53  12  43  36  0   65  57  24  58  50  17  52  47  10  65  62  20  70  70  27  96  93  57  166 162 120 90  86  26  79  74  5   84  77  8   98  91  22  99  92  24  86  78  15  126 114 61  106 95  40  123 113 44  135 124 50  153 139 68  154 138 71  131 113 44  149 128 62  152 128 68  145 115 59  122 88  36  109 72  20  107 67  19  132 92  45  170 130 82  155 118 67  128 95  42  149 120 64  164 137 78  162 135 76  132 108 46  158 134 69  145 123 58  131 113 46  145 129 61  142 128 60  146 135 66  162 150 79  138 127 56  113 104 34  119 114 52  95  92  43  52  48  15  123 122 102 221 218 210 219 218 214 219 218 212 219 218 212 219 218 212 220 219 213 222 220 216 222 220 216 222 220 216 222 220 216 223 221 217 223 221 217 224 222 218 224 222 218 226 224 223 223 221 219 227 225 224 195 193 180 108 104 69  99  95  48  58  54  10  55  50  8   70  65  25  59  54  17  38  34  0   36  31  3   34  29  8   42  38  12  116 112 70  115 112 61  119 114 61  118 112 62  110 102 53  145 137 88  143 133 82  149 139 88  138 130 81  151 143 93  142 134 82  126 119 65  135 128 71  110 103 47  128 120 68  137 129 77  129 121 69  121 113 63  124 115 71  130 121 78  132 123 81  112 106 60  76  75  27  98  99  60  206 204 184 220 217 204 227 224 211 226 223 212 226 222 214 226 222 214 226 223 212 226 223 210 226 223 210 226 223 210 227 224 211 227 224 211 227 224 211 225 225 211 233 233 222 225 225 211 241 239 221 128 125 101 82  78  47  108 102 68  57  49  17  56  47  18  53  47  17  45  39  9   69  62  32  52  46  16  62  55  25  70  64  31  56  53  18  62  59  22  74  71  33  69  66  29  54  51  13  62  59  24  82  79  43  89  86  50  95  92  54  41  39  0   63  58  14  66  62  16  69  65  18  58  55  6   47  46  0   73  71  24  72  70  25  87  85  42  40  40  0   74  76  35  79  81  37  58  61  16  50  52  10  63  64  25  107 108 71  63  64  25  81  84  40  63  63  22  76  73  38  114 109 72  111 104 61  89  82  30  80  72  13  122 114 55  85  75  22  72  62  11  81  68  20  97  82  37  121 102 65  104 83  45  127 108 62  120 101 55  86  68  28  60  44  13  29  14  0   33  20  6   52  42  18  102 95  68  100 95  69  224 218 198 243 236 222 218 211 202 183 178 168 221 216 206 248 243 233 243 238 229 247 244 233 243 240 230 243 241 228 244 242 229 244 242 229 244 242 229 254 251 238 242 239 227 243 242 231 247 247 236 246 246 234 253 253 241 253 253 239 185 182 170 70  66  51  79  75  58  122 119 97  117 112 86  114 109 81  48  41  13  96  89  64  88  78  52  48  40  6   55  46  4   59  52  0   99  92  35  88  80  30  83  72  23  79  69  18  91  81  28  126 114 63  130 117 69  73  60  14  67  54  8   45  30  0   93  79  24  122 109 47  81  68  9   64  49  1   96  81  36  95  81  27  97  84  25  102 91  33  82  70  19  122 111 69  62  53  15  37  27  0   96  88  54  99  89  65  87  79  57  74  67  40  78  70  46  114 105 90  187 180 168 231 224 211 236 229 213 252 247 233 245 240 228 247 242 232 246 241 231 245 239 230 245 239 230 240 235 223 241 236 224 246 241 229 252 247 235 241 236 224 242 237 225 245 240 228 246 241 229 246 241 229 246 241 229 245 240 228 243 239 227 250 246 234 246 241 229 239 234 222 234 229 217 239 234 222 240 235 223 242 237 225 243 239 227 245 239 232 245 239 234 245 239 234 245 239 234 243 237 233 245 239 234 246 240 235 248 242 235 248 243 233 246 241 231 245 239 230 245 239 230 250 242 231 249 241 230 249 241 230 249 241 230 253 248 236 245 239 230 245 239 230 245 240 228 239 233 217 194 188 169 151 145 122 131 126 100 138 133 107 108 103 75  81  77  46  65  61  26  69  63  26  63  57  20  66  61  24  77  72  32  64  59  20  70  65  25  76  71  31  76  71  29  63  58  16  71  66  25  78  73  32  81  74  33  82  73  33  107 95  56  104 90  51  64  49  16  128 114 89  145 132 116 114 103 100 201 192 192 240 234 227 235 232 222 237 234 224 243 240 230 245 242 234 241 237 229 233 232 224 230 229 220 225 224 215 226 225 219 227 228 223 201 202 197 206 206 204 220 221 216 220 221 214 231 232 224 168 168 168 60  58  54  102 95  79  103 96  71  86  78  45  83  75  39  83  77  40  59  55  20  62  59  24  70  69  33  51  51  12  61  60  22  60  57  19  42  39  2   56  53  16  49  47  7   56  54  12  56  54  12  63  62  17  73  71  26  81  77  33  71  66  25  55  50  10  41  33  0   66  55  22  59  47  12  70  58  19  94  84  37  123 114 60  81  70  10  90  80  15  104 94  27  125 115 50  130 120 55  143 135 72  149 139 79  148 132 74  160 142 82  162 145 83  140 125 60  150 137 66  104 91  18  131 117 44  128 117 43  135 124 50  156 145 71  129 118 44  136 125 51  126 118 43  146 137 65  126 117 49  132 122 59  177 168 112 156 146 97  98  87  43  98  87  43  123 113 64  92  83  36  101 91  55  141 132 105 137 129 109 247 241 227 250 245 236 255 254 244 249 246 236 249 246 236 250 247 237 251 248 238 255 253 243 249 246 236 249 246 236 255 253 243 255 251 243 255 251 245 255 251 245 254 250 244 254 250 244 252 249 243 250 248 242 250 247 239 252 250 237 240 236 219 147 141 123 95  85  61  118 107 77  105 93  52  145 134 76  133 123 60  138 125 66  130 117 58  138 125 66  161 145 87  149 133 77  147 131 75  115 99  43  141 125 69  135 119 63  132 116 60  159 141 85  144 125 70  153 135 79  112 94  39  109 90  35  133 115 58  137 122 63  108 93  34  113 99  42  106 92  37  151 137 85  193 179 127 146 132 80  164 150 97  169 158 102 167 155 104 201 187 146 175 161 122 175 161 122 152 138 95  144 132 77  153 142 84  170 158 106 181 169 116 156 143 81  144 132 68  153 137 79  158 139 86  158 137 85  163 140 86  176 154 95  
129 130 66  114 115 49  89  92  29  80  82  29  133 133 92  209 206 180 218 215 182 203 204 142 194 197 121 176 180 103 207 209 140 199 197 148 188 186 141 202 201 149 207 207 148 183 185 121 201 201 144 214 209 170 223 218 181 176 173 121 184 181 127 199 197 148 217 214 178 216 211 195 221 216 208 221 216 208 217 214 206 222 219 211 222 219 211 222 219 211 222 219 211 222 219 211 222 219 211 222 218 213 222 218 213 223 220 214 223 220 214 223 220 214 224 221 213 224 222 209 223 221 206 220 215 203 217 213 192 228 228 189 227 228 180 219 218 173 207 204 164 225 222 187 217 214 176 202 201 153 216 214 160 209 207 151 191 189 132 205 202 148 220 216 172 234 226 194 186 176 140 185 176 118 194 187 119 142 136 74  137 135 81  196 196 151 219 219 176 209 210 157 204 203 154 180 176 143 214 211 191 233 229 223 240 238 237 240 239 231 231 231 219 230 229 218 230 227 217 232 227 215 232 227 213 231 227 208 224 220 199 233 230 206 103 100 74  68  64  35  96  91  63  47  43  13  31  27  0   41  34  2   58  52  20  39  34  0   48  42  5   96  89  46  169 164 113 179 177 119 150 145 92  144 133 91  111 96  60  158 143 105 80  66  25  54  38  0   90  75  30  105 93  40  57  46  0   72  56  16  54  40  1   55  43  4   82  73  33  168 161 122 187 183 139 230 229 168 198 197 129 184 184 111 228 227 166 209 204 169 229 222 195 241 235 199 239 236 182 199 200 124 197 197 122 190 187 135 239 232 200 229 221 199 235 227 209 246 237 219 240 231 214 236 228 206 236 229 202 237 232 195 229 225 179 214 212 156 213 210 157 226 225 180 231 227 194 236 230 211 240 234 218 243 237 216 243 237 216 243 236 222 243 235 224 229 220 207 242 232 222 249 239 231 247 237 215 221 213 163 188 182 123 234 226 176 231 224 172 189 185 116 218 215 137 204 202 121 160 158 74  182 182 98  202 201 120 173 175 95  211 212 132 209 212 127 209 211 133 214 214 157 222 219 179 233 228 205 245 238 225 242 238 223 227 222 210 224 219 207 225 221 202 229 225 190 241 237 193 237 230 185 230 224 164 195 193 109 194 194 98  182 182 86  236 236 138 210 211 108 214 213 118 228 227 150 199 196 133 206 202 146 159 156 107 144 140 94  115 113 68  122 118 74  67  63  19  44  39  0   57  52  13  52  44  8   62  54  18  43  36  0   86  81  42  105 103 63  94  94  53  155 152 115 170 166 119 162 159 92  188 184 110 112 104 40  77  68  10  66  58  0   86  77  23  105 92  48  76  63  19  114 103 46  116 106 41  151 139 75  167 151 91  113 96  36  94  74  17  107 84  31  137 111 58  137 106 55  145 112 62  139 103 54  141 104 55  167 130 79  165 127 76  147 112 60  134 101 48  123 91  38  124 92  37  126 97  40  147 123 65  124 102 41  120 100 38  171 153 91  165 148 85  140 125 62  149 136 72  144 132 66  138 127 65  142 135 80  128 124 80  67  63  32  117 113 94  224 221 213 216 214 210 219 218 212 219 218 212 219 218 212 220 219 213 222 220 216 222 220 216 222 220 216 222 220 216 222 220 216 222 220 216 223 221 217 223 221 217 226 224 223 223 221 219 227 225 224 195 193 180 105 102 69  98  93  51  59  55  13  58  53  14  59  54  17  50  44  10  27  24  0   29  24  0   18  12  0   56  52  26  130 126 82  98  95  41  100 95  42  114 109 58  96  88  39  99  91  41  132 122 70  116 107 55  105 98  46  122 114 62  111 104 52  82  75  23  102 95  42  124 117 63  103 96  40  123 116 59  117 110 56  114 107 52  129 121 69  118 110 63  142 133 88  103 99  55  83  83  40  131 132 98  223 222 204 214 211 201 226 223 212 226 223 212 226 222 216 226 222 216 226 223 212 226 223 210 226 223 210 226 223 210 227 224 211 227 224 211 225 225 211 225 225 213 230 229 220 228 225 213 227 223 204 109 104 78  87  81  49  99  93  59  69  60  29  64  56  24  62  55  23  59  53  21  55  48  16  41  34  2   43  37  5   91  84  52  82  78  45  45  41  8   67  63  32  74  70  39  67  63  30  47  44  8   51  47  12  55  52  15  83  81  41  110 108 65  85  81  36  46  43  0   50  46  0   84  79  35  45  43  0   77  75  35  83  80  43  42  39  4   42  41  3   63  65  23  80  82  41  74  76  35  73  75  36  56  61  20  68  72  32  49  50  11  74  76  35  75  74  34  105 103 63  100 95  56  90  81  41  74  63  21  86  75  29  83  72  23  90  79  30  79  69  20  111 98  52  74  59  14  84  65  26  91  71  30  109 89  43  89  71  25  53  37  0   56  40  12  52  37  21  46  32  19  60  49  28  107 98  72  100 93  66  153 148 125 243 236 222 255 251 243 196 190 181 175 170 160 228 223 213 234 229 217 238 233 221 248 246 230 244 243 225 243 241 224 242 240 223 242 240 223 247 244 229 245 243 230 254 251 240 228 225 215 252 250 237 244 242 229 245 243 230 222 220 205 91  86  72  60  53  37  117 111 92  122 116 95  133 128 105 66  58  36  105 96  76  55  44  25  35  26  0   71  60  25  128 119 74  80  72  24  51  41  1   65  53  14  95  85  38  127 115 65  113 101 51  96  83  37  59  44  6   66  49  12  88  73  28  117 103 49  125 113 49  120 105 42  119 101 55  92  74  30  90  74  18  117 101 40  104 92  30  100 86  31  116 101 56  101 87  46  89  75  32  85  71  33  71  58  28  100 88  60  105 97  63  100 94  62  73  67  44  84  78  60  111 106 83  199 196 172 246 242 223 240 236 221 240 235 225 241 236 226 245 239 230 246 241 231 247 242 232 239 234 222 242 237 225 253 248 236 248 243 231 245 240 228 241 236 224 239 234 222 240 235 223 242 237 225 247 242 230 249 244 232 238 233 219 240 236 221 245 240 226 247 242 230 250 246 234 248 243 231 245 240 228 241 236 226 245 239 234 245 239 234 245 239 234 245 239 234 249 243 238 247 241 236 245 239 234 242 237 229 234 229 219 239 234 224 245 239 230 247 242 232 246 239 228 247 240 229 250 242 231 252 245 234 238 233 221 246 241 229 241 237 222 209 204 188 162 157 136 116 111 85  127 123 95  143 139 106 87  83  48  69  66  31  56  53  16  65  62  24  80  75  36  76  71  31  72  67  28  73  68  29  77  72  32  57  52  13  59  54  15  79  74  35  80  76  34  72  67  26  72  67  26  82  75  32  104 93  48  96  82  41  94  79  41  90  77  45  128 115 92  134 123 108 150 142 135 223 216 214 236 233 225 234 231 220 236 233 223 241 238 227 236 233 225 236 233 225 234 234 225 234 234 225 229 228 219 220 219 213 214 215 210 208 209 204 193 194 191 205 206 201 214 215 208 227 228 221 116 117 114 58  54  49  121 113 93  101 89  61  91  79  42  90  81  43  77  69  33  78  72  38  53  49  16  47  45  12  47  45  12  43  42  8   49  46  13  48  45  12  47  43  10  58  54  19  60  57  17  62  60  20  73  70  30  84  82  40  73  69  27  70  65  23  60  56  14  54  46  8   67  57  22  54  44  9   59  48  8   77  66  22  116 107 55  101 92  36  115 107 46  123 112 50  111 100 40  121 110 53  106 96  36  141 131 70  149 134 73  143 125 65  147 130 68  125 110 45  124 113 42  120 109 35  103 93  19  138 129 55  138 129 55  160 152 77  146 138 63  127 119 44  132 126 48  140 134 58  144 138 67  135 127 64  161 155 98  144 136 86  101 92  49  135 126 83  110 102 55  95  87  39  88  81  40  134 128 95  118 113 90  216 211 195 242 239 227 255 252 241 249 246 236 250 247 237 251 248 238 251 248 238 249 246 236 247 244 233 247 244 233 249 246 236 252 249 241 252 249 243 252 249 243 252 249 243 254 250 244 254 250 244 251 250 243 250 249 240 255 255 242 252 248 231 201 195 174 93  83  62  122 110 86  98  85  53  141 129 81  111 100 42  132 119 60  137 124 63  127 112 51  150 135 74  141 125 67  124 106 48  126 108 51  127 109 52  138 120 62  148 127 70  166 146 89  141 120 63  142 121 67  124 100 47  125 102 48  142 121 67  143 124 69  146 130 74  137 124 67  152 139 82  155 141 84  164 150 93  192 178 121 181 168 109 151 138 77  158 144 88  182 167 122 156 139 101 168 152 114 151 138 92  142 131 74  147 136 76  158 146 93  206 195 142 170 157 97  148 134 75  181 164 113 161 142 94  156 134 85  161 137 86  160 135 80  
140 138 77  113 111 50  90  91  29  109 109 50  125 125 72  167 164 126 202 199 161 204 201 149 144 142 84  195 193 137 199 197 139 194 193 130 221 220 155 191 190 124 232 230 167 198 196 135 211 208 156 212 205 176 237 231 199 191 188 134 174 173 110 204 205 143 199 197 148 221 215 192 219 212 201 218 213 201 223 217 208 224 218 209 224 218 209 224 218 211 224 218 211 222 219 211 222 219 211 222 219 211 222 219 211 223 220 212 223 220 212 223 220 212 223 220 210 225 220 208 227 223 206 232 229 207 235 234 202 226 225 180 217 216 166 194 192 145 171 168 126 206 203 165 209 204 167 198 194 149 207 203 157 223 216 171 217 210 169 223 218 183 226 220 187 224 215 186 179 169 131 115 107 48  114 107 39  129 123 59  141 140 74  209 211 144 194 197 123 164 166 83  169 169 98  161 156 116 235 228 210 234 229 219 223 220 212 223 221 206 233 231 213 231 229 216 231 229 216 233 229 214 233 229 210 234 231 207 228 226 197 236 235 203 107 106 72  77  74  41  89  85  52  40  36  4   39  35  2   34  28  0   38  32  0   36  30  0   79  75  31  175 172 107 189 188 111 202 204 126 238 236 164 160 154 93  168 159 102 187 178 122 182 171 111 160 148 86  135 122 60  50  39  0   57  45  0   100 83  46  56  42  6   85  74  32  109 100 55  110 103 58  85  81  25  112 112 39  197 198 120 202 202 134 236 234 178 215 210 173 216 210 180 218 211 179 168 163 119 190 188 127 227 225 166 212 206 169 235 228 201 237 230 203 237 230 203 239 231 208 240 232 212 236 228 210 229 222 195 237 233 189 223 222 161 191 192 112 198 199 121 211 211 154 226 223 186 235 228 210 242 234 223 233 226 215 233 226 215 233 226 215 233 227 213 242 233 218 233 223 211 234 223 220 245 233 221 229 219 181 199 191 141 216 209 157 217 211 150 187 183 109 208 205 126 211 208 130 179 176 97  209 208 126 230 229 147 205 206 130 191 190 122 218 216 155 222 219 168 223 221 178 221 217 184 229 223 200 244 237 221 245 240 226 232 227 215 245 239 230 246 242 221 238 237 189 178 178 109 188 189 99  204 206 100 189 192 79  216 218 108 197 197 100 181 181 85  203 204 103 209 209 113 234 231 148 202 199 120 199 199 117 212 210 138 168 164 115 96  91  54  74  69  34  48  42  7   74  69  32  70  64  27  54  46  8   54  47  6   91  84  41  91  86  42  76  73  36  156 156 117 125 123 80  133 130 74  206 205 128 204 201 125 134 124 71  101 90  48  74  63  23  69  56  20  85  70  39  53  38  4   88  74  33  87  73  28  61  48  2   110 97  49  114 99  49  164 147 98  144 123 73  150 126 78  145 119 69  143 117 64  127 99  47  154 126 72  176 146 93  142 112 59  143 110 60  139 107 56  145 112 62  168 136 83  152 122 68  142 116 61  121 99  42  141 120 63  160 142 86  165 146 91  149 133 77  137 122 65  115 100 41  130 116 62  118 110 61  114 109 70  79  74  46  108 105 85  209 206 196 210 209 202 219 218 212 219 218 212 219 218 212 220 219 213 222 220 214 222 220 214 222 220 214 222 220 214 222 220 216 222 220 216 222 220 216 222 220 216 226 225 221 223 221 217 227 226 222 195 193 180 102 97  69  96  91  54  60  55  20  60  54  22  57  50  21  56  49  22  37  32  4   30  24  1   33  27  9   42  38  12  108 104 58  92  90  33  93  89  33  110 105 52  93  85  35  96  88  39  89  82  30  117 110 56  126 119 65  97  92  37  106 102 46  120 116 60  131 126 71  119 115 57  117 112 55  114 110 52  110 105 48  98  93  38  134 129 76  110 104 56  131 124 79  80  76  32  79  81  41  172 174 146 231 231 217 210 209 202 217 216 207 225 224 215 223 222 215 223 222 215 224 224 212 224 224 210 224 224 210 224 224 210 227 224 211 227 224 211 225 225 211 225 225 213 233 232 224 238 236 223 197 193 174 95  90  64  102 96  64  87  81  47  72  64  33  53  44  13  77  70  40  69  62  32  52  46  12  71  65  31  45  39  5   57  51  17  44  39  9   48  44  16  44  38  15  55  50  27  84  80  52  74  70  37  62  59  22  68  65  25  73  71  28  82  80  35  98  93  49  64  60  16  25  20  0   69  63  28  74  68  38  86  79  52  51  45  22  54  49  24  72  67  37  47  45  12  50  48  17  61  59  28  69  67  34  37  38  1   36  38  0   66  69  23  63  63  22  84  84  43  115 112 70  89  82  41  75  65  28  64  51  17  83  67  38  55  39  10  70  56  18  81  67  24  121 108 65  106 90  45  83  66  17  78  61  14  78  60  18  70  53  15  33  16  0   48  32  6   52  37  19  32  19  3   19  9   0   57  48  22  95  88  61  126 121 96  238 232 216 233 226 215 255 253 242 225 218 207 214 206 195 250 243 229 246 240 224 191 188 166 211 208 182 223 220 192 240 237 211 252 249 225 255 254 235 241 237 222 242 237 225 254 249 237 246 241 227 255 252 235 255 255 237 252 246 228 144 137 121 64  55  42  99  89  77  105 95  83  121 112 97  89  78  61  48  37  20  90  77  59  95  83  60  65  52  22  115 103 66  99  87  48  58  47  5   61  49  5   87  74  24  118 106 53  150 136 83  118 104 54  110 94  52  94  76  34  131 113 65  128 112 56  121 106 43  124 107 44  120 101 51  80  60  12  104 86  31  132 115 52  129 110 46  94  75  13  95  74  22  127 108 60  108 89  38  109 89  41  90  69  31  104 87  54  94  89  52  67  69  32  65  66  33  82  83  51  72  73  36  100 101 66  110 110 85  150 148 133 216 213 203 234 230 222 249 246 238 243 240 232 248 242 235 246 241 231 243 238 229 245 239 230 239 234 224 241 236 226 246 241 229 248 243 231 249 244 232 247 242 230 242 239 227 238 236 223 245 243 230 242 239 227 238 236 223 236 233 223 233 230 219 235 232 222 240 237 226 242 239 229 243 240 232 243 240 232 243 240 232 243 240 232 249 244 236 247 241 234 245 239 232 242 237 229 255 250 240 250 245 236 241 236 226 235 230 220 247 240 231 249 241 232 246 239 230 244 237 225 234 229 217 182 177 163 151 148 129 132 129 105 155 150 125 140 136 108 114 109 79  59  55  22  62  59  24  66  63  25  65  62  24  59  56  16  78  73  34  78  73  32  76  71  29  70  65  23  72  67  26  56  51  9   59  55  13  79  74  33  72  67  26  80  76  32  82  75  32  74  67  22  112 101 53  125 114 67  91  79  42  83  69  40  142 132 111 140 131 113 173 166 152 232 227 215 235 232 222 234 231 220 234 231 220 238 236 225 234 230 222 234 230 222 232 231 222 232 231 222 229 228 219 218 217 211 206 207 202 210 210 206 207 208 205 218 219 214 226 227 220 215 217 209 90  90  86  78  75  64  109 102 79  80  69  36  92  80  43  83  74  34  61  53  17  74  68  36  62  58  30  51  49  22  60  57  31  49  47  20  38  33  7   46  41  15  45  40  14  63  59  29  47  45  4   47  45  2   54  52  9   65  63  18  64  60  16  72  68  24  73  69  25  59  55  13  56  51  11  46  41  2   55  50  8   76  72  25  72  69  20  71  68  16  77  74  22  79  71  19  103 91  40  124 110 60  88  76  23  134 120 63  155 140 79  146 129 66  160 146 77  125 114 43  85  78  8   124 120 48  97  93  22  147 145 73  123 121 48  120 118 46  111 109 37  125 123 49  125 124 45  147 148 68  164 164 91  130 129 66  155 152 98  152 148 104 103 98  61  112 106 69  73  69  23  50  46  0   63  61  19  89  88  52  118 118 91  144 145 124 240 243 226 255 255 247 250 247 237 251 248 238 251 248 238 251 248 238 254 251 240 255 253 243 255 253 243 255 252 241 255 253 245 255 254 246 255 254 246 255 254 246 255 253 245 255 253 245 253 252 243 252 251 242 248 245 232 255 251 236 238 232 214 98  90  67  117 105 84  127 113 84  147 134 88  131 119 64  145 134 72  152 140 74  134 120 54  146 131 66  138 121 58  129 111 49  137 118 56  133 113 51  153 134 72  147 127 65  154 132 71  141 119 58  139 116 58  124 99  42  123 98  40  146 123 65  139 122 61  146 134 72  90  78  16  129 116 54  142 127 66  137 122 61  148 133 72  135 120 57  153 138 73  169 154 93  177 160 109 151 134 90  171 153 109 161 144 93  149 136 74  145 134 72  148 137 81  188 176 125 153 141 88  149 134 82  199 181 137 167 147 103 165 144 92  159 136 80  159 135 75  
117 113 51  126 123 60  113 112 48  133 132 64  114 112 51  119 115 68  178 173 132 197 192 148 181 178 129 219 216 160 216 215 152 202 203 128 180 181 106 205 204 136 226 224 163 222 220 164 233 229 180 230 225 190 222 217 180 219 216 162 162 160 99  197 195 136 215 213 166 223 218 190 216 209 193 216 209 195 224 219 205 224 219 207 224 218 209 224 218 211 224 218 211 222 219 211 222 219 211 222 219 211 222 219 211 223 220 212 223 220 212 223 220 212 226 221 211 226 221 211 225 220 206 224 220 199 224 220 189 202 199 159 211 210 163 216 214 169 214 211 171 184 177 148 212 205 176 212 206 171 208 203 166 230 221 188 237 228 197 247 239 214 240 232 212 213 203 182 215 207 171 166 161 94  146 143 64  162 161 86  134 133 58  166 168 88  198 198 114 173 171 83  186 182 108 185 178 140 234 226 206 236 229 213 238 234 217 238 234 213 233 231 211 231 229 216 231 229 218 233 228 216 233 229 212 235 232 210 230 227 203 238 236 207 108 107 75  89  85  52  76  73  38  27  24  0   51  47  12  59  53  19  53  48  13  78  72  38  169 165 116 157 156 79  191 192 101 204 207 115 167 168 79  196 194 113 159 154 78  55  48  0   135 129 56  179 172 88  211 204 122 132 124 58  94  85  31  126 113 67  120 107 62  120 110 57  115 108 51  84  79  24  91  88  25  116 118 38  191 193 110 133 133 62  107 105 47  165 161 117 212 207 167 199 195 151 202 199 150 215 213 155 211 208 154 230 224 192 241 234 209 230 224 192 234 228 194 219 213 180 226 219 192 222 214 194 209 202 177 229 225 179 215 215 149 177 179 96  195 197 117 192 190 134 222 216 182 236 228 210 244 235 224 242 232 224 242 233 220 242 234 214 242 235 210 212 204 180 228 220 202 247 236 231 255 246 236 227 219 187 192 183 136 177 170 111 179 175 103 195 193 107 231 229 143 214 211 132 206 202 126 196 196 114 203 203 121 235 236 158 222 222 156 222 219 170 235 230 191 240 237 202 236 231 203 232 227 206 237 230 214 240 233 222 242 237 227 235 230 220 228 225 203 218 216 172 163 163 92  174 177 75  187 190 75  174 177 60  178 180 70  184 183 88  211 211 118 192 192 92  192 192 92  230 229 136 158 157 66  163 165 71  178 178 96  96  94  40  51  46  9   50  44  12  56  50  17  50  44  12  53  44  11  82  74  36  136 130 87  162 156 108 109 102 57  105 102 65  178 178 137 61  60  8   109 109 41  166 166 79  186 181 101 163 153 100 79  67  30  41  28  0   70  57  25  104 89  53  77  63  25  83  68  32  85  73  36  77  64  30  113 100 66  85  71  33  127 110 70  79  58  17  68  48  5   121 99  54  143 121 74  116 95  45  101 80  28  128 107 55  143 120 71  172 143 96  141 110 64  119 88  42  118 89  42  122 95  47  99  75  26  119 97  47  132 113 65  121 104 55  104 87  38  119 102 53  121 104 55  112 95  46  137 122 77  110 101 59  106 100 64  100 95  67  128 125 105 208 206 193 226 225 217 219 218 212 219 218 212 219 218 212 220 219 213 222 220 214 222 220 214 222 220 214 222 220 214 222 220 214 222 220 216 222 220 216 222 220 216 226 225 221 223 221 217 227 226 222 195 193 180 100 95  69  95  89  57  62  55  25  64  57  30  46  39  14  51  43  21  33  28  5   25  19  0   29  22  4   29  24  0   106 102 55  116 114 58  128 124 68  111 106 53  83  76  26  103 95  46  92  84  32  97  92  37  105 100 45  82  77  22  104 99  44  120 116 60  128 124 68  130 125 69  146 141 86  106 102 46  103 98  43  103 98  45  142 137 86  113 109 62  110 106 62  56  54  14  95  96  62  194 198 174 217 218 208 212 213 208 211 210 202 224 223 214 224 223 216 223 222 215 224 224 212 224 224 210 224 224 210 224 224 210 227 224 211 227 224 211 225 225 211 225 225 213 225 224 215 233 230 217 148 144 125 80  75  49  116 110 78  89  84  49  96  87  56  71  62  33  65  58  31  59  53  23  52  46  12  99  93  57  96  91  54  59  53  19  30  26  0   52  47  21  121 115 94  160 154 134 95  90  64  73  69  38  62  59  22  102 100 57  44  42  0   69  68  21  99  95  48  83  78  34  83  78  36  63  57  20  55  48  16  73  66  39  54  49  24  30  25  0   45  42  4   49  46  9   38  34  1   33  29  0   47  43  13  55  52  17  35  35  0   44  45  0   77  77  34  115 112 70  128 124 78  110 103 58  75  66  26  66  54  19  70  54  30  52  35  11  78  63  30  77  63  25  52  37  0   78  65  22  89  75  25  99  84  34  77  63  25  47  32  0   35  20  0   37  23  0   45  32  12  29  15  0   22  12  0   62  52  28  99  92  63  90  85  60  221 214 198 251 244 232 243 235 224 251 244 232 196 189 178 145 138 124 192 185 169 223 217 196 171 166 136 182 178 146 197 193 163 208 203 177 254 248 230 255 249 235 245 237 229 254 247 236 207 201 182 208 202 179 209 204 176 215 210 182 186 179 154 73  65  45  74  65  52  124 112 102 95  82  73  116 104 92  10  0   0   92  82  60  142 130 102 114 103 70  121 109 72  125 113 73  87  76  34  62  51  7   58  48  0   80  68  15  121 106 54  99  84  34  118 103 60  82  63  22  92  75  24  83  67  9   98  83  20  96  81  17  97  78  26  80  61  10  117 99  41  106 86  24  140 121 54  100 79  15  104 81  25  133 110 56  111 88  30  121 98  45  86  62  16  66  48  9   78  71  32  51  48  10  73  69  34  70  68  28  96  94  49  87  85  42  70  66  36  58  52  31  64  60  45  124 121 111 192 189 179 230 227 217 245 239 230 255 250 238 250 246 234 234 229 217 246 241 229 245 240 228 242 237 225 242 237 225 242 237 225 243 239 227 244 242 229 247 242 228 247 242 228 246 240 224 240 236 221 238 233 219 247 241 227 246 239 226 245 238 225 243 239 227 243 238 229 243 240 232 243 240 232 242 239 231 243 238 231 245 239 232 247 241 234 249 244 234 235 230 220 238 232 223 241 236 226 248 243 233 255 254 245 240 233 224 209 201 193 186 178 167 151 147 131 132 128 107 139 137 108 119 116 83  114 110 75  97  94  59  101 97  62  72  68  35  69  66  31  74  71  35  69  66  29  58  55  17  60  55  18  71  66  27  74  69  30  69  64  24  51  46  7   64  59  20  74  69  30  76  71  31  66  61  22  67  63  21  76  69  28  84  77  34  119 111 64  117 108 64  83  73  38  109 97  72  142 134 114 143 137 118 214 211 191 228 226 209 234 231 218 231 229 218 231 229 218 234 231 220 238 235 227 234 230 222 227 227 218 223 222 213 222 221 212 222 221 212 204 205 200 206 207 202 201 202 199 214 215 210 210 211 204 164 166 156 82  83  75  106 103 90  94  87  62  57  46  13  80  68  31  62  53  15  49  41  7   56  49  19  47  42  17  42  40  13  41  38  12  37  35  8   32  27  1   38  33  7   48  43  18  65  60  30  65  62  24  59  57  14  59  57  14  63  61  19  60  56  14  83  78  36  83  78  36  62  57  15  69  64  22  53  49  7   53  49  7   70  65  23  55  50  8   63  58  16  72  67  26  85  79  35  83  69  28  113 97  54  77  65  16  104 92  39  141 127 70  140 125 64  159 147 81  114 105 36  103 98  31  105 102 37  86  83  18  146 143 78  136 133 68  123 119 54  83  80  15  107 105 37  87  88  13  145 146 71  156 156 87  105 103 44  119 115 66  141 136 96  86  80  48  52  46  12  50  46  2   41  37  0   41  36  0   72  68  33  100 100 70  127 129 106 224 225 206 240 240 227 251 248 238 251 248 238 251 248 238 251 248 238 247 244 233 254 251 240 254 251 240 247 244 233 245 243 232 245 242 234 245 242 234 245 242 234 237 234 226 237 234 226 234 234 225 233 233 222 229 227 214 245 240 226 229 223 204 130 122 102 98  88  68  131 119 94  98  86  47  112 100 49  146 135 77  141 131 70  135 122 62  127 113 54  140 124 68  158 143 86  138 120 64  153 135 79  158 139 84  132 114 58  145 125 70  142 121 67  155 132 80  133 109 58  138 114 63  164 143 91  156 140 86  124 112 57  126 115 59  162 148 93  125 112 57  109 95  41  131 117 63  139 126 69  144 131 74  162 148 93  167 152 105 144 126 85  174 155 114 167 149 103 155 141 86  144 132 77  130 120 69  143 133 86  135 125 76  137 124 78  173 157 117 150 132 90  157 136 84  135 113 54  149 127 68  
108 103 34  121 115 51  85  83  15  68  66  0   83  81  11  146 141 88  212 206 162 189 181 145 195 188 143 204 202 130 191 191 109 213 213 133 159 156 86  208 203 145 226 220 172 228 223 175 211 205 157 213 208 157 190 185 134 216 210 162 174 167 124 172 167 130 216 210 178 226 219 192 216 209 186 212 207 186 223 216 200 223 218 204 223 217 208 223 217 210 223 217 210 224 218 211 224 218 211 224 218 209 224 218 209 225 220 210 225 220 210 225 220 210 225 219 212 226 218 214 225 217 211 224 217 204 223 217 196 218 211 183 230 224 192 240 235 195 241 235 203 185 176 159 221 212 199 226 218 198 229 222 197 230 220 196 240 230 206 241 230 214 234 223 211 237 228 217 230 224 192 174 176 96  200 205 103 201 205 113 182 182 96  142 139 58  183 176 103 184 175 107 189 178 122 228 216 179 234 222 194 230 221 192 225 218 190 228 222 199 233 229 212 233 227 220 233 227 222 233 227 220 233 228 218 233 228 216 227 223 208 235 231 216 106 103 81  97  93  63  76  73  38  41  38  3   45  41  6   41  35  0   45  39  5   52  46  12  134 130 81  170 171 93  194 198 104 180 185 84  153 156 52  190 191 89  157 154 60  150 145 63  190 185 100 179 175 71  126 122 21  172 167 87  169 162 93  168 158 95  191 181 116 194 188 115 189 185 112 135 133 65  114 112 42  168 168 82  153 154 65  95  93  16  111 108 41  141 137 77  162 158 98  175 172 107 192 190 120 194 192 117 199 196 133 189 181 145 219 210 183 239 231 197 219 212 173 230 223 180 220 213 174 219 209 187 227 218 194 248 244 200 221 219 161 179 179 111 207 206 143 227 223 179 213 204 178 234 224 205 246 235 220 241 230 216 223 213 189 220 213 172 203 197 151 201 193 157 232 223 196 240 231 216 223 215 197 189 181 147 190 185 134 203 201 131 204 204 118 223 226 122 218 221 120 177 177 97  183 181 109 145 144 64  145 144 62  186 188 106 195 196 125 228 225 174 235 230 193 244 238 206 246 238 213 237 229 211 237 228 217 245 237 231 240 232 226 235 231 216 227 224 202 232 228 198 206 202 154 175 174 97  149 148 55  143 140 46  154 150 58  152 148 63  125 121 31  187 187 80  217 216 105 207 208 105 173 173 75  182 182 88  191 191 109 134 132 71  89  86  39  61  53  17  57  49  17  54  45  14  104 96  62  158 148 108 161 153 108 189 181 132 127 121 73  148 142 105 73  71  28  90  92  23  183 185 100 174 173 80  187 183 96  198 188 125 131 118 70  132 120 78  113 102 58  105 96  40  112 103 45  92  81  35  58  48  10  100 88  60  136 124 98  72  60  32  64  49  18  85  67  34  90  70  36  84  65  28  94  76  36  101 85  43  67  51  9   73  57  15  84  66  24  102 79  41  85  59  23  136 111 74  141 117 80  113 92  54  82  63  24  74  58  18  99  82  42  117 101 63  95  78  41  104 85  48  137 118 82  89  70  33  95  78  43  99  86  52  97  88  57  96  91  63  138 134 113 206 204 188 225 225 213 220 220 211 220 219 213 220 219 213 220 219 213 222 220 214 222 220 214 222 220 214 222 220 214 224 223 216 219 218 212 226 225 219 222 220 214 226 225 219 223 222 215 227 226 220 195 193 180 91  86  61  83  76  46  67  60  33  37  30  5   36  28  6   31  23  3   29  22  4   19  13  0   30  26  9   38  33  7   98  97  50  102 100 44  123 117 65  121 116 63  89  81  32  94  86  36  99  94  41  116 114 60  126 123 69  114 111 58  123 121 67  129 126 73  120 117 63  110 108 54  133 130 76  93  90  37  108 105 54  93  90  41  113 109 62  111 109 66  74  71  31  58  57  21  138 139 109 215 215 197 212 211 205 209 207 203 218 217 208 220 220 211 224 223 214 226 225 217 229 226 216 229 227 214 229 227 214 229 227 214 228 225 213 228 225 213 226 226 213 226 226 215 231 230 221 223 221 208 101 98  78  81  76  50  100 94  62  71  65  31  78  70  38  50  41  13  57  48  22  75  66  37  73  67  33  50  45  8   63  57  20  65  59  25  70  66  36  157 152 126 210 204 184 188 182 161 171 169 142 68  66  35  82  79  41  56  54  12  73  71  24  44  43  0   79  78  26  49  49  0   136 135 85  101 99  52  89  85  41  37  32  0   49  44  4   59  55  11  49  46  0   73  71  17  50  46  2   52  47  8   55  49  14  43  37  3   57  52  13  55  53  9   66  67  19  127 127 75  110 108 54  77  72  19  82  74  25  64  53  11  59  44  10  72  54  24  42  27  0   59  44  8   77  65  28  123 112 72  90  79  30  124 116 69  95  85  50  53  42  12  68  57  27  52  41  13  65  53  29  48  37  18  18  7   0   31  20  0   91  84  54  83  76  48  176 166 154 237 227 221 246 238 232 246 238 232 243 233 227 176 165 160 150 140 132 197 188 172 197 190 160 193 187 155 214 207 180 198 190 168 227 218 203 255 247 237 255 252 247 242 232 222 174 167 144 123 117 85  155 150 110 179 175 133 220 215 176 130 124 92  101 93  73  158 149 136 83  73  62  82  75  64  36  30  9   44  39  11  86  83  45  78  74  30  98  94  47  116 109 64  77  70  29  82  73  33  58  48  1   104 92  41  105 93  42  116 103 57  97  83  44  50  33  0   104 90  38  95  82  23  129 117 52  102 89  28  87  71  15  111 95  39  137 122 63  106 89  27  93  76  9   128 109 43  136 116 57  135 115 56  128 109 45  162 142 80  109 88  34  104 84  39  135 118 78  68  53  17  80  65  27  83  69  28  131 119 68  118 105 57  106 94  55  94  83  52  111 106 83  85  81  62  87  84  65  117 112 96  157 153 136 191 187 170 226 222 205 250 246 230 235 231 214 242 238 221 246 242 225 243 239 225 243 239 225 242 238 223 247 242 228 252 246 230 237 226 207 222 209 189 208 195 175 203 191 170 208 195 175 227 214 193 243 230 210 246 235 216 235 228 214 242 237 227 249 244 234 249 244 234 245 239 230 242 237 227 240 235 225 240 235 225 241 236 226 243 238 231 228 223 215 196 190 183 166 158 151 136 128 121 125 117 111 136 128 117 154 149 128 127 123 93  126 124 84  101 99  52  96  93  44  91  87  40  100 95  54  65  60  23  58  52  20  72  65  36  70  63  33  59  53  23  73  67  35  73  67  35  69  62  30  60  54  22  69  62  30  59  53  21  67  61  29  87  81  49  80  74  40  63  57  22  70  62  28  93  86  50  86  79  39  74  67  26  55  46  15  133 125 100 146 140 122 155 151 132 212 210 190 218 219 200 227 227 214 227 227 218 229 226 218 229 226 218 231 228 220 227 223 215 220 220 211 216 215 206 208 207 196 217 216 207 199 200 195 200 201 198 198 198 196 208 209 204 218 219 210 164 166 156 69  70  61  130 128 115 100 93  68  73  62  31  86  74  39  52  41  8   45  36  7   44  37  12  42  38  10  48  46  17  44  42  13  41  39  10  42  38  8   47  43  13  58  53  23  62  59  26  56  53  18  51  47  12  48  45  10  49  46  11  44  39  2   74  69  32  85  79  43  54  46  10  61  51  16  51  39  2   67  55  18  102 90  55  96  86  51  101 90  57  71  60  27  64  53  18  83  70  36  105 93  56  90  78  36  99  88  42  125 115 63  121 112 56  136 128 67  116 108 47  99  92  35  107 100 45  121 114 59  142 135 80  121 114 59  90  83  29  66  59  4   116 109 52  101 93  30  136 128 65  127 118 62  101 91  42  84  72  31  67  55  20  59  46  18  35  21  0   67  55  18  56  44  5   61  48  13  69  58  28  107 100 73  152 147 123 214 211 191 246 241 227 198 195 182 185 182 172 175 170 160 172 167 158 164 159 149 149 144 134 130 127 117 122 119 109 118 116 105 120 117 106 123 120 110 125 123 112 120 117 106 114 111 101 111 111 99  116 116 102 129 126 114 134 130 115 147 141 125 112 103 87  99  88  74  140 127 109 108 97  64  130 119 77  157 146 104 151 140 96  140 129 85  129 118 76  138 124 83  162 148 108 135 122 81  142 129 88  156 139 99  151 135 95  151 135 95  154 135 98  149 130 93  146 127 90  160 141 104 150 133 96  163 149 111 150 138 99  142 130 91  158 146 107 167 153 114 168 154 115 140 126 87  166 151 113 160 146 107 161 146 110 161 146 114 158 142 113 178 160 132 166 150 119 154 141 105 157 147 107 160 153 112 153 146 105 166 157 115 138 129 87  156 144 107 149 132 92  150 134 80  133 115 58  147 126 71  
152 149 70  124 120 48  124 120 48  188 185 104 209 206 129 214 207 152 199 192 151 193 183 147 187 179 131 170 169 92  155 156 69  202 201 124 184 182 114 196 191 136 212 207 156 184 179 126 174 169 112 174 171 106 187 183 121 216 211 158 210 203 160 164 158 126 212 205 178 223 217 187 218 211 183 214 209 183 219 214 193 223 218 204 223 218 206 223 217 210 223 217 210 224 218 211 224 218 209 224 218 209 224 218 209 225 220 210 225 220 210 225 220 210 224 218 209 226 218 212 229 221 214 232 225 214 236 229 213 240 231 214 242 235 210 236 231 192 226 220 183 229 221 199 234 225 208 235 228 203 246 239 211 237 227 201 225 215 191 231 220 203 233 221 209 232 222 211 202 199 163 188 194 110 151 161 60  159 164 76  123 122 40  102 97  17  101 90  16  121 106 43  155 140 88  244 231 185 221 210 168 207 197 159 213 205 171 223 216 191 230 224 205 232 227 213 232 227 215 232 227 217 232 227 217 233 227 220 227 222 214 235 230 222 106 102 87  80  78  49  77  74  39  45  41  6   38  34  0   54  51  15  59  53  19  53  48  13  119 115 68  206 206 137 174 177 90  190 195 93  219 224 111 195 199 79  176 175 66  169 164 79  189 184 99  182 179 73  186 182 76  173 169 86  127 121 48  183 174 102 195 187 110 155 150 67  200 195 113 164 160 86  146 144 70  169 170 83  180 180 91  189 189 103 210 209 128 202 201 124 138 137 59  138 138 53  201 201 114 195 196 104 170 170 90  202 197 144 205 198 157 223 217 169 228 223 170 204 200 142 208 202 152 217 208 177 225 216 185 229 226 175 205 203 142 171 170 107 188 186 130 239 232 193 211 202 173 217 208 179 240 231 204 230 220 194 205 197 161 196 191 136 197 193 135 198 192 146 219 211 177 232 225 197 242 235 206 217 210 169 208 203 145 221 220 143 212 214 120 218 222 116 162 164 66  169 168 93  182 179 112 152 150 73  147 146 69  136 137 64  178 177 116 219 215 170 211 205 170 211 204 176 226 218 198 235 226 211 241 232 219 246 239 226 236 229 213 232 229 207 236 231 205 239 232 204 221 214 174 193 188 121 163 160 77  168 164 74  164 161 69  136 133 43  210 207 110 185 185 73  210 210 96  193 194 91  179 178 85  218 216 133 188 185 108 206 204 134 194 190 130 147 141 95  104 96  60  90  81  50  127 119 85  178 168 128 157 148 101 163 155 105 142 136 88  110 105 68  37  36  0   173 178 92  230 236 134 210 211 110 187 184 94  206 198 126 123 112 54  179 169 120 242 233 179 218 212 136 137 131 56  54  48  0   74  67  26  100 91  65  67  56  35  107 98  74  95  83  60  57  41  17  92  76  52  88  70  44  103 85  59  83  67  38  87  71  40  98  83  52  99  84  53  109 91  63  116 98  70  138 120 92  95  79  50  131 115 86  83  70  38  71  58  26  102 89  57  121 108 78  116 100 71  117 96  69  111 90  63  93  73  45  74  56  28  107 93  66  112 103 76  89  84  58  134 131 107 198 196 176 205 206 190 214 213 204 214 212 206 214 212 206 214 212 206 215 213 207 215 213 207 215 213 207 215 213 207 220 220 211 216 215 206 223 222 213 218 217 208 223 222 213 219 218 210 224 223 214 192 190 175 96  91  65  92  85  56  67  60  33  34  26  1   41  33  10  36  28  8   49  43  25  36  29  11  44  40  23  46  43  17  93  91  44  79  77  21  99  94  41  121 116 63  105 98  48  109 103 53  106 103 49  115 114 60  115 114 60  114 113 59  96  96  41  98  98  44  111 111 56  117 117 62  112 112 58  94  93  41  108 107 57  88  86  39  96  94  51  119 119 78  63  62  24  60  58  24  176 175 148 216 215 197 214 212 206 214 212 208 217 217 205 219 219 206 223 223 209 225 225 211 228 225 213 228 225 213 228 225 213 228 225 213 231 229 216 231 229 216 230 230 216 230 229 218 232 231 222 203 201 188 85  81  62  95  90  64  100 94  62  92  86  52  105 96  65  89  80  49  56  47  18  60  51  22  65  59  27  38  32  0   76  70  35  80  74  42  61  57  26  116 111 83  181 176 152 178 172 149 104 102 73  43  41  10  55  52  17  47  45  4   55  53  11  81  79  32  59  58  8   48  48  0   133 133 81  158 158 103 126 123 69  72  69  16  89  87  33  180 178 122 183 180 115 195 192 127 169 165 107 141 136 85  123 116 71  85  79  33  86  82  36  56  52  5   72  71  21  137 136 84  123 120 69  89  83  33  105 98  48  65  54  10  60  46  5   40  23  0   63  48  15  70  55  22  149 136 102 164 154 116 60  53  10  99  92  51  123 118 81  134 128 95  106 97  68  61  51  25  38  28  2   17  6   0   18  7   0   33  22  5   79  72  43  83  76  46  122 114 96  239 229 218 237 230 218 246 239 228 250 240 230 254 244 232 250 241 228 159 148 131 111 102 71  131 121 86  213 202 171 206 194 168 173 160 140 187 174 158 242 228 214 253 240 222 178 166 138 104 97  56  163 158 107 198 194 138 226 221 168 204 198 152 166 161 126 127 119 95  100 92  72  36  28  6   24  20  0   80  77  37  88  86  41  42  41  0   129 127 80  86  81  40  126 118 82  116 106 71  53  44  2   84  73  29  95  84  40  119 107 66  123 111 76  86  74  39  119 108 62  91  81  30  121 112 58  94  85  31  78  66  16  110 96  46  130 115 66  93  79  26  98  82  26  111 94  41  129 112 63  120 103 54  120 102 47  140 122 67  97  80  31  87  69  27  119 99  65  117 96  67  110 92  64  99  81  48  101 85  43  134 118 75  117 103 64  79  68  35  76  68  43  89  85  64  105 102 80  113 110 88  100 97  75  96  92  73  113 109 90  138 134 115 191 187 168 206 203 183 217 213 196 217 213 196 214 210 193 214 210 193 213 209 194 210 204 188 215 202 182 199 184 162 183 168 146 177 162 140 187 173 150 200 186 163 215 201 178 222 209 189 225 219 203 224 219 205 217 212 198 207 202 190 209 204 192 213 208 196 214 209 197 213 208 196 165 160 151 129 124 117 94  89  82  90  84  77  126 118 112 140 132 126 137 129 122 133 126 115 94  88  69  79  74  46  80  78  35  63  62  13  80  77  26  70  66  17  70  65  25  41  34  2   38  31  6   43  35  13  48  40  17  49  41  19  63  55  31  70  62  37  64  57  32  48  40  15  56  48  24  63  55  31  67  60  35  69  61  36  79  72  45  65  58  31  69  60  33  85  76  47  82  73  42  93  87  55  77  69  44  138 132 111 150 146 129 137 135 118 130 130 112 127 128 112 101 100 89  115 114 105 122 119 111 116 113 105 107 104 96  106 102 94  105 104 96  105 104 96  95  94  83  94  93  84  87  88  83  99  99  97  100 101 98  102 103 98  119 120 111 114 116 106 91  92  85  123 120 110 87  79  59  85  73  47  98  84  55  74  63  35  81  70  49  61  55  35  79  77  50  93  91  62  84  82  53  87  85  56  91  87  59  87  82  54  100 95  67  94  89  61  94  89  61  98  94  66  102 97  69  100 95  65  95  89  59  116 110 80  130 124 94  113 105 73  137 126 95  120 107 75  115 102 70  128 115 85  127 113 84  130 117 87  116 103 73  132 118 89  126 112 83  118 108 75  125 115 80  131 121 84  137 128 85  129 121 73  131 123 74  140 133 83  136 127 82  151 142 99  137 128 85  139 130 88  163 153 111 126 117 75  135 126 83  142 133 88  128 118 69  139 128 79  134 123 79  130 119 79  132 119 86  125 111 84  134 120 95  143 129 104 155 139 111 139 123 94  146 132 104 118 107 81  155 145 123 176 168 147 218 212 194 224 219 205 141 138 125 131 128 118 129 124 114 135 130 120 140 135 125 131 125 116 121 118 108 118 116 105 123 121 108 129 126 114 138 136 123 144 142 129 135 132 119 129 126 114 126 126 112 131 131 117 135 132 119 131 129 116 148 144 129 141 131 119 142 130 121 159 145 132 131 120 92  151 140 107 159 148 116 168 157 127 152 141 111 166 155 125 150 138 110 149 137 109 159 148 120 151 140 111 146 135 107 151 138 110 161 147 120 166 153 125 152 138 113 139 124 100 150 136 111 154 143 117 152 140 115 144 132 107 160 150 124 153 143 117 136 124 98  145 133 108 168 157 131 152 140 115 163 150 127 156 143 120 151 138 118 150 137 116 156 143 122 151 138 118 155 145 123 155 147 122 141 137 107 131 127 94  138 133 94  124 117 76  133 124 86  95  84  42  87  73  21  134 118 62  120 104 50  
185 181 92  179 174 96  171 166 88  218 213 128 214 209 131 215 207 155 209 199 162 201 191 153 210 202 153 157 156 83  177 176 99  218 215 148 190 187 124 189 185 123 183 180 115 156 154 84  143 142 67  166 164 89  208 206 133 213 210 145 203 198 143 170 166 121 207 202 165 221 215 181 220 214 182 217 213 185 216 211 187 223 218 202 223 218 206 223 217 210 223 217 210 224 218 209 224 219 207 225 218 207 225 218 207 226 219 208 226 219 208 226 219 208 228 221 207 226 220 204 224 218 202 221 214 200 217 210 197 230 221 208 236 229 204 235 231 185 228 225 172 241 237 193 228 223 182 234 230 186 243 239 195 225 218 179 206 198 167 224 214 192 231 220 201 246 238 213 188 186 143 167 172 99  90  95  18  133 133 76  114 110 50  167 160 78  172 161 76  142 129 56  149 137 70  212 203 135 213 205 144 216 208 161 230 222 186 239 232 204 238 233 207 231 229 200 231 228 202 229 229 204 229 227 210 236 232 220 231 225 218 239 232 230 110 104 95  80  78  51  77  76  40  49  48  12  44  43  7   48  45  10  47  44  8   48  42  7   122 117 78  190 186 139 74  74  8   191 195 100 208 213 97  185 190 61  173 175 56  168 163 78  115 109 34  191 188 93  183 180 87  107 101 28  101 94  26  214 208 133 214 209 129 161 156 71  127 122 39  149 145 71  182 178 105 198 197 118 177 178 89  169 171 73  149 152 51  190 192 96  143 145 51  145 146 52  190 192 94  211 215 107 148 151 48  143 143 63  152 149 80  195 193 119 168 166 92  188 186 114 209 205 143 230 224 176 233 228 177 228 228 158 212 213 137 200 200 132 212 210 151 213 207 161 213 206 165 208 202 154 213 208 159 221 214 174 218 212 166 212 208 148 226 222 162 219 214 163 213 207 163 200 195 154 242 238 192 216 211 156 199 197 127 223 223 136 206 208 114 198 199 108 162 162 80  218 215 148 184 181 116 148 147 72  154 152 82  170 166 119 240 234 199 205 199 167 211 204 176 211 202 182 228 219 204 235 226 211 240 232 210 232 229 196 206 203 165 211 208 175 225 222 187 227 222 183 221 216 163 213 208 137 208 206 118 194 192 95  164 163 59  198 197 90  192 192 80  185 186 69  201 201 94  146 145 56  149 145 69  144 139 70  163 158 87  211 209 126 206 203 122 173 167 107 118 110 65  126 118 82  111 103 67  165 156 113 150 141 96  158 150 102 168 162 116 110 106 64  118 119 57  216 224 121 190 198 79  187 190 86  187 184 94  197 191 113 107 100 34  93  84  30  157 149 86  228 225 135 214 211 121 128 122 58  135 129 85  133 126 96  102 95  72  83  74  54  90  79  60  145 132 116 151 135 122 104 85  74  127 109 97  106 88  76  124 106 91  141 125 110 163 147 132 162 146 131 159 146 130 181 170 151 172 164 144 135 127 107 127 117 95  139 129 107 165 152 131 161 149 128 156 139 120 135 113 95  109 84  67  140 116 97  126 104 84  130 116 93  128 119 95  114 109 83  146 143 119 202 201 179 213 211 193 215 212 202 215 211 206 215 211 206 215 211 206 216 213 205 216 213 205 216 213 205 216 213 205 220 220 211 216 215 206 223 222 213 218 217 208 224 222 211 221 218 208 226 223 212 193 189 175 108 103 75  110 104 72  72  66  34  34  27  0   52  45  20  58  50  28  68  63  40  55  50  29  56  52  33  39  36  10  90  89  41  103 101 45  126 121 68  123 117 65  95  87  37  105 100 49  102 102 47  96  98  42  100 102 47  143 146 90  111 113 58  94  97  41  112 114 59  117 119 63  94  96  43  86  88  37  99  100 52  91  92  46  92  92  51  104 106 67  53  55  16  94  95  61  213 213 183 214 215 194 215 214 203 223 222 213 216 216 200 218 219 198 222 223 202 224 225 206 225 225 209 225 225 211 225 225 211 225 225 211 229 229 215 229 229 215 229 229 215 229 228 217 225 224 215 177 174 161 78  74  55  100 95  69  67  61  29  74  69  34  85  77  45  74  65  34  74  65  32  74  65  34  67  61  31  50  43  14  49  42  13  56  49  19  40  36  4   82  78  45  81  77  46  90  86  56  60  58  26  64  63  29  66  65  31  57  56  20  72  71  35  51  51  12  52  49  9   59  57  12  101 100 50  158 158 103 106 104 45  154 152 89  172 171 108 187 187 121 167 164 97  188 185 116 202 197 130 161 156 90  154 149 83  168 165 100 168 166 105 62  59  5   67  64  17  128 123 84  128 121 82  117 109 71  156 146 108 133 121 80  140 127 83  123 109 66  105 91  55  88  73  39  155 142 108 152 141 109 83  74  45  87  81  49  107 102 65  115 110 73  92  86  54  66  59  32  60  53  26  49  41  17  44  35  20  42  33  18  65  58  29  91  88  53  116 111 83  202 197 171 237 232 204 231 227 198 229 222 195 225 218 188 220 211 183 201 192 161 133 124 86  119 107 68  186 174 135 194 183 143 164 152 115 143 131 94  171 159 122 179 167 130 129 117 80  92  83  38  154 148 89  159 154 85  153 149 77  170 164 100 156 148 96  80  71  26  143 137 94  156 150 104 155 150 99  186 183 130 98  95  41  71  67  21  126 120 83  76  67  36  123 113 87  138 126 101 142 131 98  135 124 89  138 128 93  110 100 67  136 124 98  114 102 76  89  80  51  86  78  47  112 103 72  112 103 72  114 106 73  130 119 86  132 122 89  113 100 68  121 108 76  107 94  64  119 103 79  127 111 87  120 105 74  148 133 100 140 124 95  120 104 80  121 104 85  91  73  59  66  46  39  106 87  78  113 98  76  105 91  64  89  78  50  81  71  45  93  87  64  84  78  60  77  73  54  77  73  54  97  93  74  118 114 97  124 119 103 113 109 92  107 103 86  125 121 104 132 128 111 124 119 103 120 116 101 132 127 113 138 133 119 134 128 112 136 126 107 140 128 107 152 140 119 165 152 131 164 151 130 154 142 121 143 133 114 138 130 110 148 142 124 147 141 125 137 130 114 124 117 103 130 123 109 137 130 116 133 128 114 125 120 108 94  89  80  104 98  91  111 105 98  112 106 99  105 97  91  72  64  57  54  46  40  44  36  27  48  41  30  58  52  33  79  75  42  89  87  44  94  92  47  93  90  50  96  92  61  88  83  59  80  73  57  80  73  59  83  76  63  80  73  59  101 94  78  105 99  83  107 100 84  102 95  79  109 102 86  119 113 97  121 114 98  112 106 90  123 117 98  130 122 104 129 121 103 120 111 94  122 114 96  119 110 92  134 129 108 153 149 130 112 107 93  113 110 97  99  99  90  44  42  36  73  72  63  88  87  78  95  92  84  88  85  77  77  76  68  76  75  66  77  76  68  77  76  68  73  72  61  66  65  56  68  68  63  73  74  71  64  64  62  71  72  67  83  84  75  106 108 98  109 110 105 98  94  88  79  70  55  93  80  59  106 91  69  103 91  70  116 104 92  105 98  85  110 106 87  118 118 95  120 119 96  121 118 96  129 126 104 129 126 104 135 132 110 135 132 110 140 135 114 139 133 113 141 136 115 146 141 118 137 131 108 138 133 109 150 144 121 148 140 118 140 130 106 140 129 103 145 133 108 153 141 116 140 129 101 149 137 109 142 130 102 160 149 121 149 137 109 135 126 98  150 141 113 150 141 113 139 128 98  126 115 85  131 122 89  148 142 109 135 128 99  144 138 108 139 135 104 137 133 102 140 133 105 121 114 87  142 135 108 144 138 108 140 131 102 138 129 100 133 124 95  121 112 86  133 121 98  140 128 105 131 119 98  123 110 90  128 115 92  123 110 90  117 106 87  120 111 94  132 126 110 163 159 144 159 157 142 176 173 160 155 155 144 146 144 133 142 137 127 142 137 127 146 140 131 135 130 120 124 122 109 122 119 107 120 117 104 125 123 110 135 132 119 141 138 125 134 131 118 129 126 114 126 126 112 130 130 116 141 138 125 134 131 118 136 132 117 137 129 118 141 129 121 142 130 121 132 122 98  140 131 102 131 121 97  138 128 104 128 119 95  152 145 122 162 154 131 151 143 121 157 149 127 154 146 123 129 121 99  113 105 83  123 116 93  157 149 129 158 150 130 147 138 118 152 144 124 151 143 123 154 145 125 156 148 128 145 137 117 126 117 97  158 150 130 158 150 130 144 136 118 120 111 94  136 127 112 126 117 101 124 116 100 133 124 108 116 107 92  112 106 90  131 124 110 120 116 99  110 109 91  111 111 86  111 110 72  96  94  51  97  90  49  76  67  25  81  68  20  131 117 65  104 91  34  
169 167 65  211 207 119 205 201 115 156 153 61  173 169 86  215 208 151 192 183 138 195 187 138 194 187 130 189 186 121 206 203 138 203 199 141 195 190 135 171 168 107 201 197 132 187 185 110 140 140 58  166 166 81  204 204 122 215 213 138 206 203 138 179 176 123 176 172 125 219 215 168 222 218 176 221 215 181 214 209 181 224 218 200 223 218 206 223 217 210 223 217 208 224 220 199 225 220 197 225 220 199 225 219 201 226 220 204 226 220 204 226 220 202 226 221 200 226 221 198 228 222 201 229 223 204 230 223 207 225 216 200 228 221 196 226 222 173 218 215 159 211 208 156 205 201 152 223 220 171 221 217 171 189 182 141 189 181 145 228 219 191 235 226 198 229 224 187 198 194 145 175 179 112 140 144 79  200 198 151 138 132 82  149 141 64  159 151 63  142 132 51  144 134 55  187 179 102 205 198 130 216 208 159 230 222 184 232 225 193 221 217 184 224 223 183 224 223 183 222 223 189 222 222 197 232 228 211 226 221 209 234 228 221 105 100 88  92  92  64  78  79  44  52  53  19  64  63  29  53  49  16  45  41  8   63  57  24  171 165 133 142 136 102 44  41  0   120 122 39  187 191 82  195 200 73  197 198 77  155 151 61  135 130 50  183 180 87  127 123 33  112 106 30  127 121 48  191 186 104 220 215 133 175 169 91  120 114 41  124 120 48  174 169 100 212 211 136 174 174 88  155 159 53  181 185 72  208 211 105 173 175 74  145 146 52  134 137 38  164 169 56  195 199 88  168 170 76  182 182 96  171 173 81  170 171 82  168 168 86  192 191 116 206 204 136 210 208 138 194 194 107 189 190 99  201 200 118 213 211 141 201 196 139 233 228 173 197 194 127 146 143 76  182 178 118 211 208 145 191 190 115 189 187 113 208 204 139 218 214 156 206 204 148 232 230 171 184 181 118 168 166 94  206 206 122 190 190 106 182 180 106 174 171 106 240 236 176 181 177 117 149 147 77  139 136 71  192 189 140 227 222 181 213 209 165 230 226 184 241 235 201 249 243 211 236 231 194 235 231 187 214 211 158 168 168 113 181 180 130 206 202 154 204 201 147 208 204 139 216 213 132 218 218 123 193 192 86  213 213 99  164 164 50  163 163 49  157 157 44  184 182 80  137 135 51  152 147 78  71  65  1   163 158 89  165 163 77  186 183 102 163 156 97  93  84  39  131 123 85  98  91  52  137 128 83  146 138 89  151 143 93  146 140 90  140 136 87  145 147 78  232 241 129 168 176 53  123 125 24  181 179 93  198 192 115 120 113 43  100 92  29  119 113 37  184 183 76  225 227 121 171 169 99  103 96  51  105 98  68  111 105 85  124 116 98  123 114 99  131 119 109 128 113 104 167 152 146 156 139 133 120 103 95  131 117 108 95  81  70  63  51  41  103 93  85  151 141 133 173 166 154 139 134 120 107 102 90  151 143 132 172 163 150 161 150 135 154 143 126 142 127 109 133 116 97  149 129 111 129 109 91  156 136 120 100 85  67  98  88  66  131 126 100 143 141 112 194 194 167 219 218 195 222 220 205 222 219 209 222 219 209 222 219 209 223 221 208 223 221 208 223 221 208 223 221 208 226 223 210 219 219 206 226 226 213 222 222 206 228 226 211 224 222 207 229 227 212 197 193 174 119 115 87  127 120 91  79  72  43  37  30  3   49  41  17  65  57  35  59  53  30  51  45  24  66  63  44  53  50  26  103 100 60  107 105 58  133 128 84  135 129 85  97  90  49  89  85  43  97  97  52  107 110 63  101 104 57  131 134 88  87  90  43  107 110 63  132 135 89  94  97  52  87  89  48  75  77  38  86  88  48  98  99  62  102 104 67  78  79  42  54  56  19  142 143 108 196 199 168 184 186 161 195 195 179 205 206 190 190 191 170 193 194 169 196 198 172 198 200 177 200 200 182 200 200 184 200 200 184 200 200 184 198 199 183 198 199 183 198 199 183 198 199 183 202 200 187 148 144 129 73  67  48  108 103 77  74  68  38  77  70  40  89  80  51  82  73  44  77  68  41  85  77  53  56  48  26  57  49  29  37  29  9   77  69  46  70  65  40  66  61  35  60  55  29  96  93  67  50  50  22  52  52  25  64  62  35  63  60  34  87  85  58  66  64  37  62  58  30  74  70  39  55  52  15  100 98  53  187 185 131 155 153 92  138 137 74  156 155 91  152 147 90  126 122 64  168 163 99  174 169 100 178 174 100 180 176 102 180 177 107 130 126 65  92  86  42  119 111 77  105 96  69  111 101 77  135 123 97  136 125 94  136 124 85  134 122 83  142 129 97  150 137 107 146 132 104 94  82  56  102 91  72  94  86  64  107 103 70  96  93  57  109 102 75  98  90  65  96  89  64  93  85  65  109 100 87  94  85  72  83  78  53  116 111 83  157 152 124 173 169 138 174 171 135 166 161 124 136 131 94  140 132 96  149 141 105 151 141 105 144 133 91  123 113 66  139 128 79  129 119 68  169 159 108 152 143 89  147 138 81  154 144 90  149 139 90  133 123 72  173 166 100 176 169 96  146 140 64  151 145 74  176 167 107 146 136 80  189 183 126 188 182 123 177 174 109 141 138 73  139 135 75  185 180 129 103 95  59  113 104 77  115 101 85  118 105 91  105 93  74  114 101 80  110 100 76  112 102 80  109 98  81  112 103 87  115 107 89  128 119 102 103 95  79  111 105 89  122 116 97  117 111 92  112 103 85  114 105 88  106 95  81  118 106 94  109 94  86  107 92  83  117 104 88  107 93  77  109 95  82  109 95  84  100 85  76  111 96  90  103 87  88  108 92  91  97  85  75  81  70  53  95  87  69  84  78  60  65  58  42  65  58  44  66  62  48  69  64  50  60  55  41  71  67  52  77  72  58  98  93  79  118 113 99  145 140 126 157 153 138 150 146 131 135 130 118 146 141 129 147 142 130 137 130 116 134 125 110 135 124 108 143 135 117 155 146 129 145 137 119 138 130 112 140 131 115 145 138 122 146 140 124 151 144 128 150 143 127 144 137 121 148 142 126 154 148 132 142 138 123 125 120 108 118 112 103 105 99  92  84  78  71  70  64  57  60  52  45  61  53  47  67  59  52  84  76  70  90  82  76  93  85  74  89  84  60  90  86  56  91  88  55  86  81  53  80  74  53  79  72  58  72  64  55  83  75  69  94  86  79  100 92  83  105 98  89  102 94  85  114 106 97  134 127 118 121 113 104 122 114 105 121 113 104 118 110 102 133 126 115 119 112 101 115 107 96  124 115 104 124 114 106 111 104 93  117 112 98  134 130 115 129 126 114 132 129 121 120 119 115 122 120 116 117 116 109 117 116 107 118 115 107 118 115 107 119 118 110 115 114 105 110 109 100 105 104 96  90  91  84  86  87  82  87  90  86  75  78  77  86  88  87  110 113 110 106 109 103 121 124 118 119 119 117 90  88  84  102 95  83  110 102 86  111 100 83  112 101 86  99  89  81  105 98  89  112 107 93  109 107 92  131 129 114 120 118 100 117 112 96  134 130 113 127 123 106 145 140 124 147 141 125 127 121 105 125 119 103 140 134 118 146 140 124 130 123 107 132 126 110 136 129 113 137 129 111 136 128 108 131 123 103 124 117 94  130 122 100 144 137 112 129 122 97  133 125 100 130 122 100 137 129 107 143 135 115 138 130 110 125 114 95  111 100 81  133 124 104 133 128 107 129 123 104 107 100 82  120 116 97  111 107 88  126 120 102 132 126 110 100 93  77  115 108 92  107 100 84  96  88  72  128 119 104 113 104 87  96  88  70  103 95  77  99  90  73  114 105 88  105 96  78  106 97  82  117 109 93  94  87  73  113 108 96  103 98  86  96  94  81  89  87  74  100 97  87  96  93  83  97  91  82  98  93  83  103 97  88  99  94  84  98  95  82  102 100 87  101 99  86  103 101 88  106 103 90  108 106 93  109 107 94  103 101 88  102 100 87  107 104 92  108 106 93  117 115 102 122 118 103 126 119 108 115 105 97  126 114 104 135 125 106 126 116 94  133 122 103 121 112 95  126 117 99  144 136 118 152 145 129 153 147 131 118 112 96  136 129 113 122 118 101 108 104 87  113 109 92  133 129 112 154 149 135 151 147 133 143 139 124 113 109 94  124 117 103 126 120 104 159 152 136 131 124 108 151 144 128 123 116 100 115 108 94  111 104 91  108 100 89  98  91  80  107 99  88  125 118 107 106 101 91  101 96  89  120 116 110 100 96  91  91  90  82  115 115 97  107 108 73  79  79  38  67  62  23  99  89  49  127 116 72  116 103 53  114 101 41  
163 163 53  173 171 72  191 188 91  193 192 90  196 192 100 200 193 123 221 213 152 217 213 144 170 164 98  192 185 128 200 192 142 180 172 122 180 172 124 179 171 123 213 205 153 212 209 144 189 188 111 209 210 120 202 203 111 215 214 134 213 211 141 233 229 169 189 185 127 223 219 159 204 199 144 209 206 159 227 221 187 216 211 187 219 213 199 228 223 213 216 211 195 208 205 167 208 206 161 214 209 172 221 214 187 235 227 207 227 219 199 222 216 186 223 217 185 232 224 199 227 219 197 234 226 206 226 218 198 237 229 209 218 211 183 223 218 179 178 174 128 198 192 148 204 197 156 192 185 149 231 223 189 232 223 192 215 206 173 232 225 186 251 244 201 240 234 186 227 225 168 179 180 114 185 186 120 226 223 167 181 176 121 129 122 54  134 127 47  130 123 37  140 133 49  151 142 68  168 160 96  208 200 150 224 217 176 230 225 188 221 218 178 186 188 137 184 185 135 213 215 175 219 219 187 236 236 211 230 229 207 235 234 212 114 113 88  100 100 72  84  84  54  50  50  20  51  49  20  52  47  19  63  59  31  43  36  9   187 180 153 105 96  67  142 136 92  157 155 87  203 202 111 197 197 83  158 159 41  190 188 86  196 193 98  156 156 54  136 136 36  96  95  4   86  84  0   151 148 56  196 191 106 124 119 52  122 115 56  128 122 60  132 127 63  153 148 82  126 124 41  140 142 34  174 177 60  172 173 66  145 145 49  126 124 43  96  93  12  105 106 6   164 165 60  182 182 84  145 145 49  167 167 71  165 164 69  186 185 94  200 199 108 195 194 105 173 172 79  160 161 58  185 186 81  186 187 82  217 216 123 222 218 144 196 192 121 184 181 98  143 141 55  173 170 89  201 199 113 197 197 100 173 173 75  180 180 91  195 194 115 178 176 108 187 183 121 187 183 121 182 179 114 192 190 122 204 201 136 185 181 125 190 185 132 192 188 132 215 210 152 203 199 141 203 200 135 174 172 98  187 185 108 212 211 136 209 207 135 234 234 163 226 226 153 226 225 146 223 222 142 174 172 98  164 164 93  184 183 115 198 197 129 182 180 108 213 213 131 222 221 128 219 217 115 191 191 77  176 176 60  141 140 31  139 137 33  126 124 20  159 157 60  192 189 108 126 122 49  147 143 72  203 199 128 190 187 113 157 151 87  165 157 109 187 177 140 88  80  44  132 125 84  163 158 105 167 163 103 159 155 93  166 162 102 126 124 65  191 192 116 213 220 106 163 171 52  162 163 74  133 129 56  164 157 87  163 156 86  162 155 82  187 184 92  196 201 76  195 199 79  171 170 95  117 110 67  94  87  60  123 117 98  132 125 112 100 92  81  106 96  86  145 135 127 103 94  83  124 115 104 149 140 125 122 114 96  122 114 96  112 105 92  118 112 107 135 129 126 124 119 107 122 117 105 131 124 122 148 141 141 90  84  79  96  89  78  97  86  67  123 113 87  121 110 79  142 131 100 156 144 118 137 124 104 124 113 96  108 100 80  124 119 91  145 143 109 184 185 150 180 180 151 188 185 161 182 178 157 175 171 150 170 167 145 165 162 141 163 160 136 160 157 133 157 154 130 153 153 128 152 152 127 156 155 130 164 164 136 166 166 139 162 161 134 162 161 134 166 166 139 98  95  69  114 109 83  74  69  45  41  36  13  56  51  28  67  61  40  81  75  54  91  85  67  91  87  68  79  76  54  93  87  64  122 117 91  137 132 106 124 117 92  114 106 84  111 106 83  104 104 79  104 106 80  105 107 81  106 108 83  96  98  72  117 119 93  118 120 94  98  100 76  98  99  81  97  98  79  97  98  77  98  100 76  103 105 77  78  82  49  75  78  43  95  98  63  98  101 68  98  101 72  98  100 74  98  100 74  97  99  73  102 104 76  110 112 84  116 118 92  119 121 95  119 121 97  119 121 97  119 121 97  127 129 106 130 131 108 125 128 104 118 119 98  118 114 95  126 120 102 122 116 95  109 104 80  91  83  60  96  89  66  95  88  65  87  79  59  101 92  79  105 98  89  87  79  70  77  70  61  93  85  76  94  86  77  95  87  78  97  91  82  97  91  82  95  92  82  87  84  74  99  96  85  89  86  76  84  81  70  92  89  78  87  82  73  93  88  78  86  82  67  93  90  68  134 130 100 173 168 129 142 138 92  113 110 56  106 103 51  181 173 139 145 136 103 99  93  47  160 156 98  161 156 90  156 152 78  181 177 103 197 192 128 153 145 100 104 93  63  105 95  75  113 102 87  103 91  79  106 95  81  106 96  72  106 97  70  101 89  65  164 151 132 105 92  76  102 90  76  109 100 87  101 92  79  95  89  68  108 102 79  101 95  74  101 95  76  107 98  81  96  88  72  114 104 94  94  84  74  88  81  67  118 111 98  151 144 130 152 146 125 135 129 95  143 138 97  178 171 131 150 143 107 131 120 92  147 133 104 148 136 95  151 142 88  135 127 66  180 173 109 140 131 70  156 148 83  132 125 52  141 134 62  136 129 63  151 144 78  158 151 83  142 135 65  165 161 89  156 150 84  142 136 74  186 180 120 177 171 109 160 155 91  144 140 68  166 162 90  199 194 127 190 184 127 187 178 133 121 109 81  116 101 93  116 100 99  128 115 113 110 97  92  112 100 90  135 125 115 114 104 96  115 107 98  126 118 112 114 105 99  119 111 105 110 104 97  98  92  85  115 110 103 117 111 104 110 104 97  107 102 94  114 105 99  119 111 107 101 92  88  114 105 99  107 98  92  97  89  83  101 93  86  111 103 97  101 93  86  109 100 96  107 98  94  114 105 99  105 98  89  105 98  89  91  86  76  89  83  74  98  92  85  112 106 99  121 116 108 120 114 107 117 111 104 113 107 100 110 104 97  125 119 112 131 125 118 131 125 118 125 119 112 131 125 118 124 118 111 115 110 101 108 103 94  112 105 96  112 105 94  112 105 94  112 105 94  118 111 98  116 109 95  112 105 92  110 103 90  108 101 87  97  90  77  86  82  67  86  82  67  83  79  62  89  85  68  92  88  71  96  91  77  119 114 104 121 116 108 124 118 111 126 120 113 135 130 122 135 130 122 135 130 122 135 130 122 139 133 128 114 109 101 97  92  80  97  92  78  101 94  80  100 92  81  101 93  84  104 96  90  105 97  91  110 102 98  127 119 115 130 122 115 125 117 111 112 104 98  127 119 113 118 110 104 132 124 118 125 117 111 118 110 104 115 107 100 122 114 107 110 102 96  105 97  91  111 103 97  111 103 97  90  84  77  110 104 97  105 99  92  94  91  83  116 115 106 99  98  92  105 104 98  106 106 97  106 106 97  106 106 97  106 106 97  105 104 96  98  97  89  90  91  82  83  84  77  66  70  69  57  64  64  52  59  61  48  54  56  50  56  59  52  59  61  55  61  61  59  63  62  85  85  83  84  83  77  110 107 99  109 106 96  99  94  84  99  94  84  98  94  86  98  94  86  98  94  86  103 100 92  113 109 101 118 116 105 98  95  84  124 121 111 129 126 116 122 117 108 127 122 112 125 119 110 108 103 94  128 123 113 118 111 100 125 118 107 129 121 110 125 118 107 141 134 123 122 115 101 122 115 101 124 117 103 139 132 119 118 111 98  116 109 95  116 109 95  116 109 95  124 117 103 138 131 117 129 122 108 132 125 114 96  89  78  131 124 112 110 105 93  99  94  82  99  94  82  99  94  82  99  94  82  105 100 88  121 116 106 125 119 110 113 108 98  103 97  88  91  84  75  129 121 112 98  91  80  97  90  79  105 98  87  105 98  87  97  90  79  109 102 90  109 102 90  109 102 90  107 102 90  100 95  85  101 96  87  105 100 90  106 101 91  120 115 105 122 117 108 125 119 110 127 122 112 122 117 108 113 108 98  107 102 92  108 103 94  107 102 92  107 102 92  106 103 90  106 103 90  107 102 90  107 102 90  107 102 90  106 103 90  104 102 87  120 118 102 121 117 102 113 109 94  117 110 99  127 117 105 126 117 101 117 109 93  141 132 117 136 129 113 109 102 86  150 143 129 147 140 127 148 142 128 125 118 105 124 117 103 129 122 108 96  89  76  110 103 90  134 127 116 134 127 116 143 135 124 129 121 110 115 107 96  128 123 111 119 114 100 136 129 115 143 136 122 146 141 127 119 114 100 119 114 100 121 117 102 105 100 88  111 105 96  113 107 100 110 104 99  119 112 110 85  80  82  73  68  72  64  62  63  54  54  52  88  90  78  67  69  43  80  79  47  39  33  3   50  39  6   106 94  53  138 126 75  148 138 77  
171 171 60  171 169 68  140 138 38  150 149 47  200 197 103 201 196 118 192 186 113 199 195 119 179 174 105 217 210 156 203 195 146 200 193 138 217 211 154 211 205 148 194 188 128 204 201 134 205 204 127 213 214 125 206 207 118 187 186 106 199 197 125 204 201 136 150 147 82  177 175 103 185 183 115 186 183 130 234 229 188 197 193 163 207 201 180 205 201 184 207 205 178 203 202 154 206 206 149 233 230 178 222 218 174 192 186 152 184 178 142 208 205 154 207 204 155 209 204 167 225 218 190 195 188 165 168 160 137 190 183 155 213 207 175 199 194 153 188 185 138 197 191 145 213 207 163 190 182 146 187 178 145 182 174 140 183 176 137 202 196 148 223 218 163 204 200 140 217 214 147 194 195 120 192 193 117 194 194 126 177 175 107 149 145 71  139 133 53  172 169 79  146 142 54  106 100 25  144 138 74  200 192 140 191 185 139 200 196 152 190 189 144 178 177 125 156 158 107 158 159 115 188 187 151 188 186 155 200 198 169 169 167 138 128 126 97  119 117 88  68  66  37  40  38  7   56  54  23  105 101 71  93  86  57  60  54  24  127 119 87  143 136 98  144 136 86  102 97  30  180 178 92  198 197 90  161 161 47  165 164 62  185 183 84  213 213 111 203 204 101 160 161 60  137 137 39  187 185 88  192 188 103 142 136 74  117 109 60  96  88  41  122 114 66  143 135 83  146 142 71  164 165 60  192 195 78  168 170 60  147 147 49  118 116 35  117 114 33  137 136 43  184 184 84  163 163 63  167 168 67  168 168 70  160 160 64  182 182 88  203 202 109 224 224 126 181 182 81  183 182 77  213 212 105 190 189 80  211 209 107 202 200 114 220 217 134 199 198 105 173 173 75  119 119 26  138 138 42  158 159 54  192 193 86  185 188 89  192 193 104 199 199 119 211 209 137 185 182 119 185 181 123 166 161 108 190 184 136 187 180 137 163 157 111 190 186 126 175 172 107 135 132 69  150 148 78  149 151 59  181 184 82  211 214 113 233 236 135 211 215 116 207 212 110 198 202 96  192 195 94  185 186 99  159 158 78  193 195 115 155 156 76  223 223 138 215 213 125 172 170 73  203 201 97  158 159 45  135 136 19  157 157 48  165 164 60  133 131 31  151 148 56  163 160 77  189 187 106 187 185 101 207 204 123 157 153 79  129 123 59  147 140 88  124 115 75  90  82  48  106 98  62  110 104 54  102 98  36  187 184 116 180 177 107 120 119 53  214 215 138 164 170 65  193 199 92  206 206 124 172 168 96  172 166 91  175 169 91  173 168 90  198 194 104 214 217 100 186 188 78  185 183 113 119 112 71  120 113 86  103 97  78  98  91  78  111 104 93  110 102 94  120 114 107 110 104 97  113 108 98  119 114 102 109 107 92  114 110 93  110 108 95  113 109 105 119 118 114 115 112 102 115 112 102 113 108 107 106 101 100 107 101 96  123 116 104 120 111 94  159 152 129 151 145 115 164 157 128 163 154 127 117 110 87  121 112 95  140 135 114 140 138 107 134 135 100 149 149 117 137 137 108 139 136 110 135 132 108 131 128 104 127 124 100 125 122 96  122 120 93  119 116 90  115 115 88  107 107 79  103 104 74  106 106 76  111 112 82  117 118 88  111 112 82  111 112 82  117 117 90  120 119 96  140 136 117 111 107 90  91  87  70  85  81  64  82  76  60  74  67  51  68  63  49  75  70  58  80  76  64  94  89  80  109 101 92  117 109 101 109 101 92  108 100 93  111 105 98  110 107 99  108 107 98  106 106 97  106 106 97  108 107 98  111 110 101 110 109 100 105 104 98  105 103 102 109 107 105 109 107 101 105 105 94  116 116 98  101 102 79  98  101 72  108 110 82  110 112 86  110 112 86  110 112 86  110 112 86  94  95  72  97  99  75  103 104 81  106 108 85  99  101 78  99  101 78  99  101 78  99  101 78  105 106 85  109 110 89  106 109 88  102 103 82  108 104 87  125 119 103 126 120 104 112 106 90  67  60  44  66  57  42  76  67  51  90  83  72  70  62  58  79  70  68  69  60  59  70  62  60  89  80  79  91  84  82  94  88  86  96  89  87  95  91  88  95  91  88  87  83  80  99  95  91  98  93  90  92  88  84  100 96  93  94  90  87  96  89  87  87  81  77  91  86  74  105 101 82  152 147 121 145 139 107 126 121 81  107 102 65  107 97  76  117 106 87  89  80  49  106 100 54  179 172 115 161 157 88  154 147 74  148 141 73  168 157 108 126 113 81  112 100 81  125 113 103 109 95  93  105 92  87  102 93  80  95  87  67  132 122 100 132 122 100 95  86  71  103 94  83  89  80  69  102 95  81  91  85  67  102 96  77  98  91  78  83  76  65  100 90  82  91  81  73  88  78  70  89  79  71  86  78  69  94  86  77  104 96  88  118 112 96  116 110 80  112 107 67  177 171 127 167 158 118 136 123 91  116 104 69  111 100 53  148 139 83  113 105 40  119 112 43  143 135 72  183 175 109 148 142 66  122 117 39  116 110 37  123 117 46  139 131 63  134 126 61  167 162 98  156 150 88  124 118 58  101 95  35  129 122 63  90  84  23  122 116 52  137 131 67  167 161 100 125 119 62  156 148 96  158 148 108 157 144 125 129 114 108 126 113 110 118 105 100 121 112 99  105 96  81  108 100 89  97  89  83  109 100 96  94  85  83  104 97  95  91  84  82  87  83  80  98  93  90  103 99  96  91  86  83  100 96  93  103 99  96  108 102 100 87  81  79  100 94  91  93  87  84  84  78  75  87  81  79  104 98  93  93  87  82  101 95  91  99  93  88  100 94  89  89  83  78  92  86  81  85  79  74  89  83  78  98  92  87  112 106 101 121 115 110 111 105 100 110 104 99  108 102 98  107 101 96  121 115 110 126 120 115 126 120 115 121 115 110 121 115 110 120 114 109 119 113 106 118 112 105 119 113 106 119 113 106 119 114 104 120 115 105 120 115 103 120 115 103 119 114 102 118 113 101 127 120 109 121 114 100 117 112 98  119 114 100 119 114 100 121 117 102 119 114 100 118 113 99  119 114 104 121 116 108 124 118 111 126 120 113 133 127 120 133 127 120 133 127 120 133 127 120 134 128 123 111 105 100 96  90  85  98  92  87  100 91  87  98  90  86  100 91  87  103 95  91  102 93  89  111 103 99  129 120 116 126 118 114 123 114 110 115 106 102 130 121 117 116 107 103 133 125 121 132 124 120 127 119 115 121 112 108 122 113 109 105 97  93  99  93  88  110 104 99  100 94  89  90  84  79  110 104 99  114 108 103 121 118 110 102 101 92  96  95  88  96  95  88  97  96  87  97  96  87  97  96  87  97  96  87  96  95  86  89  88  79  80  82  72  72  75  69  64  71  71  55  64  68  51  59  63  46  54  58  48  57  61  51  59  63  53  61  65  57  63  66  76  76  74  83  82  75  106 105 99  111 110 103 96  95  88  96  95  88  96  95  88  96  95  88  98  94  88  103 100 94  113 109 103 118 115 109 96  93  85  123 120 112 122 119 111 122 119 111 129 124 117 126 120 113 107 102 94  126 120 113 116 108 99  124 116 108 126 119 110 123 115 106 135 130 120 117 111 102 120 115 105 122 117 108 135 130 120 114 109 99  112 107 97  112 107 97  122 114 105 114 106 97  144 136 127 129 121 112 122 117 110 111 105 98  114 109 101 108 103 96  99  93  86  99  93  86  99  93  86  99  93  86  101 96  89  105 99  92  115 110 103 125 119 112 108 103 96  94  89  82  126 120 113 105 99  92  100 95  85  104 98  89  104 98  89  100 95  85  100 95  85  100 95  85  100 95  85  99  94  84  97  91  82  99  94  84  104 98  89  107 102 92  124 116 108 126 119 110 127 122 112 129 124 114 122 117 108 113 108 98  107 102 92  108 103 94  107 102 92  107 102 92  106 103 90  106 103 90  107 102 90  107 102 90  107 102 90  107 102 90  107 105 90  117 115 100 119 114 100 115 111 96  117 110 96  122 115 101 123 116 102 121 114 100 130 123 109 132 125 112 111 104 91  139 132 119 146 139 128 144 136 125 126 119 108 121 113 102 109 102 90  107 99  88  121 113 102 133 126 115 111 103 95  122 114 105 132 125 114 130 123 111 126 121 109 121 116 104 138 131 117 140 133 120 149 145 130 127 123 108 124 119 105 119 114 102 103 97  88  121 116 108 119 113 108 96  89  89  96  92  93  66  60  67  57  51  60  53  50  55  34  33  36  46  50  42  30  34  12  106 106 76  88  82  50  46  36  1   80  69  25  111 99  46  139 128 68  
182 181 72  155 152 55  168 164 74  148 144 54  173 169 82  210 205 122 196 190 112 186 181 110 184 178 114 133 127 68  209 203 141 217 214 138 201 199 115 144 142 54  181 179 93  154 154 72  160 159 78  191 191 107 155 154 75  157 156 83  209 206 139 174 171 102 168 166 94  155 155 73  199 198 121 166 165 102 159 156 107 139 136 98  145 141 108 126 122 92  180 176 141 159 158 108 179 179 120 213 212 146 196 193 128 210 206 144 204 201 134 204 203 126 167 165 93  148 145 93  151 146 109 144 137 110 168 161 133 127 121 86  141 136 94  109 106 55  109 107 51  136 132 76  178 173 120 178 173 124 146 140 94  123 117 69  135 130 79  147 143 85  185 182 117 176 175 100 162 162 80  166 167 75  195 196 104 162 163 76  128 126 40  121 120 27  133 133 38  152 151 58  195 194 105 131 128 47  134 132 60  145 141 79  152 147 92  193 190 141 126 122 75  142 138 94  108 106 61  146 144 99  176 174 132 181 178 138 202 199 163 188 184 151 98  95  62  101 97  64  82  79  43  75  72  34  184 179 140 150 145 106 65  58  20  132 124 86  161 155 109 203 197 136 216 213 136 173 169 86  194 191 99  166 166 59  172 171 65  178 175 83  155 151 63  147 144 49  176 173 76  170 168 66  157 155 54  157 157 55  184 182 94  167 161 100 112 103 61  130 118 93  124 112 91  111 100 74  99  91  41  179 178 83  189 192 77  172 173 66  147 148 47  147 147 49  160 160 64  142 141 46  189 190 89  110 111 8   142 142 42  189 189 95  179 177 89  128 126 40  174 173 84  206 204 114 151 150 57  139 136 41  149 147 49  156 154 56  210 207 110 194 193 100 227 226 133 208 208 110 197 198 98  140 137 42  173 171 76  165 165 65  135 135 35  139 141 45  142 144 52  167 168 76  194 193 111 209 205 143 197 192 141 183 176 135 175 167 131 148 140 106 149 143 97  201 199 124 194 194 109 187 185 108 183 183 99  169 172 71  208 212 99  215 220 100 194 200 77  188 197 76  201 209 90  202 207 91  218 222 116 185 187 95  195 194 113 196 196 114 148 148 64  180 180 93  204 203 113 196 193 98  170 168 66  136 136 27  156 156 42  205 206 87  161 161 49  144 142 47  147 143 55  132 131 40  221 220 127 200 199 104 185 184 89  170 168 78  188 186 102 224 220 149 181 174 120 105 97  63  75  65  39  70  63  22  155 150 95  194 192 119 175 174 97  149 149 76  218 219 141 166 170 80  134 137 47  134 133 54  140 137 59  198 194 104 187 184 94  139 132 59  107 100 30  184 182 96  178 175 96  133 128 75  97  89  53  95  88  61  150 144 123 118 112 96  110 105 93  115 110 103 103 99  96  113 108 107 109 104 106 98  96  95  106 105 101 102 104 92  106 108 96  106 107 102 101 102 97  106 108 96  109 108 97  113 110 99  121 118 108 124 119 107 106 101 89  108 101 87  121 114 100 87  80  66  170 161 144 150 142 120 124 117 94  93  87  66  91  88  64  117 118 86  115 118 85  102 103 80  95  94  74  110 109 89  109 108 88  108 107 87  108 107 87  107 106 85  106 104 84  102 101 81  98  99  78  97  99  75  91  93  69  90  92  68  95  96  73  98  100 76  94  95  72  94  95  72  98  99  78  90  90  76  104 102 91  78  75  64  66  63  53  72  69  59  78  73  63  86  81  71  89  86  80  79  74  74  86  81  85  93  88  92  96  88  93  98  90  95  93  86  91  94  87  92  101 96  100 103 100 103 99  97  100 95  92  95  90  87  91  97  94  97  90  87  91  85  82  88  84  81  89  78  74  85  88  84  92  88  85  90  78  76  77  89  87  83  87  86  77  83  83  71  80  80  66  77  78  62  76  76  60  76  76  60  75  75  59  74  74  58  73  73  57  75  75  59  76  76  60  68  70  55  68  70  55  68  70  55  68  70  55  70  72  58  76  78  64  77  79  65  75  74  63  90  84  77  82  76  71  75  69  64  75  69  64  76  70  65  89  81  77  91  83  79  80  74  70  73  67  65  77  71  68  70  64  61  80  74  72  103 96  94  102 98  95  102 98  95  102 98  95  95  91  88  94  92  88  85  84  80  97  95  91  101 97  94  95  91  88  103 99  96  98  93  90  101 97  94  92  88  82  98  94  86  91  86  74  93  86  72  101 95  76  102 96  75  95  87  67  116 108 88  136 128 106 113 104 77  98  90  56  82  74  29  128 121 64  159 153 82  180 174 103 156 145 90  164 153 111 93  81  57  78  66  57  99  86  84  96  85  84  94  86  77  108 102 83  175 172 137 132 129 93  89  84  60  77  71  55  109 102 86  86  83  63  71  69  42  83  80  56  65  57  48  87  78  76  79  69  70  94  84  85  88  79  77  69  61  57  87  79  70  109 102 90  129 121 110 110 103 90  107 98  81  107 100 73  150 144 99  158 150 98  144 134 85  140 129 81  148 138 87  137 128 72  107 99  36  69  61  0   87  78  22  109 100 44  112 104 40  100 93  25  86  79  11  70  62  0   114 106 43  109 101 40  89  83  24  130 123 66  175 168 116 87  79  29  92  84  34  118 110 63  110 102 57  139 131 86  157 152 103 168 163 110 163 159 99  188 183 126 188 181 136 150 142 109 99  89  67  96  89  66  168 162 125 169 163 126 158 153 127 126 119 106 104 96  90  86  77  75  101 95  93  78  72  69  98  93  90  100 96  93  110 106 103 88  84  81  101 97  94  102 98  95  103 96  94  79  73  70  92  86  83  85  79  76  76  69  67  79  73  70  104 98  93  93  87  82  101 95  91  99  93  88  93  87  82  77  71  66  86  77  73  88  79  75  89  83  78  98  92  87  112 106 101 121 115 110 114 108 103 117 111 106 118 112 107 119 113 108 115 109 105 121 115 110 121 115 110 115 109 105 118 112 107 119 113 108 120 114 107 121 116 108 121 116 108 121 116 108 121 116 106 121 116 106 121 116 106 121 116 106 124 118 109 125 119 110 128 123 111 120 115 103 118 113 101 121 116 104 125 120 108 126 121 109 125 120 108 124 119 107 119 114 104 121 116 108 124 118 111 126 120 113 131 125 118 131 125 118 131 125 118 131 125 118 126 120 115 106 100 95  94  88  84  99  93  88  97  91  86  96  90  85  96  90  85  99  93  88  94  88  84  110 104 99  128 122 117 119 113 108 118 112 107 117 111 106 132 126 121 112 106 101 124 117 113 132 126 121 131 124 120 120 114 109 121 115 110 98  92  87  93  87  82  111 105 100 99  93  88  94  88  84  106 100 95  117 111 106 135 131 126 99  95  89  95  92  86  89  86  80  94  93  84  94  93  84  94  93  84  94  93  84  91  92  83  84  85  76  77  78  69  68  71  66  64  71  71  55  64  68  51  59  63  46  54  58  48  57  61  52  60  64  54  63  67  57  63  66  68  68  66  80  78  72  105 104 98  111 110 103 96  95  88  96  95  88  96  95  88  96  95  88  96  95  88  103 102 95  111 110 103 117 116 109 95  92  84  121 118 110 113 109 101 123 120 112 131 128 120 125 122 114 104 101 93  121 116 108 112 107 97  119 114 104 122 117 108 119 114 104 129 124 114 113 108 98  119 114 104 124 118 109 133 128 118 112 107 97  110 104 95  110 104 95  124 118 109 108 103 94  139 133 124 131 125 116 118 112 105 120 114 107 104 98  91  100 95  87  99  93  86  99  93  86  99  93  86  99  93  86  98  92  85  96  90  83  106 100 93  122 117 110 117 111 104 103 97  90  125 119 112 117 111 104 107 102 92  104 98  89  104 98  89  107 102 92  100 95  85  100 95  85  100 95  85  100 95  85  98  93  83  104 98  89  113 108 98  119 114 104 126 119 110 129 121 112 131 125 116 132 126 117 122 117 108 113 108 98  107 102 92  108 103 94  107 102 92  107 102 92  106 103 92  106 103 92  107 102 90  107 102 90  107 102 90  108 104 92  109 107 94  114 111 99  115 111 99  119 114 102 116 109 95  116 109 95  122 115 101 129 122 108 133 126 113 141 135 121 130 123 109 138 131 117 153 146 135 144 136 125 136 128 117 124 117 105 101 93  82  117 110 99  123 116 104 129 121 110 103 95  87  104 96  88  139 132 121 140 133 122 124 117 105 126 119 108 141 135 121 137 130 116 148 144 129 128 124 109 121 117 102 108 104 92  108 103 94  128 123 115 119 113 108 84  77  77  86  81  85  59  53  60  53  47  56  48  45  53  44  45  51  26  29  26  48  52  28  73  74  38  98  93  53  128 119 74  119 109 56  98  87  29  100 87  25  
151 150 46  173 170 78  161 156 71  172 168 85  198 193 110 134 129 44  137 133 50  163 159 85  135 130 61  175 171 102 175 172 96  164 163 70  158 159 56  128 129 24  163 163 63  170 168 80  149 149 69  169 168 93  182 180 110 159 156 91  124 120 58  166 163 95  197 195 121 162 162 80  150 150 70  199 195 135 169 165 118 130 125 88  141 138 103 140 137 100 143 141 96  98  99  42  143 143 75  167 166 87  154 154 70  194 193 111 225 225 141 210 211 122 157 157 75  95  91  31  107 103 59  124 119 84  119 113 78  115 111 65  170 168 109 209 209 141 193 193 123 175 173 103 192 190 122 175 171 109 142 138 78  128 124 64  143 140 79  126 122 62  147 144 77  181 180 103 188 188 101 171 173 77  132 134 36  114 113 18  144 144 46  177 178 71  157 158 53  123 124 30  147 147 61  167 168 79  157 158 71  128 127 50  119 116 49  142 140 83  138 135 88  107 102 63  95  90  51  122 118 72  158 155 106 193 190 141 170 166 117 178 174 130 107 103 59  121 115 71  181 175 129 180 174 126 190 185 134 121 116 65  68  60  11  95  87  37  157 150 91  170 166 90  183 178 93  183 179 91  193 190 96  199 198 91  163 162 57  194 191 99  198 194 104 162 159 62  201 200 96  192 192 82  168 167 58  139 140 35  164 163 72  146 141 75  104 96  51  107 95  67  95  83  60  118 108 75  111 104 50  177 175 85  167 169 61  180 181 78  146 147 46  151 151 51  128 128 30  140 139 49  170 169 76  136 136 36  172 172 72  184 182 92  184 182 96  166 164 78  170 168 80  160 159 68  143 142 51  165 162 72  155 151 61  173 170 78  192 189 95  200 200 102 211 212 112 206 206 106 202 202 102 184 182 82  161 159 59  194 194 94  217 217 119 159 158 65  178 179 90  161 162 71  176 176 94  184 181 118 98  92  46  127 119 87  109 100 71  135 127 93  159 154 101 162 163 76  168 170 72  204 205 116 176 177 88  132 134 36  150 154 46  182 188 67  188 194 69  198 206 83  198 204 84  170 175 62  173 175 74  128 129 42  163 163 83  215 213 138 194 192 117 160 159 78  173 171 83  214 211 117 194 192 95  193 191 92  171 170 64  193 194 80  159 159 50  123 120 30  111 106 23  171 170 77  204 205 103 179 181 71  203 205 95  180 182 74  185 185 83  209 209 113 214 210 134 145 138 93  67  59  23  71  65  19  168 164 106 149 148 73  131 130 50  172 174 94  174 176 96  168 170 85  133 133 49  183 183 99  213 211 123 208 208 108 220 218 121 157 151 76  85  77  12  123 119 47  145 140 73  103 98  41  134 128 80  164 159 120 120 114 82  76  71  48  84  79  65  84  80  74  71  66  66  75  73  73  80  77  80  57  57  57  73  74  71  57  60  52  54  58  48  65  68  60  47  51  43  59  63  52  62  63  54  67  66  59  59  55  50  55  49  42  70  65  55  54  47  36  59  52  38  52  45  29  75  69  49  100 95  69  96  91  63  119 116 92  93  92  67  101 103 73  70  73  44  40  40  24  56  56  45  54  54  42  56  53  42  57  54  43  57  57  46  59  58  47  57  57  46  54  54  42  52  51  40  66  66  52  59  59  45  55  55  41  57  57  44  62  62  48  56  56  43  56  56  43  62  62  50  61  60  53  78  77  73  62  61  57  62  61  57  74  72  68  80  76  73  89  85  82  95  91  90  102 97  103 94  88  97  89  83  92  89  83  92  92  86  95  84  78  86  81  75  84  84  81  89  94  90  98  88  84  92  80  76  84  75  71  79  84  81  89  83  80  88  75  71  81  66  62  72  59  55  65  73  69  79  73  69  77  59  55  61  62  60  61  69  67  66  67  65  61  54  53  46  55  54  45  55  54  45  55  54  45  56  55  47  60  59  50  60  59  50  60  59  50  60  59  50  59  61  53  61  62  54  61  62  54  61  62  54  59  61  53  68  69  61  71  72  65  70  69  63  68  64  61  70  64  61  69  62  60  66  60  58  68  61  59  83  76  76  85  78  78  70  66  62  84  79  76  79  75  72  68  64  61  81  77  74  96  92  89  96  92  89  96  92  89  95  93  89  94  92  88  94  92  88  85  84  80  97  95  91  98  93  90  92  88  84  100 96  93  94  90  87  104 101 95  106 102 96  113 109 103 104 98  91  100 91  85  90  82  76  87  79  72  91  84  73  109 101 83  120 112 92  114 104 83  112 103 76  82  72  37  151 143 95  165 157 96  162 154 89  165 154 94  203 192 143 136 125 92  92  82  62  103 91  81  88  78  72  82  74  66  100 93  75  160 157 119 147 145 103 109 105 70  74  70  37  152 149 113 129 126 88  143 140 98  126 124 84  69  61  38  93  84  71  80  70  62  56  48  42  97  89  85  121 112 106 76  69  58  98  91  78  115 107 98  109 102 90  121 112 97  109 99  73  122 113 68  120 111 55  122 114 53  141 133 72  134 125 67  152 144 85  148 140 77  114 106 45  125 115 63  93  83  34  86  77  23  102 93  37  111 102 43  147 138 77  130 122 63  86  77  19  89  83  26  90  83  29  112 105 53  88  80  30  89  80  38  83  73  38  107 95  67  118 107 79  118 110 74  113 107 61  123 119 56  128 126 58  131 127 65  121 116 63  165 160 121 173 168 131 163 159 112 124 120 78  142 135 108 95  88  72  111 103 97  100 91  89  110 103 101 78  72  69  100 96  93  96  92  89  110 106 103 82  78  75  108 104 101 107 103 100 106 100 97  80  74  72  93  87  84  86  80  77  77  71  68  80  74  72  110 104 99  99  93  88  107 101 96  105 99  94  94  88  84  76  70  65  86  77  73  95  86  82  89  83  78  98  92  87  112 106 101 121 115 110 106 100 95  110 104 99  113 107 102 117 111 106 112 106 101 117 111 106 117 111 106 112 106 101 122 116 112 120 114 109 119 113 106 118 112 105 118 112 105 118 112 105 118 112 103 118 112 103 114 109 99  118 112 103 121 116 106 124 118 109 129 124 114 119 114 104 111 105 96  110 104 95  113 108 98  119 114 104 122 117 108 126 121 111 119 113 106 121 116 108 122 117 110 126 120 113 128 123 115 128 123 115 128 123 115 128 123 115 121 115 110 103 97  92  94  88  84  100 94  89  94  88  84  94  88  84  94  88  84  97  91  86  90  84  79  110 104 99  128 122 117 114 108 103 114 108 103 119 113 108 134 128 123 110 104 99  113 107 102 127 121 116 128 122 117 115 109 105 124 117 113 94  88  84  90  84  79  113 107 102 106 100 95  100 94  89  99  93  88  110 104 99  128 124 119 107 103 98  94  90  85  91  87  81  95  94  85  95  94  85  95  94  85  95  94  85  92  94  84  85  87  77  78  80  70  69  73  67  64  71  71  55  64  68  50  58  62  46  54  58  47  56  60  52  60  64  54  63  67  56  62  65  68  68  66  75  74  67  102 100 94  110 109 102 96  95  88  96  95  88  96  95  88  96  95  88  96  95  88  103 102 95  111 110 103 117 116 109 94  91  83  120 116 108 106 102 94  124 121 113 134 130 122 127 123 115 103 100 92  117 114 106 110 104 95  118 112 103 121 116 106 117 111 102 125 119 110 110 104 95  118 112 103 124 118 109 131 125 116 110 104 95  107 102 92  107 102 92  122 117 108 114 109 99  128 123 113 135 130 120 117 111 104 120 114 107 105 99  92  92  86  79  99  93  86  99  93  86  99  93  86  99  93  86  98  92  85  98  92  85  101 96  89  106 100 93  122 117 110 107 102 94  125 119 112 126 120 113 112 107 97  104 98  89  104 98  89  112 107 97  107 102 92  107 102 92  107 102 92  107 102 92  106 101 91  114 109 99  125 119 110 133 128 118 127 120 111 131 123 114 132 126 117 134 129 119 122 117 108 113 108 98  107 102 92  108 103 94  107 102 92  107 102 92  106 103 92  106 103 92  107 102 90  107 102 90  107 102 90  107 102 90  113 110 97  111 109 96  114 109 97  119 114 102 116 109 95  112 105 92  121 114 100 133 126 113 124 117 103 138 131 117 132 125 112 126 119 106 140 133 122 127 120 109 125 118 107 108 100 89  109 102 90  123 116 104 116 109 97  123 116 104 118 110 102 103 95  87  134 127 116 134 127 116 122 114 103 130 123 111 144 137 123 134 128 114 140 135 121 124 119 105 114 110 95  94  90  78  118 112 103 127 121 114 112 106 101 82  75  75  89  84  88  61  56  62  57  51  60  53  49  59  47  48  59  36  38  39  93  97  75  111 109 76  100 93  52  106 96  47  116 104 49  118 107 47  108 95  33  
167 162 66  184 178 89  180 173 91  127 121 44  162 157 76  164 160 75  172 168 81  173 169 84  198 193 110 189 184 101 152 149 59  155 154 49  165 165 56  170 169 62  178 176 79  192 190 104 115 111 37  139 133 72  142 135 78  118 111 57  147 141 84  203 197 138 228 223 156 180 176 102 136 131 62  194 188 138 138 130 94  119 112 84  99  92  65  101 97  62  110 109 61  200 200 132 199 201 116 203 205 107 180 180 80  160 159 66  190 189 99  216 215 126 154 151 73  135 128 69  121 116 67  109 102 61  107 101 55  197 194 127 154 153 74  197 197 111 176 177 88  173 173 86  224 224 140 224 223 142 189 188 111 154 150 81  116 110 46  137 130 73  171 164 105 126 121 55  153 150 71  165 164 73  129 129 31  126 126 29  167 168 63  168 171 54  150 152 40  164 165 76  126 126 42  133 135 37  173 176 72  147 149 51  107 107 23  156 152 92  166 159 116 121 113 80  100 93  57  127 121 73  220 216 160 232 228 166 184 181 116 183 180 115 195 189 127 206 200 138 157 151 89  196 191 127 189 184 120 196 191 127 161 153 89  156 148 85  157 150 82  132 126 50  102 97  17  154 149 66  206 202 113 178 177 73  159 159 52  220 218 118 171 169 68  146 146 32  198 199 78  203 204 81  192 193 74  208 209 104 156 154 64  72  67  0   94  88  28  103 96  42  87  81  21  92  87  16  163 160 79  145 144 53  136 135 40  123 123 27  164 163 70  163 161 71  160 158 72  128 124 46  135 132 51  175 174 83  165 164 69  194 193 102 170 168 78  168 168 74  139 139 43  151 150 55  156 155 62  161 157 67  156 152 63  190 187 94  155 152 57  182 180 80  201 199 100 213 211 112 193 192 90  182 180 76  127 126 21  159 158 54  210 208 108 221 220 129 210 208 126 128 127 52  84  81  14  159 154 97  133 126 83  139 129 105 96  86  62  86  80  36  162 159 92  184 186 90  204 208 102 189 190 97  171 172 83  140 140 54  111 112 23  119 121 25  178 182 78  169 173 67  184 187 84  177 176 81  172 170 84  149 145 69  125 120 54  150 143 88  149 141 87  179 175 103 166 164 78  155 152 59  141 138 43  152 149 59  190 187 94  187 185 86  154 151 56  161 155 75  199 194 114 192 191 96  189 191 81  209 213 91  216 221 94  221 225 101 208 212 90  217 221 101 210 211 108 190 188 116 100 97  36  149 147 79  192 190 118 162 161 86  154 153 76  204 204 122 167 167 81  141 142 51  185 184 89  228 228 128 188 189 86  190 192 87  210 211 110 199 197 111 164 161 82  131 128 51  154 151 73  143 143 63  183 182 107 178 177 112 144 141 92  139 135 102 97  93  76  74  71  65  80  75  77  68  66  64  80  78  74  76  77  68  80  82  72  54  58  50  59  62  57  69  73  65  50  53  45  67  71  63  64  64  64  61  57  69  61  55  68  55  47  54  56  50  45  62  57  43  121 118 94  146 142 109 141 138 101 150 147 109 57  56  22  108 107 83  88  89  68  90  94  69  84  87  68  73  75  65  61  61  59  56  56  56  57  55  56  59  56  57  57  57  57  58  58  58  59  59  59  61  61  61  61  61  61  59  59  61  59  59  61  59  59  61  59  59  61  58  58  60  58  58  60  58  58  58  58  58  58  61  60  63  80  80  82  64  64  66  80  80  82  85  85  85  85  83  84  76  74  75  84  82  83  84  81  85  84  81  87  85  82  88  87  83  89  92  90  93  84  81  85  83  80  84  90  87  91  81  78  81  89  86  89  90  87  91  69  66  70  85  83  86  88  85  88  84  81  85  62  59  63  61  58  61  75  73  73  75  73  73  61  59  57  80  78  76  71  70  66  61  59  55  53  51  47  62  61  57  62  61  57  62  61  57  62  61  57  62  60  59  67  65  63  67  65  63  60  58  56  64  64  62  64  64  62  64  64  62  64  64  62  65  66  63  69  69  67  72  73  70  75  75  70  74  73  66  78  74  68  77  73  67  72  68  63  68  65  59  81  77  74  84  79  76  74  73  66  80  78  72  76  75  68  64  63  57  76  75  68  91  90  86  83  81  77  83  81  77  91  90  86  95  93  89  94  92  88  83  81  77  94  92  88  98  93  90  84  79  76  81  78  72  92  88  82  85  81  75  88  85  79  103 100 94  118 111 109 122 113 111 118 109 108 111 102 101 101 92  88  106 96  84  108 100 82  110 98  84  103 92  73  131 121 95  159 149 112 144 136 84  158 150 91  172 161 101 184 175 119 197 189 142 139 129 94  98  89  62  89  78  61  92  83  70  99  90  73  110 101 72  172 162 122 193 185 135 104 98  39  142 136 70  172 167 98  176 173 106 143 140 75  121 117 59  128 122 76  85  77  43  85  77  53  102 94  76  88  79  64  81  75  54  110 104 87  119 111 105 126 119 110 154 146 123 133 125 91  135 126 83  134 124 71  141 132 64  147 138 66  152 142 75  121 112 47  125 117 49  122 114 51  104 93  44  118 106 64  141 130 86  122 112 65  108 98  49  135 125 74  113 103 50  132 122 68  153 147 90  129 122 63  139 133 74  153 146 94  140 131 93  95  83  58  82  69  53  90  77  61  95  85  61  112 105 66  155 151 91  159 156 86  164 162 94  178 175 112 175 170 117 117 110 65  114 107 66  141 133 101 114 106 84  112 103 87  108 100 93  87  78  76  100 94  91  73  67  65  98  93  90  94  90  87  110 106 103 91  86  83  108 104 101 114 110 107 113 107 104 83  76  74  92  86  83  85  79  76  76  69  67  79  73  70  115 109 105 105 99  94  113 107 102 111 105 100 106 100 95  87  81  77  90  82  78  91  83  79  98  90  86  114 105 101 124 116 112 123 114 110 114 105 101 122 113 109 119 111 107 112 104 100 112 106 101 117 111 106 117 111 106 113 107 102 118 112 107 121 115 110 118 112 105 111 105 98  119 113 106 119 113 106 119 114 104 119 114 104 121 116 106 127 122 112 127 122 112 121 116 106 132 126 117 124 118 111 118 112 105 119 113 106 124 118 111 124 118 111 124 118 111 124 118 111 124 118 111 121 115 110 122 116 112 124 117 113 128 122 117 134 128 123 135 129 124 131 124 120 111 105 100 97  91  86  96  90  85  100 94  89  94  88  84  94  88  84  94  88  84  96  90  85  94  88  84  94  88  84  118 112 107 108 102 98  112 106 101 121 115 110 125 119 114 103 97  92  111 105 100 132 126 121 128 122 117 104 98  93  115 109 105 91  85  80  91  85  80  115 109 105 101 95  91  104 98  93  107 101 96  110 104 99  110 107 101 122 118 113 87  83  78  93  89  84  91  90  84  91  90  84  91  90  84  91  90  84  91  92  85  85  86  79  78  79  72  71  74  68  60  67  67  54  63  67  50  58  62  46  54  58  47  56  60  52  60  64  54  63  67  56  62  65  66  67  64  81  80  73  94  92  86  106 105 99  103 102 95  91  90  84  96  95  88  96  95  88  91  90  84  103 102 95  115 113 107 111 110 103 91  87  79  116 113 105 104 101 93  120 116 108 127 123 115 122 119 111 114 111 103 115 112 104 114 109 99  114 109 99  120 115 105 111 105 96  127 122 112 114 109 99  105 100 90  124 118 109 124 118 109 119 114 104 106 101 91  112 107 97  119 114 104 106 101 91  112 107 97  139 133 124 119 113 106 103 97  90  93  88  80  101 96  89  99  93  86  101 96  89  101 96  89  100 95  87  101 96  89  101 96  89  99  93  86  97  91  84  118 112 105 125 119 112 139 133 126 133 127 120 113 108 98  121 116 106 121 116 106 113 108 98  119 114 104 121 116 106 125 119 110 126 121 111 125 119 110 124 118 109 124 118 109 124 118 109 129 121 112 131 123 114 136 128 119 138 130 121 130 122 113 118 110 102 108 103 94  104 98  89  108 103 94  108 103 94  107 104 94  107 104 94  108 103 94  108 103 94  108 103 94  108 103 94  126 121 109 112 107 95  115 111 99  117 112 100 123 116 102 129 122 108 112 105 92  130 123 109 103 96  83  138 131 117 130 123 109 129 122 108 119 112 101 124 117 105 122 114 103 118 111 100 115 107 96  122 114 103 104 97  86  134 127 116 137 129 120 109 101 92  136 128 117 127 120 109 131 124 112 132 125 114 145 138 126 141 134 123 134 129 117 135 130 118 117 112 100 110 105 93  113 108 98  121 116 108 110 104 99  94  88  88  106 100 104 67  62  68  49  46  54  40  38  48  39  40  51  59  61  65  62  64  48  114 112 83  85  77  43  65  54  10  127 116 60  134 124 63  101 88  27  
137 131 42  169 163 76  170 164 79  152 147 69  170 164 87  99  95  10  178 174 87  184 180 92  175 171 81  161 157 65  213 211 112 190 190 78  193 194 78  185 185 76  133 131 31  163 161 73  158 154 78  75  69  8   92  85  28  107 100 41  161 155 94  199 193 131 209 204 139 180 176 104 165 159 97  135 129 85  77  68  39  96  89  66  93  86  61  84  81  46  180 177 126 201 202 127 194 195 103 186 187 84  192 193 88  175 175 79  188 187 96  205 201 113 192 187 109 186 181 114 177 170 113 130 124 72  139 135 73  195 195 110 195 197 100 201 202 108 118 119 30  146 146 60  176 176 92  218 218 132 218 218 134 195 192 113 156 151 80  172 166 104 196 191 127 204 201 127 157 154 71  147 147 52  157 157 57  194 194 94  182 183 78  178 181 64  196 199 86  175 176 87  135 136 49  174 177 73  181 185 74  167 170 64  168 169 78  154 152 82  153 146 92  193 184 139 150 141 94  200 193 136 223 218 153 204 200 129 206 200 125 190 184 108 149 143 68  198 192 117 214 208 133 191 185 110 144 138 63  179 173 98  178 172 97  154 148 72  126 120 44  126 118 41  197 189 112 200 195 117 194 190 105 198 196 96  191 190 85  177 175 75  137 136 32  158 159 41  179 182 56  177 180 51  179 181 60  197 199 94  184 183 88  126 125 37  186 183 100 193 190 109 197 195 110 184 183 88  181 181 83  150 149 56  190 189 101 170 168 82  182 180 95  147 146 58  95  93  7   121 117 39  68  65  0   97  95  14  158 156 70  196 195 106 179 178 87  172 171 76  172 172 74  166 166 68  130 130 34  171 168 78  183 179 89  176 172 82  170 167 74  203 200 103 187 185 86  157 155 58  144 143 41  176 175 66  162 162 50  173 173 64  205 204 99  211 211 118 234 231 150 176 174 102 134 131 66  188 183 126 185 180 131 128 120 89  74  65  34  120 115 62  208 206 131 178 180 86  176 179 78  150 152 56  171 172 83  174 173 92  139 138 59  169 169 85  178 180 88  160 162 65  177 179 85  193 190 111 208 203 134 168 162 101 137 129 79  137 127 91  133 124 86  164 157 102 174 169 100 196 190 110 198 194 108 178 174 89  187 183 96  130 127 37  151 147 60  128 123 43  146 140 60  117 116 23  129 130 23  192 195 76  206 210 86  194 199 72  199 203 77  180 185 58  189 192 77  189 190 99  181 180 99  217 217 133 199 199 115 155 155 73  174 174 90  215 216 122 176 178 80  180 181 78  208 209 102 203 205 95  131 133 25  159 160 55  159 159 59  156 156 58  194 193 100 174 172 86  174 172 86  175 176 85  205 206 115 193 196 108 70  70  0   116 114 71  136 133 113 85  79  76  88  83  85  75  72  64  64  65  49  166 168 142 149 151 128 78  80  70  62  62  60  71  72  67  51  52  47  69  70  63  64  64  64  51  46  61  54  47  65  61  55  64  78  72  69  142 138 123 190 187 163 162 159 126 173 170 130 132 132 87  82  84  45  131 132 109 79  82  67  69  74  61  57  61  50  51  54  50  60  63  62  56  55  58  56  55  60  57  56  61  57  56  61  57  58  62  58  59  63  59  61  65  59  61  65  58  59  65  58  59  65  58  59  65  58  59  65  57  58  64  57  58  64  57  58  64  57  58  64  61  63  69  73  75  79  51  52  56  67  69  73  75  77  79  80  80  82  78  78  80  92  92  94  94  94  96  77  76  79  69  68  71  76  75  78  98  97  100 91  90  93  86  86  88  85  85  87  81  78  81  81  78  81  91  88  92  71  69  72  84  81  85  85  83  84  90  88  88  66  63  64  64  62  63  78  76  75  78  76  75  64  62  61  76  74  72  70  68  67  62  60  59  56  54  53  62  60  59  62  60  59  62  60  59  62  60  59  68  66  66  73  70  71  73  70  71  66  63  64  59  59  59  59  59  59  59  59  59  59  59  59  61  61  61  64  64  64  68  68  68  70  70  68  74  73  66  67  66  59  66  64  58  70  69  63  82  81  74  90  89  82  88  87  80  73  75  67  76  77  70  77  78  71  65  66  59  72  73  66  93  94  89  90  90  86  90  90  86  93  94  89  97  97  93  95  93  89  82  80  76  90  88  84  103 99  96  88  84  81  84  80  74  93  89  84  82  79  73  89  86  80  85  81  75  90  83  81  96  87  86  100 91  89  98  90  88  100 91  87  121 111 103 101 92  79  102 90  78  117 106 89  140 130 106 146 137 106 118 109 69  113 102 56  170 159 104 156 146 86  178 170 109 153 147 90  127 121 73  118 110 72  89  82  57  114 104 83  139 128 100 78  66  27  144 135 79  171 164 94  177 171 94  174 171 90  150 147 68  172 168 92  184 180 106 167 164 97  164 159 110 77  69  33  86  79  52  171 164 139 167 163 132 108 103 77  126 119 110 121 111 101 145 136 107 135 125 85  144 134 87  139 130 71  134 125 55  139 131 56  125 116 46  98  89  21  100 93  25  140 131 72  157 146 104 147 134 102 132 119 86  128 115 83  116 103 71  100 88  51  95  84  42  106 95  49  109 102 47  123 117 55  181 176 112 157 150 91  92  82  40  128 117 86  85  72  51  87  74  53  125 116 87  152 145 102 146 143 78  181 179 105 176 175 98  156 154 82  175 171 109 135 130 77  89  82  41  135 127 95  121 113 91  91  81  69  126 118 112 93  84  82  102 93  91  76  69  67  112 105 103 103 99  96  117 113 110 96  92  89  108 104 101 114 110 107 113 107 104 83  76  74  94  88  86  87  81  79  78  72  69  82  75  73  115 109 105 105 99  94  113 107 102 111 105 100 108 102 98  96  88  84  97  89  85  94  85  81  107 98  94  112 104 100 117 109 105 116 107 103 110 102 98  117 109 105 119 111 107 115 106 102 117 111 106 119 113 108 114 108 103 105 99  94  111 105 100 118 112 107 121 116 108 118 112 105 119 113 106 119 113 106 119 114 104 119 114 104 121 116 106 127 122 112 127 122 112 121 116 106 129 124 117 121 116 108 117 111 104 117 111 104 117 111 104 117 111 104 117 111 104 117 111 104 122 116 112 124 117 113 121 115 110 121 115 110 128 122 117 133 127 122 132 126 121 126 120 115 103 97  92  97  91  86  96  90  85  99  93  88  96  90  85  96  90  85  96  90  85  96  90  85  94  88  84  94  88  84  119 113 108 108 102 98  111 105 100 122 116 112 125 119 114 104 98  93  106 100 95  132 126 121 128 122 117 99  93  88  115 109 105 91  85  80  91  85  80  115 109 105 99  93  88  101 95  91  105 99  94  107 101 96  100 96  91  125 122 116 88  85  79  95  92  86  91  90  84  91  90  84  91  90  84  91  90  84  91  92  87  85  86  81  78  79  72  71  73  70  60  67  69  54  63  67  48  57  61  46  54  58  46  54  58  51  59  63  54  63  67  56  62  65  69  69  67  83  82  75  88  87  80  102 100 94  103 102 95  90  89  82  95  93  87  94  92  86  91  90  84  103 102 95  115 113 107 111 110 103 92  88  80  117 114 106 100 97  89  123 120 112 127 123 115 122 119 111 114 111 103 115 112 104 112 107 97  112 107 97  119 114 104 110 104 95  129 124 114 117 111 102 106 101 91  125 119 110 124 118 109 119 114 104 106 101 91  112 107 97  118 112 103 115 110 101 107 102 92  135 130 120 110 104 97  93  88  80  94  89  82  103 97  90  96  90  83  105 99  92  105 99  92  96  90  83  97  91  84  99  93  86  103 97  90  105 99  92  112 106 99  122 117 110 133 127 120 134 128 121 115 110 101 119 114 104 119 114 104 115 110 101 125 119 110 127 122 112 131 125 116 132 126 117 132 126 117 132 126 117 132 126 117 131 125 116 131 123 114 131 123 114 133 126 117 134 127 118 126 119 110 117 109 101 110 104 95  107 102 92  108 103 94  108 103 94  107 104 94  107 104 94  108 103 94  108 103 94  108 103 94  108 103 94  126 121 109 112 107 95  117 112 100 115 111 99  121 114 100 126 119 106 110 103 90  127 121 107 114 107 93  138 131 117 132 125 112 130 123 109 130 123 111 123 116 104 125 118 107 119 112 101 107 99  88  116 109 97  110 103 92  133 126 115 137 129 120 104 96  88  127 120 109 123 116 104 132 125 114 134 127 116 139 132 121 140 133 122 127 122 110 134 129 117 125 120 108 125 120 108 107 102 92  119 113 106 111 104 102 98  91  91  110 105 109 63  57  63  44  40  48  40  38  46  41  42  51  51  52  56  34  35  26  40  39  19  44  37  12  71  60  27  116 106 57  103 92  34  132 119 60  
167 159 80  134 128 39  148 142 53  157 152 72  172 167 89  163 158 76  144 140 55  156 152 67  154 150 62  185 182 90  120 118 16  157 158 41  189 190 71  149 149 37  163 161 59  184 183 90  179 176 93  121 117 43  125 121 52  150 146 72  145 142 65  110 106 34  187 182 113 186 181 110 171 165 103 124 116 78  84  75  48  80  72  52  91  83  58  113 107 71  148 145 91  147 145 71  153 154 63  161 161 63  169 166 69  176 172 84  169 164 79  176 171 86  170 165 83  206 202 124 180 176 100 135 133 61  208 207 125 198 201 100 195 198 94  177 178 91  111 109 35  136 134 66  147 144 77  198 197 120 195 194 113 174 172 88  145 142 61  168 164 91  196 193 115 174 173 80  177 177 75  197 199 89  199 201 91  184 182 80  171 169 68  170 169 60  209 211 103 176 178 82  167 168 74  143 147 43  153 156 50  161 162 61  156 155 62  186 183 100 213 209 133 213 207 134 204 197 124 228 222 149 152 147 71  191 185 110 226 218 141 208 200 119 176 169 85  231 224 140 184 178 91  199 193 108 161 154 70  111 104 20  134 127 43  133 126 42  154 147 65  139 131 54  201 192 118 201 195 124 198 192 117 210 206 116 183 180 85  170 167 74  177 175 77  171 171 62  171 172 55  177 178 59  176 176 62  163 164 59  174 175 70  178 180 68  184 186 71  164 165 58  147 148 45  179 180 75  168 169 68  171 170 77  142 139 56  108 103 32  161 157 84  159 158 67  154 154 58  165 163 75  122 119 40  93  88  17  128 123 52  188 185 104 143 142 51  163 162 67  197 198 98  201 201 101 152 152 56  171 168 78  166 162 77  173 169 86  204 199 114 206 203 109 178 176 79  185 182 88  211 209 109 217 217 101 183 184 63  164 165 46  169 169 57  182 183 82  215 214 123 228 228 146 192 190 118 166 162 100 120 116 60  114 109 56  177 173 117 195 191 131 210 208 138 120 119 40  104 104 18  153 155 58  205 207 113 218 218 136 208 207 127 219 219 135 206 207 118 194 195 101 175 175 91  149 143 79  129 121 71  108 98  58  112 101 71  103 91  70  92  79  60  87  75  47  154 145 105 179 170 114 157 151 78  150 146 59  177 174 81  113 109 19  130 127 37  175 171 81  196 192 104 139 137 51  138 137 46  215 215 117 189 190 85  167 169 59  208 211 96  196 199 82  204 207 94  175 178 73  171 174 73  171 174 73  150 153 54  168 170 74  196 198 100 215 218 110 187 192 74  221 225 103 201 205 83  193 195 85  189 190 87  147 147 52  137 137 39  163 164 55  168 170 60  181 181 85  149 147 57  141 142 51  191 193 97  174 181 72  134 138 43  129 128 76  94  88  69  75  66  67  77  70  70  89  85  66  100 101 64  222 226 175 198 201 154 99  97  81  74  70  69  74  70  69  54  50  47  72  68  63  67  63  60  63  60  64  46  43  48  85  83  84  98  93  90  57  54  43  47  42  28  49  45  26  71  69  38  170 172 121 180 183 137 118 119 100 41  42  37  53  56  55  51  53  52  53  58  56  60  63  62  54  57  54  54  57  54  55  58  55  55  58  55  57  59  58  56  61  59  57  62  61  57  62  61  56  61  61  56  61  61  56  61  61  56  61  61  55  59  62  54  58  61  54  58  61  54  58  61  57  61  65  69  73  74  55  59  60  82  86  87  78  83  84  81  83  85  74  76  78  85  87  88  92  93  97  71  72  76  59  61  65  64  65  69  86  87  91  87  89  93  86  87  91  83  82  87  79  78  83  69  68  73  91  90  95  75  74  79  83  80  86  80  77  80  96  93  96  66  63  66  64  62  63  78  76  77  78  76  77  64  62  63  71  69  70  68  66  66  63  61  62  61  59  59  61  59  59  63  61  62  62  60  61  62  60  61  68  66  66  73  70  71  73  70  71  66  63  64  66  67  64  66  67  64  66  67  64  66  67  64  68  68  66  71  71  69  75  75  72  77  77  75  72  73  68  79  80  75  78  79  74  69  69  65  71  72  67  79  80  75  77  78  73  62  66  60  72  75  69  78  81  75  67  70  65  67  70  65  80  83  77  83  87  81  83  87  81  80  83  77  101 102 97  95  96  91  78  79  74  85  84  80  106 102 98  87  83  80  79  75  72  85  81  77  89  86  80  98  94  88  86  82  77  100 95  87  89  81  75  91  84  75  82  75  64  107 99  90  103 93  87  92  81  76  103 91  79  131 120 101 82  72  48  102 92  66  115 103 75  122 110 75  155 142 97  183 172 112 152 147 71  167 164 83  178 174 98  174 170 108 103 99  57  100 94  62  149 141 107 112 105 64  175 168 114 204 199 135 137 133 61  123 121 46  128 126 54  147 145 73  156 156 76  149 149 76  158 156 102 95  91  49  80  74  40  136 130 96  187 183 141 124 119 82  134 125 110 98  88  76  128 120 89  154 146 99  169 160 102 152 145 79  109 99  34  102 92  27  110 100 35  70  60  0   106 98  35  140 130 78  143 130 98  116 101 81  135 120 102 129 113 100 127 110 100 150 134 121 115 101 78  81  69  34  97  90  38  117 111 49  156 151 82  163 157 91  123 117 57  160 153 101 118 110 65  79  70  25  148 143 92  93  90  27  120 119 42  218 218 132 198 199 108 168 168 82  170 168 100 187 182 127 173 167 117 139 131 93  113 105 83  101 91  81  168 157 153 110 99  98  104 95  94  88  79  77  105 98  96  97  90  88  106 102 98  86  82  79  108 104 101 114 110 107 111 107 104 81  77  74  96  92  89  89  85  82  80  76  73  84  79  76  115 109 105 105 99  94  113 107 102 111 105 100 114 105 101 105 97  93  109 98  95  99  88  85  109 100 96  108 99  95  112 104 100 118 110 106 115 106 102 111 103 99  111 103 99  116 107 103 119 113 108 119 113 108 110 107 101 102 99  93  109 105 100 116 112 107 120 116 108 116 113 105 119 113 106 119 113 106 119 114 104 119 114 104 121 116 106 127 122 112 127 122 112 121 116 106 127 121 114 119 113 108 113 107 102 114 108 103 114 108 103 114 108 103 114 108 103 114 108 103 118 112 107 122 116 112 124 117 113 121 115 110 129 123 119 132 126 121 127 121 116 119 113 108 103 97  92  96  90  85  93  87  82  100 94  89  96  90  85  96  90  85  96  90  85  96  90  85  94  88  84  94  88  84  119 113 108 107 101 96  111 105 100 122 116 112 125 119 114 104 98  93  100 94  89  132 126 121 128 122 117 92  86  81  114 108 103 91  85  80  91  85  80  115 109 105 96  90  85  98  92  87  101 95  91  104 98  93  94  90  85  118 115 109 98  94  88  95  92  86  91  90  84  91  90  84  91  90  84  91  90  84  91  92  87  85  86  81  78  79  72  71  73  70  60  67  69  54  63  67  48  57  61  46  54  58  45  53  57  52  60  64  54  63  67  56  62  65  68  68  66  85  84  78  83  82  75  96  95  88  106 105 99  92  91  85  95  93  87  92  91  85  91  90  84  104 103 96  115 113 107 111 110 103 93  90  82  117 114 106 93  90  82  128 125 117 127 123 115 122 119 111 114 111 103 115 112 104 110 104 95  110 104 95  117 111 102 106 101 91  132 126 117 119 114 104 110 104 95  128 123 113 124 118 109 119 114 104 106 101 91  112 107 97  121 116 106 115 110 101 113 108 98  126 121 111 100 95  87  94  89  82  97  91  84  101 96  89  99  93  86  101 96  89  101 96  89  98  92  85  97  91  84  99  93  86  103 97  90  105 99  92  105 99  92  117 111 104 127 121 114 135 130 122 119 114 104 115 110 101 115 110 101 119 114 104 125 119 110 127 122 112 131 125 116 132 126 117 132 126 117 132 126 117 132 126 117 132 126 117 133 126 117 132 124 116 130 122 113 129 121 112 124 116 108 115 107 98  111 105 96  111 105 96  108 103 94  108 103 94  107 104 94  107 104 94  108 103 94  108 103 94  108 103 94  108 103 94  126 121 109 112 107 95  117 112 100 115 111 99  117 110 96  123 116 102 107 100 86  124 117 103 111 104 91  121 114 100 121 114 100 116 109 95  129 121 110 107 99  88  114 106 95  107 99  88  107 99  88  114 106 95  112 105 94  121 113 102 132 124 116 103 95  87  129 121 110 129 121 110 131 124 112 137 129 118 133 126 115 139 132 121 119 114 102 129 124 112 124 119 107 126 121 109 103 97  88  111 105 100 99  92  92  84  77  79  94  88  95  59  53  62  46  42  50  41  40  47  45  47  51  43  45  46  57  57  55  39  36  30  30  20  14  75  62  44  65  54  12  85  74  19  88  75  18  
206 199 120 189 183 94  153 147 56  162 158 70  129 125 40  149 145 60  171 167 82  123 119 34  193 189 102 149 146 54  168 166 64  178 178 64  197 198 79  182 182 68  172 171 65  125 125 29  121 119 33  138 135 56  146 143 64  186 183 100 223 221 137 189 186 108 171 167 93  168 164 91  188 182 121 125 117 79  90  80  56  109 98  79  134 126 102 170 165 126 146 142 84  174 173 96  178 177 84  227 226 121 208 207 103 193 190 98  194 190 105 224 219 136 196 191 108 168 166 83  182 180 97  169 169 85  191 192 101 183 186 83  178 181 80  163 163 81  138 135 66  196 192 132 149 146 83  173 171 96  150 151 66  153 152 63  156 154 66  185 182 99  206 204 118 182 182 84  166 167 62  166 168 56  156 157 48  175 173 71  201 199 100 192 191 85  177 176 69  168 170 64  196 199 96  174 177 73  177 177 75  206 206 104 188 189 88  192 192 94  208 208 110 198 195 100 196 192 100 214 210 123 210 205 122 190 183 103 204 197 115 240 233 149 211 205 116 181 175 86  176 171 79  173 167 76  182 176 85  196 190 99  165 159 67  202 196 107 159 152 66  146 139 57  138 130 53  177 171 96  185 180 102 190 185 100 156 152 63  187 184 94  183 180 85  170 169 64  162 161 52  151 151 40  177 176 67  147 148 45  165 166 59  187 190 71  175 179 57  152 155 40  192 194 84  184 185 80  137 137 37  168 167 76  193 190 109 83  79  10  115 111 37  126 126 33  178 178 78  166 166 70  135 132 49  137 132 63  170 165 96  152 149 68  161 160 70  196 196 98  190 191 91  197 198 98  196 196 98  169 166 73  157 153 68  197 192 111 176 171 88  180 176 89  179 176 86  227 223 134 210 207 110 186 186 75  178 180 58  190 192 66  162 163 42  144 145 40  195 195 99  208 208 119 184 184 102 191 189 117 185 183 113 204 202 130 160 158 84  136 135 62  145 143 71  161 159 85  183 183 101 195 196 102 180 181 87  157 157 73  132 131 50  132 132 46  169 169 85  155 154 75  154 151 84  121 112 65  86  76  38  109 100 57  117 107 70  109 97  74  87  74  56  103 91  68  130 120 84  90  80  28  116 109 41  162 158 70  139 135 43  155 151 63  152 149 59  172 170 73  155 152 57  157 154 71  105 103 22  161 159 74  164 163 70  197 199 91  181 184 71  149 150 43  153 155 47  202 206 95  196 200 91  183 187 81  185 189 85  192 195 94  210 213 107 203 208 90  192 199 74  199 203 77  208 212 88  213 215 103 220 221 116 214 214 116 156 156 56  217 219 109 157 158 51  146 145 54  145 142 63  113 112 35  150 151 64  194 201 91  216 221 124 130 127 76  70  65  42  84  77  68  67  59  50  90  85  62  123 120 80  189 190 130 175 175 122 77  72  51  63  55  49  77  69  65  58  49  45  75  67  63  69  63  58  51  48  47  50  50  50  52  52  52  94  92  88  125 125 113 101 99  82  83  80  56  58  57  21  138 142 89  151 154 108 71  72  54  55  55  53  54  53  56  58  60  61  58  60  59  52  55  52  54  57  52  54  58  50  55  59  53  55  59  53  57  59  56  58  61  57  59  62  59  57  62  61  56  61  59  57  62  63  57  62  63  56  61  61  55  59  60  54  58  61  54  58  61  54  58  61  59  63  66  62  66  67  43  48  49  71  76  77  70  75  75  75  79  80  76  80  81  92  97  97  74  78  79  69  73  74  61  65  68  57  58  62  64  65  69  76  78  82  85  87  88  82  84  86  79  79  81  62  61  66  93  92  97  79  78  83  82  79  84  74  71  74  98  95  99  66  63  66  64  62  63  78  76  77  78  76  77  64  62  63  69  67  68  67  64  65  63  60  64  63  60  64  62  60  61  63  61  62  62  60  61  63  61  62  62  60  61  67  64  65  67  64  65  60  57  58  62  62  60  62  62  60  62  62  60  62  62  60  63  63  61  66  67  64  70  70  68  72  73  70  72  73  68  70  71  66  69  69  65  69  69  65  60  63  58  73  76  70  75  78  73  67  70  65  68  73  67  78  84  77  68  73  69  63  68  64  82  87  83  90  96  89  90  96  87  83  87  79  103 106 101 97  97  93  77  78  71  82  83  75  98  97  93  80  76  73  68  65  59  73  70  62  72  69  61  74  71  61  66  64  51  113 109 94  123 116 100 116 109 93  89  83  67  124 117 103 98  88  80  96  86  78  102 90  76  107 97  78  118 108 84  119 110 83  117 105 80  104 94  61  130 119 75  180 172 111 140 135 52  164 163 70  150 148 60  199 195 119 169 164 109 137 133 91  164 158 124 112 106 69  127 121 75  157 152 99  157 153 95  88  84  24  136 134 76  129 128 65  159 159 89  126 125 59  162 159 105 136 132 88  129 124 83  121 117 73  164 161 110 154 150 103 144 138 106 113 104 75  124 117 74  123 116 59  157 150 82  152 146 75  98  88  23  87  77  12  138 129 59  154 145 77  143 135 74  102 92  45  116 103 75  115 100 82  126 110 95  128 112 101 118 100 97  114 97  91  126 111 91  121 108 74  133 126 74  110 105 40  131 127 55  130 126 52  170 165 94  196 192 123 145 140 75  118 113 49  177 175 107 174 172 98  176 176 92  162 163 72  182 184 86  173 174 82  198 196 124 177 174 111 168 164 102 146 141 88  145 140 105 88  81  58  172 163 148 103 94  83  94  86  79  81  73  66  109 101 94  100 95  87  113 108 96  92  89  78  108 104 99  114 110 107 111 108 102 83  77  72  100 95  87  93  88  80  84  79  69  87  82  73  115 110 101 107 99  90  115 107 98  112 105 96  116 109 95  114 105 90  116 107 92  101 92  79  126 119 108 125 118 105 136 129 113 151 144 128 144 136 125 125 117 111 111 103 97  115 110 103 113 107 102 117 111 106 115 111 106 109 105 100 116 112 107 120 116 110 116 113 105 109 106 98  119 113 106 119 113 106 119 114 104 119 114 104 121 116 106 127 122 112 127 122 112 121 116 106 124 118 111 115 109 105 111 105 100 111 105 100 117 111 106 117 111 106 117 111 106 117 111 106 115 109 105 118 112 107 122 116 112 125 119 114 129 123 119 131 124 120 125 119 114 114 108 103 101 95  91  93  87  82  94  88  84  101 95  91  96  90  85  96  90  85  96  90  85  96  90  85  94  88  84  94  88  84  120 114 109 107 101 96  111 105 100 122 116 112 125 119 114 105 99  94  96  90  85  132 126 121 128 122 117 87  81  77  114 108 103 91  85  80  91  85  80  115 109 105 94  88  84  96  90  85  98  92  87  100 94  89  94  90  85  99  95  89  107 103 98  99  95  89  91  90  84  91  90  84  91  90  84  91  90  86  91  92  87  85  86  81  78  79  74  71  73  70  60  67  69  54  63  67  48  57  61  46  54  58  45  53  57  51  59  63  54  63  67  57  63  66  70  70  68  78  77  71  76  75  68  95  93  87  110 109 102 96  95  88  96  95  88  91  90  84  91  90  84  104 103 96  115 113 107 111 110 103 94  91  83  118 115 107 88  85  77  130 127 119 127 123 115 122 119 111 114 111 103 114 111 103 107 102 92  107 102 92  115 110 101 105 100 90  134 129 119 121 116 106 112 107 97  131 125 116 124 118 109 119 114 104 106 101 91  112 107 97  126 121 111 108 103 94  126 121 111 117 111 102 101 96  89  96  90  83  97  91  84  101 96  89  107 102 94  93  88  80  93  88  80  107 102 94  104 98  91  100 95  87  99  93  86  97  91  84  104 98  91  106 100 93  119 113 106 141 135 128 121 116 106 113 108 98  113 108 98  121 116 106 119 114 104 121 116 106 125 119 110 127 122 112 128 123 113 128 123 113 128 123 113 128 123 113 132 124 116 130 122 113 126 119 110 123 115 106 121 113 104 114 106 97  111 105 96  113 108 98  108 103 94  108 103 94  107 104 94  107 104 94  108 103 94  108 103 94  108 103 94  108 103 94  126 121 109 112 107 95  117 112 100 115 111 99  115 108 94  121 114 100 104 97  84  122 115 101 122 115 101 119 112 99  123 116 102 117 110 96  139 132 121 107 99  88  117 110 99  108 100 89  115 107 96  115 107 96  111 104 93  103 96  85  130 122 113 105 98  89  136 128 117 136 128 117 127 120 109 138 131 119 134 127 116 133 126 115 115 111 99  122 117 105 113 108 96  112 107 97  100 95  87  101 95  91  82  75  75  60  52  57  66  60  67  57  51  60  55  52  60  41  40  45  74  76  78  69  71  73  44  44  44  40  36  35  41  33  29  103 92  75  114 104 64  129 120 66  118 106 51  
199 196 104 152 149 57  191 188 93  213 211 112 150 148 49  133 129 37  148 144 54  123 119 32  186 182 95  221 218 128 184 181 86  158 157 53  198 198 86  192 193 74  204 204 90  146 146 50  153 151 67  188 185 104 204 202 121 184 181 98  181 179 93  196 194 110 182 180 99  181 178 97  195 190 121 109 100 57  73  61  35  130 119 100 117 107 83  139 132 91  170 166 106 193 190 109 199 197 96  224 226 100 216 216 90  232 229 123 182 176 87  215 210 130 185 179 104 187 183 107 167 164 85  201 199 115 161 160 72  182 182 88  157 156 65  149 145 67  201 197 125 168 163 97  182 178 109 185 182 103 118 116 30  164 163 70  196 195 102 150 149 58  197 196 108 203 199 111 186 183 91  180 179 77  185 184 80  197 195 95  179 178 76  166 166 57  155 155 41  187 190 73  194 196 84  184 185 80  178 179 74  185 184 78  217 216 107 225 225 111 208 209 95  211 211 99  205 204 99  204 201 106 199 195 106 189 182 98  219 212 128 204 198 111 179 173 83  209 203 114 208 202 111 204 199 103 217 213 114 229 224 125 199 195 98  196 190 99  145 139 50  151 147 60  166 163 73  164 161 69  178 175 83  156 154 64  179 178 87  170 169 74  189 190 89  161 162 59  153 154 49  136 137 32  147 149 43  173 174 71  192 192 90  189 191 81  202 204 94  166 167 62  156 156 54  145 145 47  153 152 59  160 159 70  178 175 92  181 178 99  140 138 53  158 158 58  209 210 105 182 183 82  158 157 64  153 150 71  147 144 68  123 121 35  189 189 95  216 216 118 157 157 57  201 202 99  168 169 68  117 117 19  194 193 100 167 165 81  178 175 94  175 173 92  199 196 115 221 219 133 204 204 111 204 202 102 190 190 78  182 187 58  156 160 33  129 130 23  128 128 30  150 149 54  156 155 62  175 174 83  209 208 119 146 145 56  131 130 41  145 143 57  166 164 78  175 173 90  177 175 89  166 164 76  114 112 24  97  96  7   128 126 38  187 186 93  173 170 89  125 118 66  110 100 65  114 103 72  110 101 61  167 162 95  192 187 120 119 107 66  64  51  17  121 110 66  147 137 83  178 171 103 179 174 96  150 146 61  132 128 40  184 180 95  169 165 75  169 167 67  116 114 17  154 149 64  87  82  4   116 111 33  136 133 43  193 195 83  200 203 86  154 155 52  160 160 62  194 195 92  227 227 125 203 204 103 202 202 102 174 175 74  190 192 87  193 196 79  188 192 72  181 184 67  150 153 36  164 167 50  200 203 86  218 223 110 148 152 44  189 191 93  181 181 97  149 147 79  139 134 79  124 118 70  113 109 51  138 138 53  210 209 130 173 166 121 53  47  17  76  68  43  74  67  44  72  65  40  130 124 92  155 151 104 148 143 99  77  70  42  50  42  22  101 93  75  65  56  43  42  31  28  86  79  82  55  55  55  66  68  70  48  50  56  38  38  38  71  71  58  80  80  51  106 107 59  155 157 102 163 165 112 71  73  33  70  68  50  55  54  48  41  40  36  55  55  53  59  60  57  47  47  43  59  61  51  41  42  33  64  65  58  50  51  46  57  57  55  63  63  63  80  80  80  51  53  54  66  70  73  60  64  67  57  61  65  55  59  62  53  57  60  53  56  62  53  56  62  53  56  62  45  48  54  62  66  69  60  64  67  64  69  70  79  81  82  82  85  84  76  79  78  64  66  65  64  66  63  75  78  77  54  56  58  57  58  62  65  64  69  78  78  80  69  69  69  70  70  68  77  77  77  78  78  80  80  80  82  82  81  84  70  69  72  87  87  87  93  93  93  65  65  65  62  60  61  71  69  70  89  87  87  64  62  63  80  77  78  77  75  76  61  59  59  57  55  56  64  62  63  63  61  62  64  62  63  64  62  63  66  63  64  66  63  64  66  63  64  66  63  64  64  62  61  70  68  67  70  68  67  64  62  61  67  65  63  67  65  63  74  72  68  82  80  76  65  66  61  71  72  65  72  73  68  64  65  60  68  72  64  73  77  68  69  73  65  80  83  75  72  75  69  80  83  79  73  75  75  68  70  72  90  93  92  73  76  70  90  94  84  82  86  76  80  83  79  103 106 103 75  79  69  80  82  70  82  82  77  74  73  66  92  92  79  129 129 111 63  61  43  145 144 124 85  82  58  117 114 88  117 112 84  102 97  71  110 102 82  114 105 88  113 104 89  122 113 98  83  74  56  92  82  60  120 111 84  102 91  61  122 112 76  112 103 63  112 101 57  177 168 110 175 170 87  187 184 94  168 166 81  178 174 98  159 154 89  159 153 105 116 107 78  91  81  59  106 100 68  110 105 68  116 111 72  101 97  55  116 111 72  94  90  48  152 149 100 156 152 103 131 128 79  136 133 84  162 156 108 124 118 68  184 181 127 105 102 46  123 118 60  163 159 99  182 177 113 180 175 106 164 158 85  155 146 74  135 127 55  163 155 80  170 165 83  179 174 96  156 147 89  122 111 69  126 112 85  126 111 89  172 158 131 140 125 101 126 110 97  116 101 85  92  79  49  92  81  37  143 134 78  154 146 80  116 110 39  118 112 36  131 128 49  143 140 59  164 161 82  137 134 55  135 131 53  149 146 65  149 147 61  149 147 57  159 159 63  187 186 95  164 163 86  128 126 54  114 113 36  125 123 51  154 150 92  138 131 86  158 153 116 108 101 74  107 98  81  112 102 90  108 99  86  103 97  78  91  87  59  174 171 145 141 136 126 124 117 113 124 118 111 93  85  74  97  91  75  91  85  67  80  74  53  110 104 83  108 102 83  110 102 86  120 111 96  109 101 81  113 107 75  151 146 109 199 194 157 117 111 79  171 164 137 104 100 70  196 194 153 221 221 182 149 146 122 105 100 86  128 123 111 107 104 94  118 115 107 116 113 105 113 109 101 110 107 99  110 107 99  110 107 99  118 115 107 107 104 94  131 128 118 113 110 99  113 108 98  106 101 89  121 116 106 121 116 106 119 114 104 128 123 113 120 114 107 114 109 101 111 105 98  111 105 98  118 112 107 118 112 107 118 112 107 118 112 107 111 105 98  125 119 112 132 126 119 126 120 115 126 120 115 128 122 119 120 114 111 103 96  94  99  93  90  99  93  90  99  93  88  99  93  88  94  88  84  94  88  84  94  88  84  94  88  84  94  88  84  108 102 98  120 114 109 106 100 95  119 113 108 121 115 110 105 99  94  105 99  94  90  84  79  118 112 107 113 107 102 101 95  91  113 107 102 100 94  89  92  86  81  115 109 105 94  88  84  96  90  85  96  90  85  97  91  86  94  90  85  96  93  87  101 98  90  102 99  91  82  81  72  95  93  87  96  95  88  84  83  79  90  90  88  85  85  83  78  78  78  71  73  74  62  68  70  54  63  67  50  58  62  47  56  60  44  52  56  51  59  63  54  63  67  57  63  66  72  73  70  77  76  70  80  78  72  91  90  84  103 102 95  101 99  93  91  90  84  87  85  79  91  90  84  94  92  86  119 118 112 108 106 100 94  91  83  116 113 105 95  92  84  129 126 118 131 128 120 129 126 118 110 107 99  114 111 103 113 108 98  106 101 91  117 111 102 101 96  87  132 126 117 114 109 99  125 119 110 119 114 104 134 129 119 111 105 96  108 103 94  114 109 99  110 104 97  121 116 108 131 125 118 107 102 94  99  93  86  99  93  86  98  92  85  100 95  87  100 95  87  100 95  87  100 95  87  100 95  87  100 95  87  100 95  87  100 95  87  100 95  87  110 104 97  100 95  87  106 100 93  133 127 120 107 102 94  110 104 97  118 112 105 107 102 94  118 112 105 119 113 106 119 113 106 118 112 105 119 113 106 121 116 108 124 118 111 126 120 113 126 120 113 121 116 108 118 112 105 114 109 101 110 104 97  110 104 97  111 105 98  110 104 97  108 103 96  108 103 96  108 103 96  108 103 96  108 103 94  108 103 94  108 103 94  108 103 94  135 130 118 99  94  82  133 128 116 113 108 96  106 101 89  118 113 101 114 109 97  115 111 99  124 119 107 121 116 104 112 107 95  120 115 103 122 117 105 110 105 93  112 107 95  107 102 90  105 100 88  107 102 90  110 105 93  112 107 95  115 110 101 129 124 114 160 154 145 114 109 99  118 112 103 120 115 105 127 122 110 115 111 99  136 131 121 108 105 95  108 105 95  111 109 98  87  84  76  86  82  77  67  62  64  32  27  33  47  41  50  52  48  56  64  61  67  50  50  52  52  54  56  72  74  73  38  38  38  30  26  21  61  55  39  127 120 91  130 122 74  121 112 58  139 127 74  
151 149 50  177 173 83  199 195 106 151 149 50  127 125 23  165 163 64  199 197 100 164 161 69  171 168 78  185 181 94  147 143 53  183 180 83  164 163 57  203 204 85  201 202 86  126 126 29  172 170 84  140 138 53  177 175 89  173 171 85  178 176 90  156 154 68  190 189 103 154 152 67  114 110 36  115 107 59  85  74  43  69  57  34  77  68  39  198 192 148 217 211 150 187 183 98  218 217 110 201 201 71  195 195 65  212 210 97  184 180 81  215 211 126 222 217 139 164 161 82  187 184 105 204 202 119 137 135 51  154 152 69  168 166 83  160 157 78  178 175 96  177 173 95  156 153 70  193 192 101 159 159 63  154 154 56  206 205 110 203 202 111 151 149 63  176 171 86  146 142 54  189 186 89  213 211 109 148 145 48  146 144 42  189 188 79  191 191 77  203 206 93  175 177 67  168 170 62  179 180 73  191 190 81  183 183 69  143 144 26  196 197 78  206 206 92  179 179 70  193 192 90  199 197 100 179 173 79  173 167 76  181 176 82  175 170 76  190 185 93  165 159 65  176 171 75  193 188 89  188 183 85  169 164 68  149 144 52  137 131 40  142 139 47  159 157 60  178 176 75  180 178 79  163 162 69  157 156 65  156 156 58  173 174 71  177 178 73  178 179 74  175 176 71  146 147 44  145 145 45  142 142 42  124 124 24  117 117 17  163 163 63  166 166 68  131 131 35  147 147 54  193 192 101 186 185 94  173 172 79  210 210 114 194 195 92  187 188 83  125 126 23  93  92  0   150 147 64  189 187 106 153 152 63  164 163 70  184 183 86  201 201 101 174 175 72  174 175 72  166 166 66  180 180 84  204 202 117 171 168 89  157 153 77  186 183 104 223 221 135 202 201 110 161 157 65  180 179 75  168 173 46  174 179 50  149 151 37  136 137 32  126 128 22  171 171 69  193 193 95  153 153 57  116 115 22  175 175 81  217 216 125 199 198 105 185 184 89  201 201 103 194 194 96  157 156 61  158 157 64  199 197 109 201 199 113 151 147 73  81  73  25  109 99  61  133 124 84  182 175 121 203 201 120 200 198 112 154 146 82  169 160 104 222 214 151 190 183 110 198 193 113 170 166 81  148 144 54  190 186 96  204 200 110 226 223 130 215 214 112 176 174 74  126 121 36  90  84  4   92  87  7   146 142 50  209 213 93  210 214 92  172 173 68  142 142 44  140 141 40  188 189 86  209 209 111 187 187 89  185 185 83  163 164 55  166 170 48  232 237 112 200 203 86  156 158 44  171 174 57  159 163 41  198 205 80  202 207 89  178 181 82  130 129 49  125 121 61  123 117 69  71  64  23  103 97  47  153 151 77  131 130 50  83  79  19  111 105 55  164 161 112 135 130 89  105 98  66  120 114 82  162 157 117 162 157 115 119 113 76  190 183 151 218 211 179 181 174 151 102 92  86  72  65  68  63  63  63  50  52  51  60  62  64  59  60  57  46  46  32  114 115 80  193 197 132 189 194 117 142 146 79  76  78  25  50  48  19  63  60  45  101 98  88  78  77  71  47  46  39  45  43  37  39  38  27  53  53  39  56  56  45  51  53  43  58  59  54  48  48  46  52  52  52  50  50  52  62  64  68  61  63  69  58  59  65  54  58  63  52  55  61  53  56  62  53  56  62  53  56  62  52  55  61  55  59  64  54  58  61  70  75  75  93  95  94  87  89  91  74  76  80  61  63  65  65  68  64  73  76  72  57  59  60  55  57  61  62  61  66  70  69  72  65  66  63  63  63  61  79  79  79  83  83  83  87  87  87  90  90  90  69  69  69  84  84  84  92  92  92  70  70  70  62  60  61  71  69  70  89  87  87  64  62  63  73  70  71  74  71  72  62  60  61  64  62  63  64  62  63  63  61  62  66  63  64  67  64  65  67  64  65  66  63  64  66  63  64  66  63  64  70  68  67  64  62  61  64  62  61  70  68  67  81  79  77  70  68  67  69  67  63  77  76  72  76  75  66  129 128 119 68  67  60  75  76  68  63  64  55  71  73  61  84  86  72  52  55  40  66  68  56  75  76  68  64  65  58  75  76  68  76  77  68  64  64  51  88  89  68  91  94  75  91  93  81  85  87  75  99  100 82  85  86  70  106 106 97  58  55  45  103 102 84  157 156 134 128 125 101 110 107 79  156 155 119 110 107 67  159 156 116 188 185 149 106 99  70  106 98  76  94  86  68  99  90  73  127 119 99  132 122 100 135 123 97  123 112 80  82  72  35  101 92  47  102 93  39  157 150 84  162 157 74  163 159 74  174 171 92  168 164 93  164 159 90  177 169 115 110 100 67  98  89  62  119 110 81  94  88  58  102 95  68  107 100 75  117 110 85  141 133 109 149 142 113 113 107 71  165 161 115 164 159 106 133 129 71  173 169 109 152 148 88  121 118 53  173 171 98  181 180 103 192 188 112 206 200 125 202 193 119 206 198 124 180 171 97  160 152 73  150 146 59  170 165 83  158 151 85  163 153 100 156 145 101 161 149 108 152 142 95  151 140 98  120 107 75  137 124 92  161 150 106 141 131 78  118 109 48  152 145 79  141 134 62  123 118 40  167 164 83  116 114 30  166 164 80  173 171 87  152 150 66  157 154 71  182 180 97  201 199 113 182 181 90  153 152 63  145 144 64  175 174 97  180 180 95  136 136 54  171 169 97  204 201 138 137 135 79  155 151 104 186 181 144 131 125 93  93  87  55  145 140 103 176 172 125 150 145 104 89  84  60  103 97  81  120 111 94  87  79  57  96  90  60  116 111 74  175 168 125 170 164 120 140 133 94  118 110 76  133 124 93  161 154 115 184 179 128 182 178 120 134 129 74  169 166 114 144 140 98  162 157 115 190 189 142 136 137 93  113 111 84  111 107 90  116 114 99  108 106 93  113 109 101 110 107 101 107 103 98  104 101 95  116 112 107 116 113 105 124 121 113 113 110 99  113 110 99  117 114 104 138 133 121 172 168 156 148 143 133 115 110 101 138 132 123 127 122 112 121 116 108 117 111 104 113 107 100 114 109 101 115 109 105 117 111 106 118 112 107 118 112 105 125 119 110 111 105 96  111 105 96  125 119 112 124 118 111 124 117 113 114 108 103 97  91  86  94  88  84  94  88  86  94  88  84  94  88  84  94  88  84  94  88  84  94  88  84  94  88  84  94  88  84  108 102 98  121 115 110 106 100 95  115 109 105 115 109 105 107 101 96  106 100 95  92  86  81  115 109 105 111 105 100 104 98  93  113 107 102 100 94  89  92  86  81  115 109 105 96  90  85  96  90  85  96  90  85  96  90  85  96  93  87  99  95  89  100 97  89  101 98  90  94  93  84  90  89  82  89  87  83  90  88  84  90  90  88  85  85  85  78  78  80  71  72  76  62  68  72  54  63  67  50  58  62  47  56  60  44  52  56  50  58  62  54  63  67  58  65  67  71  71  69  78  77  71  82  81  74  89  88  81  101 99  93  103 102 95  97  96  89  90  89  82  97  96  89  94  92  86  111 110 103 99  98  92  91  87  79  115 112 104 96  93  85  134 130 122 128 125 117 127 123 115 110 107 99  116 113 105 115 110 101 108 103 94  120 115 105 104 98  89  128 123 113 113 108 98  126 121 111 120 115 105 128 123 113 113 108 98  112 107 97  108 103 94  113 107 100 122 117 110 129 124 117 105 99  92  99  93  86  99  93  86  98  92  85  100 95  87  100 95  87  100 95  87  100 95  87  100 95  87  100 95  87  100 95  87  100 95  87  100 95  87  106 100 93  100 95  87  104 98  91  122 117 110 112 106 99  110 104 97  114 109 101 106 100 93  111 105 98  112 106 99  113 107 100 113 107 100 112 106 99  113 107 100 115 110 103 118 112 105 115 110 103 112 106 99  108 103 96  107 102 94  110 104 97  110 104 97  110 104 97  110 104 97  108 103 96  108 103 96  108 103 96  108 103 96  108 103 94  108 103 94  108 103 94  108 103 94  132 127 115 104 99  87  133 128 116 112 107 95  106 101 89  118 113 101 114 109 97  115 111 99  124 119 107 121 116 104 112 107 95  120 115 103 122 117 105 110 105 93  112 107 95  107 102 90  112 107 95  110 105 93  107 102 90  105 100 88  100 95  85  119 114 104 138 132 123 113 108 98  120 115 105 118 112 103 125 120 108 117 112 100 128 125 114 107 104 94  109 106 96  110 107 97  100 97  87  86  82  77  59  54  56  57  51  58  52  48  56  51  47  55  45  41  47  64  62  65  44  44  44  38  39  36  37  35  31  46  43  33  59  53  30  74  69  32  107 99  49  106 97  41  117 105 54  
143 144 37  172 170 84  111 108 30  127 123 35  189 186 91  190 188 84  182 181 74  146 143 46  176 173 80  147 143 53  177 173 83  191 188 91  157 156 52  203 203 87  196 196 82  139 140 39  164 163 70  174 173 82  229 227 139 210 208 122 199 197 111 156 153 70  147 145 60  159 157 69  93  90  11  111 101 47  101 89  50  93  82  49  89  79  44  119 111 64  175 167 101 151 148 58  225 224 115 182 181 63  152 150 32  187 185 71  163 160 54  156 154 52  180 178 83  170 168 80  187 185 101 215 212 133 156 152 76  116 112 36  157 154 75  194 192 108 164 163 72  202 202 102 160 161 56  170 171 62  178 179 72  179 180 77  182 182 86  189 187 101 105 103 22  176 171 88  177 173 83  182 180 80  185 183 82  185 183 86  194 192 93  177 176 67  152 152 45  183 180 85  175 172 77  171 170 66  184 183 74  182 182 70  170 170 56  129 129 18  149 149 39  126 125 18  156 155 50  183 182 73  180 180 71  184 181 73  183 180 74  201 197 94  199 195 94  187 182 84  128 124 27  131 126 32  114 109 17  134 129 37  156 151 59  149 146 52  140 137 42  159 157 62  136 134 37  175 173 71  190 188 88  166 165 72  153 152 59  181 182 81  193 194 89  202 204 94  195 197 85  195 197 87  172 173 68  160 161 60  139 139 43  142 141 46  153 153 57  180 180 84  189 189 93  137 137 39  189 189 91  234 234 134 189 190 87  187 188 83  180 182 74  196 198 90  145 146 41  138 139 36  175 175 79  173 171 87  126 124 41  116 115 24  189 189 93  188 188 90  174 175 74  180 181 78  161 162 59  150 150 50  100 99  4   170 168 82  170 167 86  145 142 63  174 172 88  222 221 130 186 185 92  151 148 56  183 181 79  170 173 53  187 192 65  186 191 64  159 163 41  177 179 64  195 197 89  184 183 86  167 166 73  135 133 43  187 185 97  151 149 63  130 129 36  140 142 32  209 213 93  228 231 112 188 190 78  157 157 59  151 149 65  109 104 37  104 98  37  173 168 103 202 197 128 158 154 78  142 139 58  165 163 75  184 182 92  208 204 117 175 170 85  178 174 87  169 165 75  161 157 65  144 142 47  182 180 80  206 204 103 218 216 114 211 209 107 212 210 108 179 177 80  134 130 42  143 139 54  113 109 19  200 199 97  225 230 103 204 210 78  179 182 67  190 192 85  180 181 76  149 149 47  143 143 45  167 167 69  192 193 86  173 177 57  174 180 48  207 213 79  195 199 77  224 227 112 223 225 113 166 169 52  191 199 67  206 214 84  177 182 71  132 133 42  209 207 135 213 209 151 125 119 69  96  92  32  143 144 59  127 129 35  170 171 80  180 180 93  195 194 115 178 175 110 238 232 186 206 199 162 150 145 106 151 147 105 129 125 81  171 167 121 200 196 150 219 213 176 146 139 126 79  75  70  49  50  43  46  50  42  56  57  48  43  45  33  46  43  35  111 109 78  193 199 122 182 189 91  176 183 85  155 159 78  167 168 115 150 149 117 106 102 83  60  58  45  87  85  72  103 101 88  85  82  69  54  52  39  28  29  13  109 109 93  161 163 149 130 132 122 57  58  53  64  64  64  56  55  58  61  60  65  56  55  60  52  54  58  52  54  58  53  55  59  53  55  59  53  55  59  53  54  61  57  58  64  55  58  57  72  75  71  93  95  94  80  82  86  67  68  79  61  62  71  68  68  68  71  71  69  62  61  64  55  54  59  63  62  67  65  65  67  70  70  68  62  62  60  76  76  76  82  81  82  88  88  88  93  93  93  69  69  69  80  80  80  91  91  91  77  77  77  62  60  61  71  69  70  89  87  87  64  62  63  73  70  71  74  71  72  62  60  61  64  62  63  64  62  63  66  63  64  68  66  66  67  64  65  67  64  65  66  63  64  66  63  64  66  63  64  70  68  67  64  62  61  64  62  61  70  68  67  68  66  64  63  61  60  77  75  74  104 103 96  108 107 94  156 153 140 65  62  54  60  57  49  68  66  55  78  76  58  88  88  63  89  89  62  86  83  61  86  83  61  79  76  52  132 130 101 104 102 71  77  74  41  118 114 82  80  76  45  108 103 75  103 98  72  76  72  44  79  73  50  76  70  54  87  78  63  57  48  31  67  60  37  123 119 86  148 146 104 127 126 77  156 153 101 138 135 84  145 142 93  171 166 125 161 154 124 81  72  57  86  77  64  114 105 88  119 109 85  135 123 95  187 176 144 136 126 90  101 93  45  183 175 109 178 173 93  169 164 81  178 173 95  176 168 102 116 108 47  129 121 58  192 183 125 171 163 111 124 115 73  148 140 104 141 132 105 124 113 96  133 121 109 104 92  80  95  83  71  70  59  44  113 104 77  161 154 111 142 138 80  131 126 57  172 168 96  153 150 81  159 157 84  131 127 53  131 128 51  170 166 90  168 162 86  201 192 118 172 163 89  179 171 94  145 137 58  166 162 77  168 163 78  186 181 101 173 168 90  136 130 57  140 133 62  179 173 102 140 132 66  130 122 61  159 151 92  126 117 58  135 127 66  119 111 47  86  79  11  127 121 48  162 156 78  104 101 23  115 112 33  208 205 126 188 185 108 136 132 56  151 147 71  178 175 96  160 157 78  153 150 69  167 164 85  120 119 42  140 139 62  183 183 99  182 182 98  176 175 98  195 193 121 201 198 128 196 193 128 197 193 133 177 173 115 198 194 136 185 182 121 166 162 100 162 158 100 97  89  44  109 99  61  109 98  66  139 129 92  180 171 126 182 176 119 174 170 96  158 155 76  199 194 123 182 177 113 178 171 112 159 153 91  181 177 103 188 185 108 156 154 82  212 209 144 179 177 121 211 207 158 200 197 157 132 128 98  112 107 93  106 101 91  106 101 89  122 117 105 122 117 110 120 114 111 117 110 108 114 108 105 116 112 109 116 112 107 124 121 113 113 109 101 124 118 109 118 112 103 178 173 161 164 159 147 111 105 96  121 116 106 132 126 117 120 115 105 125 119 110 120 115 105 117 111 102 117 111 104 117 111 104 117 111 104 118 112 105 118 112 105 125 119 110 127 122 112 127 122 112 125 120 108 122 117 105 120 115 103 108 104 92  90  85  73  94  89  82  94  88  84  94  88  84  94  88  84  94  88  84  94  88  84  94  88  84  94  88  84  94  88  84  108 102 98  121 115 110 105 99  94  111 105 100 107 101 96  110 104 99  105 99  94  96  90  85  112 106 101 107 101 96  107 101 96  112 106 101 100 94  89  92  86  81  115 109 105 96  90  85  96  90  85  96  90  85  97  91  86  101 97  92  100 96  91  99  95  87  98  94  86  103 102 93  92  91  85  88  86  82  92  91  87  90  90  88  85  85  85  78  78  80  71  72  76  62  68  72  54  63  67  50  58  62  47  56  60  43  51  55  50  58  62  53  61  65  58  65  67  69  69  67  82  81  74  84  83  77  87  85  79  96  95  88  105 104 98  103 102 95  94  92  86  96  95  88  90  89  82  105 104 98  98  97  91  94  91  83  116 113 105 95  92  84  129 126 118 120 116 108 121 118 110 107 104 96  115 112 104 114 109 99  107 102 92  119 114 104 103 97  88  127 122 112 113 108 98  128 123 113 126 121 111 120 115 105 117 111 102 114 109 99  100 95  85  117 111 104 125 119 112 128 123 115 101 96  89  99  93  86  99  93  86  99  93  86  99  93  86  100 95  87  100 95  87  100 95  87  100 95  87  100 95  87  100 95  87  100 95  87  100 95  87  104 98  91  100 95  87  103 97  90  111 105 98  119 113 106 107 102 94  110 104 97  105 99  92  110 104 97  107 102 94  106 100 93  106 100 93  105 99  92  106 100 93  108 103 96  110 104 97  107 102 94  105 99  92  103 97  90  103 97  90  110 104 97  110 104 97  110 104 97  110 104 97  108 103 96  108 103 96  108 103 96  108 103 96  108 103 94  108 103 94  108 103 94  108 103 94  128 123 111 110 105 93  132 127 115 111 106 94  106 101 89  118 113 101 114 109 97  115 111 99  124 119 107 121 116 104 112 107 95  120 115 103 122 117 105 110 105 93  112 107 95  107 102 90  112 107 95  110 105 93  107 102 90  105 100 88  110 104 95  129 124 114 124 118 109 124 118 109 122 117 108 115 110 101 121 116 104 120 115 103 120 117 106 106 103 92  110 107 97  109 106 96  104 102 89  93  90  80  80  76  75  66  61  65  55  52  60  47  43  51  41  38  46  68  65  68  53  51  49  44  42  36  42  38  30  84  79  65  79  72  47  72  65  27  103 96  44  77  68  12  120 108 58  
227 226 119 151 147 62  157 151 76  198 194 108 187 185 90  197 196 89  164 163 57  134 131 34  166 163 73  116 112 25  177 173 86  178 175 83  183 181 81  185 185 76  187 187 80  100 100 2   136 135 44  186 185 94  189 188 97  195 194 103 161 160 70  153 152 59  185 184 91  184 183 90  156 153 70  139 130 69  171 160 114 93  83  43  66  57  14  115 105 54  159 152 84  190 186 96  226 223 119 160 156 53  125 122 16  183 180 74  210 206 103 195 191 88  171 169 70  200 197 105 189 187 104 152 149 72  163 159 85  83  79  6   172 168 92  189 187 104 181 181 85  174 176 68  189 192 77  186 189 72  171 173 59  175 177 67  152 152 52  175 174 86  173 169 84  183 179 91  168 165 70  190 188 86  203 201 99  168 165 70  154 151 54  177 176 71  184 182 82  166 162 77  157 153 66  136 135 29  198 199 82  187 188 74  165 165 56  189 188 81  183 182 77  175 173 69  215 215 106 192 192 78  177 178 61  153 151 38  197 195 84  202 198 95  190 186 85  197 193 94  153 148 52  186 180 88  155 149 60  161 155 66  158 152 61  155 152 57  147 144 47  168 165 68  136 134 35  182 180 78  175 173 73  145 144 51  131 130 37  166 166 66  149 150 43  173 176 61  199 201 87  181 184 71  159 160 55  153 153 55  159 158 65  177 175 85  161 160 70  137 136 45  114 113 20  154 155 54  223 224 119 179 180 73  139 141 31  157 159 49  147 149 39  166 168 60  159 160 55  180 181 78  195 195 99  186 183 100 178 175 92  174 173 80  164 164 66  158 158 60  161 162 61  160 161 58  177 177 75  158 158 58  138 138 42  99  97  11  146 143 62  144 142 58  167 166 77  215 215 119 163 163 65  154 151 56  170 168 68  159 161 49  163 166 46  181 185 63  179 182 65  161 163 55  159 159 61  143 141 53  185 182 99  199 196 115 122 119 36  107 105 19  145 145 49  177 179 64  208 213 86  200 205 76  203 207 85  189 191 83  165 164 73  117 113 39  161 157 88  246 243 167 180 178 94  143 141 53  164 162 74  197 195 110 186 184 96  166 163 71  176 173 76  170 168 70  166 164 67  194 192 93  228 227 125 226 225 118 169 168 59  169 169 57  200 199 93  191 189 87  171 168 74  164 161 71  148 144 54  154 151 56  204 203 96  215 219 95  197 203 73  158 161 42  197 200 87  186 187 80  166 166 66  130 130 34  150 150 52  150 151 44  161 164 47  215 220 91  220 225 95  179 182 65  203 205 95  146 147 44  159 161 51  211 218 88  203 211 78  196 201 87  126 128 30  176 176 94  188 186 114 166 163 95  121 120 45  140 141 50  150 154 50  136 140 34  156 159 56  160 162 63  185 186 99  128 126 58  67  62  5   59  57  3   95  92  41  129 126 73  73  71  17  84  81  25  57  53  7   90  85  60  74  72  57  70  70  59  56  58  46  41  41  27  57  55  39  51  48  28  89  87  44  167 172 84  174 184 69  154 164 47  172 179 77  183 187 122 96  96  52  44  43  7   85  83  54  122 119 97  66  65  43  129 129 100 127 127 97  136 135 111 119 120 101 83  83  69  66  68  60  63  64  59  56  56  56  55  54  57  56  55  58  54  53  56  52  52  54  52  54  56  53  55  57  53  55  57  53  55  59  46  47  54  64  65  71  61  64  63  66  69  66  79  81  80  66  68  70  60  61  72  64  64  73  69  69  69  69  69  67  65  65  67  54  53  58  70  69  74  69  68  71  77  77  75  66  67  64  69  69  69  75  75  75  84  84  84  91  91  91  68  68  68  77  77  77  90  90  90  82  81  82  62  60  61  71  69  70  89  87  87  64  62  63  80  77  78  77  75  76  60  57  58  57  55  56  66  63  64  68  66  66  68  66  66  64  62  63  66  63  64  66  63  64  66  63  64  66  63  64  64  62  61  70  68  67  70  68  67  64  62  61  67  65  63  60  58  56  81  79  77  116 112 107 191 189 173 135 133 115 64  62  46  72  68  51  117 114 90  126 123 90  179 177 134 180 178 133 162 157 117 179 174 135 155 150 108 181 178 131 167 161 113 162 157 106 197 192 141 161 155 105 185 176 129 178 169 122 154 146 101 165 155 115 132 122 87  154 146 112 113 105 73  139 131 97  110 103 62  106 102 53  151 149 93  171 169 111 150 148 90  108 106 50  141 137 88  131 126 89  108 100 78  116 108 90  78  70  46  86  78  45  89  80  40  142 133 86  163 155 105 146 140 81  166 161 83  166 162 77  162 157 76  136 130 57  137 129 70  121 112 56  147 139 75  165 158 92  137 131 69  76  69  17  107 97  57  98  89  60  86  76  57  90  79  64  92  81  67  103 92  75  86  76  57  76  67  38  112 107 56  186 180 116 166 162 88  99  95  19  139 137 65  147 145 75  145 141 67  138 135 58  132 129 53  172 166 91  151 142 68  155 147 72  149 141 64  142 134 57  122 117 37  201 197 114 146 142 54  183 179 89  172 169 79  191 187 99  191 186 104 193 188 108 157 152 72  151 145 70  83  76  5   123 116 48  159 152 84  126 119 48  182 176 100 164 159 81  160 157 78  156 152 76  197 194 120 150 146 72  87  83  9   104 100 27  164 160 84  165 161 85  145 142 61  140 138 57  119 118 39  167 166 87  148 148 66  161 160 81  168 167 90  154 152 78  181 180 103 168 167 90  157 156 81  153 151 77  190 187 113 199 195 121 213 209 135 214 207 137 192 185 119 199 190 132 133 123 72  187 174 124 195 183 128 173 163 96  177 171 84  199 196 104 186 182 97  166 161 83  164 158 85  152 146 73  168 163 80  142 137 55  192 188 110 187 184 114 154 150 92  121 117 73  116 110 80  104 98  80  124 116 108 118 110 102 123 116 100 114 107 89  118 111 100 116 108 101 112 104 98  108 103 96  112 106 99  112 107 97  120 115 103 108 104 92  129 124 114 171 166 156 153 148 136 110 105 93  119 114 104 119 114 104 121 116 106 113 108 98  126 121 111 122 117 108 118 112 103 118 112 103 118 112 105 119 113 106 118 112 105 118 112 105 111 105 96  118 112 103 125 120 108 127 122 110 118 113 101 114 109 97  103 98  84  90  85  73  99  93  86  99  93  88  99  93  88  99  93  88  94  88  84  94  88  84  94  88  84  93  87  82  93  87  82  108 102 98  121 115 110 105 99  94  107 101 96  101 95  91  111 105 100 106 100 95  99  93  88  110 104 99  105 99  94  110 104 99  112 106 101 100 94  89  92  86  81  115 109 105 94  88  84  93  87  82  96  90  85  97  91  86  104 101 95  101 97  92  98  94  86  95  92  84  104 103 94  98  97  91  91  90  86  89  87  83  90  90  88  86  86  86  79  79  81  69  71  75  62  68  72  54  63  67  50  58  62  49  55  60  44  50  55  50  56  61  53  59  64  60  64  67  66  67  64  83  82  75  87  85  79  84  83  77  96  95  88  103 102 95  105 104 98  99  98  92  90  89  82  85  84  78  104 103 96  98  97  91  103 100 92  120 116 108 92  88  80  120 116 108 113 109 101 116 113 105 104 101 93  113 109 101 112 107 97  105 100 90  117 111 102 100 95  85  129 124 114 117 111 102 135 130 120 133 128 118 114 109 99  118 112 103 117 111 102 94  89  80  119 113 106 126 120 113 127 121 114 98  92  85  99  93  86  99  93  86  99  93  86  99  93  86  100 95  87  100 95  87  100 95  87  100 95  87  100 95  87  100 95  87  100 95  87  101 96  89  101 96  89  100 95  87  103 97  90  105 99  92  124 118 111 107 102 94  107 102 94  105 99  92  108 103 96  106 100 93  105 99  92  103 97  90  97  91  84  99  93  86  101 96  89  103 97  90  101 96  89  100 95  87  100 95  87  100 95  87  110 104 97  110 104 97  110 104 97  110 104 97  108 103 96  108 103 96  107 102 94  107 102 94  107 102 92  107 102 92  108 103 94  108 103 94  125 120 108 114 109 97  131 126 114 110 105 93  106 101 89  118 113 101 114 109 97  115 111 99  124 119 107 121 116 104 112 107 95  120 115 103 122 117 105 110 105 93  112 107 95  106 101 89  105 100 88  107 102 90  110 105 93  112 107 95  121 116 106 140 135 125 110 104 95  124 118 109 125 119 110 113 108 98  120 115 103 122 117 108 113 110 99  104 102 91  111 109 98  107 104 92  95  93  78  101 99  86  116 112 109 53  48  52  55  52  58  42  39  47  55  52  58  61  59  59  39  38  31  58  55  45  44  39  27  86  77  62  74  64  38  104 94  57  125 115 61  96  84  29  106 94  46  
187 183 80  152 145 59  194 187 103 195 189 98  194 189 91  192 190 89  206 204 105 192 189 97  169 164 79  180 175 95  150 145 65  161 156 73  201 197 110 170 168 70  189 186 91  136 133 50  151 148 67  211 209 124 175 174 83  187 187 89  170 170 68  188 190 82  200 201 94  182 183 82  188 187 98  188 184 112 161 155 98  83  76  26  107 99  49  118 112 55  168 160 92  198 194 108 201 195 104 189 181 91  158 150 61  168 160 72  165 157 66  175 169 78  133 128 36  194 191 101 180 176 93  165 161 85  153 149 75  166 162 88  196 193 117 207 204 121 196 195 102 186 186 86  192 193 86  189 192 79  171 173 59  169 169 55  175 174 65  183 181 79  162 159 62  172 167 68  201 197 94  183 180 74  162 159 55  152 149 57  158 155 65  180 178 83  178 175 83  222 217 137 186 182 95  135 135 21  182 183 62  168 168 54  151 150 44  191 189 89  187 186 84  179 179 68  182 183 64  177 178 57  192 193 74  162 160 49  201 197 94  195 190 96  160 154 63  209 204 108 203 199 100 233 228 136 220 214 125 180 174 85  120 115 23  135 132 38  142 140 42  170 168 70  177 175 75  171 171 69  119 120 20  138 137 44  118 117 24  129 129 29  150 151 44  188 191 76  182 185 70  135 137 25  159 160 55  153 153 55  140 140 47  129 127 39  118 116 30  102 100 14  88  87  0   160 161 56  164 166 52  146 149 32  175 178 63  149 150 45  154 155 52  197 199 94  160 161 56  164 164 62  174 174 78  197 195 112 201 199 115 175 175 81  104 104 6   185 185 87  161 162 61  177 177 75  157 157 55  133 134 33  129 128 33  154 152 67  117 115 31  112 111 23  142 141 46  163 163 61  151 152 47  167 167 69  170 169 74  173 174 71  170 170 68  150 150 50  137 136 43  142 139 58  129 124 53  102 97  30  163 157 91  193 188 119 144 140 64  110 109 20  140 141 40  180 182 70  208 211 92  185 189 65  188 192 68  209 213 93  209 211 99  190 191 89  207 206 113 222 220 134 241 238 157 214 210 134 137 133 57  154 151 75  195 192 113 156 151 69  129 125 38  172 169 77  142 140 42  140 138 36  213 212 107 214 213 107 157 157 46  196 196 82  173 173 64  165 163 64  139 135 43  163 160 67  173 170 78  149 146 52  172 171 69  200 203 88  168 172 52  145 149 29  180 183 68  168 170 64  196 196 98  173 172 79  145 144 51  179 179 79  150 151 44  174 177 62  188 191 76  161 162 59  187 187 91  140 140 47  135 135 35  173 178 60  175 181 60  224 228 117 180 182 81  178 180 86  162 163 72  183 184 93  145 146 52  123 125 26  106 109 8   170 173 70  178 182 78  181 184 82  140 143 42  148 151 50  141 143 49  191 191 109 180 177 107 167 163 103 76  71  16  145 140 85  102 99  50  132 129 91  96  93  67  52  50  33  53  50  40  52  49  39  76  72  53  99  94  52  129 129 59  190 195 91  169 177 54  168 180 51  172 180 71  135 140 68  94  97  41  178 178 119 174 174 119 77  76  38  44  44  5   140 143 83  192 195 135 121 122 85  21  19  1   60  58  54  69  66  70  51  48  49  66  63  64  56  55  58  55  54  59  54  53  58  54  53  58  52  54  58  53  55  59  53  55  59  53  54  61  56  55  62  57  56  63  51  53  54  66  68  68  75  78  77  72  74  73  70  69  74  70  69  74  69  69  67  65  66  63  61  60  63  55  54  59  66  66  70  64  64  66  70  70  68  56  56  54  65  65  65  75  75  75  73  73  73  83  83  83  72  72  72  83  83  83  83  83  83  72  72  72  54  52  52  66  63  64  87  84  85  63  61  62  82  80  80  83  81  82  63  61  62  63  61  62  71  69  70  71  69  70  71  69  70  70  68  69  70  68  69  69  67  68  69  67  68  69  67  68  74  72  70  68  66  64  68  66  64  74  72  70  75  71  70  74  70  69  73  69  68  72  68  63  101 97  83  171 168 146 80  78  51  69  65  33  188 184 140 185 183 127 186 186 116 167 164 95  163 160 97  153 149 91  146 142 82  152 146 86  158 152 88  189 185 116 170 166 92  208 202 127 205 199 124 194 188 113 201 195 124 198 191 123 200 193 125 208 203 136 203 197 136 203 197 140 193 185 135 161 155 105 123 118 60  169 165 105 163 159 99  131 126 69  161 155 105 119 112 69  119 111 77  97  88  57  78  71  32  161 155 105 192 186 124 153 149 75  161 159 76  136 134 46  136 131 49  141 136 55  168 162 86  97  89  21  119 110 54  119 110 51  161 154 83  120 114 41  158 150 87  139 129 75  107 98  53  105 96  58  124 114 81  123 112 82  79  68  33  125 115 78  112 103 65  82  74  29  151 145 83  197 193 122 185 179 104 96  92  20  124 120 58  142 139 76  93  88  17  102 98  22  118 112 36  122 116 41  135 127 53  142 134 59  193 184 110 186 177 103 155 148 75  196 190 112 154 150 62  165 162 70  190 187 94  158 155 65  170 165 83  180 176 93  134 130 42  184 180 92  173 168 88  88  83  7   157 151 76  171 165 90  156 151 71  148 143 62  162 156 78  173 168 92  168 161 88  146 139 66  112 105 32  125 118 45  171 165 92  134 128 50  135 133 45  142 140 50  157 155 67  171 168 85  122 118 42  99  94  25  137 132 65  138 133 64  91  90  13  166 165 83  153 152 71  113 113 31  130 127 46  179 174 94  183 178 97  205 200 117 195 188 102 155 148 66  205 196 128 186 173 112 181 169 107 159 148 79  148 138 57  180 173 87  167 160 78  179 171 94  172 162 93  155 146 74  177 170 90  155 150 67  232 229 153 174 171 104 168 162 114 118 109 78  117 105 91  105 95  87  110 100 92  106 97  82  121 114 85  127 121 89  115 107 85  133 124 106 103 95  77  119 113 95  103 97  78  123 117 96  123 117 96  129 126 106 171 167 152 132 127 115 106 101 89  120 115 103 118 112 103 112 107 97  131 125 116 115 110 101 126 121 111 122 117 108 120 115 105 118 112 103 119 113 106 121 116 108 119 114 104 111 105 96  157 152 142 119 114 102 110 105 93  131 126 114 127 120 111 104 96  88  101 93  86  115 107 100 108 102 98  104 98  93  100 94  89  94  88  84  93  87  82  93  87  82  93  87  82  93  87  82  93  87  82  111 105 100 121 115 110 112 106 101 114 108 103 112 106 101 112 106 101 97  91  86  101 95  91  111 105 100 118 112 107 119 113 108 108 102 98  90  84  79  92  86  81  114 108 103 94  88  84  92  86  81  94  88  84  98  92  87  106 102 96  102 99  93  98  94  86  95  92  84  96  95  86  106 105 99  103 101 97  88  86  82  85  85  83  87  87  87  80  80  82  68  70  74  65  71  76  55  64  68  51  57  62  47  51  56  46  49  55  49  53  58  55  59  64  61  63  67  69  72  69  73  75  67  78  79  72  87  88  81  97  96  89  97  96  89  106 102 96  113 109 103 92  91  85  91  90  84  97  96  89  106 105 99  101 98  90  114 111 103 88  85  77  113 109 101 116 113 105 115 112 104 110 107 99  109 106 98  111 105 96  117 111 102 119 114 104 106 101 91  136 131 121 114 109 99  128 123 113 127 122 112 113 108 98  108 103 94  112 107 97  107 102 92  113 107 100 114 109 101 114 109 101 94  89  82  98  92  85  98  92  85  98  92  85  98  92  85  99  93  86  99  93  86  99  93  86  99  93  86  100 95  87  100 95  87  100 95  87  100 95  87  99  93  86  100 95  87  99  93  86  99  93  86  122 117 110 110 104 97  105 99  92  106 100 93  105 99  92  105 99  92  105 99  92  105 99  92  101 96  89  101 96  89  101 96  89  101 96  89  101 96  89  101 96  89  101 96  89  101 96  89  106 100 93  106 100 93  106 100 93  106 100 93  105 99  92  105 99  92  107 102 94  107 102 94  107 102 92  107 102 92  107 102 92  107 102 92  125 119 110 119 114 104 127 122 112 100 95  85  106 101 89  119 114 102 119 114 102 106 101 89  124 119 107 120 115 103 108 104 92  114 109 97  114 109 97  108 104 92  106 101 89  106 101 89  108 104 92  103 98  86  110 105 93  104 99  87  121 116 106 141 136 126 94  89  80  112 107 97  118 112 103 105 100 90  112 107 97  115 110 101 115 112 104 109 106 96  108 105 95  101 99  86  104 102 89  95  92  82  108 104 101 60  55  57  49  47  50  40  38  38  44  41  40  55  54  45  47  45  32  61  57  40  57  48  33  57  47  28  33  19  0   77  63  25  101 88  38  131 117 63  110 95  50  
187 183 82  152 146 57  183 177 88  163 159 62  175 171 70  184 182 82  141 138 41  173 171 76  200 197 107 194 190 105 162 157 74  173 169 86  179 175 88  184 181 88  190 187 94  209 207 123 168 166 85  213 211 125 168 168 74  145 145 45  167 169 59  197 200 85  188 191 76  197 199 94  196 195 102 196 193 115 151 146 79  142 135 76  178 171 114 178 172 110 194 188 117 169 164 79  188 182 91  222 214 123 191 182 94  200 190 109 136 126 45  138 131 47  158 151 67  130 126 41  164 159 77  182 179 101 147 144 68  174 171 94  195 192 113 189 187 104 180 178 90  182 182 88  174 175 74  193 195 85  182 185 72  168 168 54  161 161 49  164 163 57  158 157 55  152 147 49  189 185 84  155 152 46  149 146 42  178 175 83  129 126 36  128 126 29  191 188 91  170 166 76  164 162 63  151 153 30  161 163 35  171 171 60  157 155 54  156 154 56  176 174 72  161 161 47  198 199 80  187 188 72  180 180 69  227 224 120 219 214 118 166 160 71  159 153 64  187 182 86  225 220 124 223 218 124 211 206 114 147 141 50  138 132 41  161 158 63  177 174 79  157 154 60  114 112 15  133 134 31  150 150 50  200 199 106 152 151 60  136 136 36  146 148 40  182 185 72  156 158 46  121 123 13  165 166 59  153 154 53  149 148 53  108 107 14  119 118 28  161 160 72  165 164 71  131 132 27  136 138 28  171 173 63  197 199 91  142 142 42  135 135 35  116 117 12  170 171 66  181 182 79  131 131 33  128 126 40  168 166 83  187 186 93  125 125 27  153 153 55  178 178 78  179 180 75  157 158 53  133 134 31  130 130 32  125 123 37  129 126 43  139 138 47  172 172 72  175 177 67  168 170 62  151 151 53  150 149 56  144 143 50  150 149 56  157 156 65  109 107 23  152 147 80  104 97  43  76  69  19  142 134 84  118 111 57  178 173 106 195 193 107 182 182 84  178 179 72  188 191 76  177 180 60  173 177 53  194 198 74  201 204 85  177 179 64  177 178 73  163 162 69  202 200 116 214 210 136 178 173 106 221 215 151 156 150 84  170 164 89  218 214 126 197 194 97  196 195 88  201 201 92  162 161 52  170 169 64  178 177 73  178 178 69  184 183 78  114 111 17  128 125 33  165 162 70  170 167 74  151 148 58  130 127 37  174 174 76  156 156 54  177 179 67  202 204 94  182 183 80  149 148 53  146 145 52  139 138 45  157 157 59  178 178 76  168 170 64  187 188 85  177 176 83  195 194 103 166 166 70  173 174 71  150 156 40  136 142 26  159 162 56  166 168 67  171 174 75  187 189 90  198 201 100 185 188 87  206 209 110 202 204 105 199 202 101 124 126 25  159 161 62  177 180 77  156 161 48  173 177 66  190 192 94  194 194 107 198 196 124 135 132 67  217 213 151 190 187 133 183 181 141 99  97  68  48  45  21  51  48  28  37  33  16  94  90  59  177 173 113 142 143 56  166 170 61  209 214 96  163 171 52  165 173 68  147 151 74  125 129 61  174 177 101 110 113 41  63  65  10  179 182 124 177 183 104 190 196 119 141 144 97  61  61  38  51  49  45  54  51  54  57  55  56  59  56  57  58  58  60  56  55  58  55  54  57  54  53  56  53  55  57  53  55  57  53  55  59  53  55  59  54  53  58  59  59  61  53  55  57  64  66  65  66  69  63  61  65  57  77  79  67  95  97  87  68  69  61  69  69  67  57  57  59  56  55  60  65  64  69  66  66  68  68  68  66  57  57  55  65  65  65  75  75  75  73  73  73  83  83  83  72  72  72  83  83  83  83  83  83  72  72  72  61  59  59  68  66  66  83  81  82  56  54  55  75  73  73  81  78  79  67  64  65  70  68  69  71  69  70  71  69  70  71  69  70  70  68  69  70  68  69  69  67  68  69  67  68  69  67  68  68  66  64  74  72  70  74  72  70  68  66  64  78  73  72  77  72  71  75  71  70  74  71  65  72  68  53  161 158 134 143 139 106 153 151 106 206 204 148 167 164 99  124 122 50  145 143 68  161 158 91  140 135 73  85  77  23  142 135 80  159 152 95  156 150 84  201 197 121 174 172 88  176 171 88  172 167 87  172 168 92  149 145 71  117 114 35  152 149 70  184 183 108 194 191 123 190 184 127 177 170 113 153 150 85  159 156 86  138 135 66  166 162 98  131 126 69  138 133 78  170 166 110 125 120 65  126 121 66  189 185 125 208 204 132 137 135 49  119 120 20  140 141 38  120 116 26  120 115 35  129 123 48  164 157 89  135 126 70  107 98  42  130 123 55  136 130 57  172 165 99  151 143 84  112 105 51  126 119 67  158 150 100 163 155 105 126 119 67  146 139 87  175 168 116 161 155 98  158 153 86  140 136 63  176 169 96  149 142 74  90  84  25  53  47  0   83  79  10  128 122 49  122 116 43  144 138 65  102 93  21  153 145 70  161 153 78  169 163 87  172 166 91  158 153 75  147 143 55  183 180 87  134 131 38  172 169 79  184 179 97  194 189 109 135 131 44  136 133 43  187 183 98  158 154 71  189 184 101 193 188 106 199 194 112 126 121 38  173 168 88  175 169 91  162 156 80  192 186 111 196 190 114 150 144 69  179 173 98  175 169 89  115 113 25  172 171 78  164 163 70  105 104 18  115 111 37  82  77  11  119 114 48  145 141 69  155 155 73  134 134 50  170 170 90  158 155 76  136 133 54  161 155 77  185 180 98  170 166 79  190 185 93  204 198 109 175 167 90  180 169 100 172 160 91  165 154 82  201 191 113 168 161 79  153 145 68  177 169 96  149 140 73  121 112 43  144 136 57  178 173 91  174 171 92  135 133 63  117 110 58  116 106 68  105 95  75  106 95  81  126 118 93  108 102 68  128 124 78  150 146 100 134 129 89  162 156 121 143 137 103 147 141 106 129 125 90  131 128 92  136 132 97  152 148 117 172 169 150 112 107 95  117 112 100 118 113 101 126 121 111 124 118 109 113 108 98  136 131 121 125 119 110 122 117 108 120 115 105 118 112 103 119 113 106 122 117 110 119 114 104 111 106 94  174 170 149 145 142 118 117 113 92  120 116 97  116 109 95  110 103 92  105 98  89  116 108 101 103 97  92  97  91  86  92  86  81  92  86  81  93  87  82  93  87  82  94  88  84  96  90  85  96  90  85  113 107 102 122 116 112 114 108 103 111 105 100 106 100 95  114 108 103 97  91  86  100 94  89  114 108 103 120 114 109 117 111 106 103 97  92  91  85  80  96  90  85  115 109 105 93  87  82  91  85  80  94  88  84  98  92  87  103 100 94  100 96  91  98  94  86  95  92  84  94  93  84  101 99  93  99  98  94  90  88  86  87  87  87  86  86  88  79  78  83  69  71  75  65  71  76  57  63  68  53  56  62  47  51  56  46  49  55  49  53  58  55  57  63  60  62  66  67  70  67  74  78  70  80  82  74  85  86  79  89  88  81  88  87  80  95  92  86  104 101 95  105 104 98  99  98  92  99  98  92  105 104 98  102 99  91  109 106 98  92  88  80  113 109 101 116 113 105 115 112 104 113 109 101 109 106 98  111 105 96  119 114 104 118 112 103 107 102 92  131 125 116 117 111 102 131 125 116 121 116 106 113 108 98  111 105 96  122 117 108 117 111 102 108 103 96  111 105 98  113 107 100 96  90  83  98  92  85  98  92  85  98  92  85  98  92  85  99  93  86  99  93  86  99  93  86  99  93  86  100 95  87  100 95  87  100 95  87  100 95  87  99  93  86  99  93  86  99  93  86  99  93  86  114 109 101 111 105 98  104 98  91  106 100 93  103 97  90  103 97  90  103 97  90  103 97  90  101 96  89  101 96  89  101 96  89  101 96  89  101 96  89  101 96  89  101 96  89  101 96  89  106 100 93  106 100 93  106 100 93  106 100 93  105 99  92  105 99  92  106 100 93  106 100 93  106 101 91  106 101 91  107 102 92  107 102 92  124 118 109 120 115 105 124 118 109 99  94  84  108 104 92  117 112 100 117 112 100 108 104 92  122 117 105 119 114 102 106 101 89  113 108 96  114 109 97  108 104 92  106 101 89  105 100 88  105 100 88  104 99  87  108 104 92  107 102 90  111 105 96  132 126 117 93  88  78  105 100 90  112 107 97  103 97  88  110 104 95  110 104 95  113 109 101 103 100 92  102 99  89  99  96  85  95  92  82  92  88  82  75  71  70  68  64  63  41  39  38  55  54  48  44  43  30  64  62  44  77  73  54  70  65  44  79  69  50  73  60  40  61  47  17  78  64  26  96  82  32  111 97  45  96  81  36  
159 157 58  215 212 122 206 202 113 187 185 86  185 183 82  144 142 43  172 170 71  132 131 24  172 171 67  142 140 40  158 155 61  161 158 63  190 187 92  183 181 81  164 162 65  161 161 67  200 199 108 203 202 109 184 183 88  166 167 64  161 163 53  156 158 44  178 180 66  161 163 55  152 152 54  137 135 49  172 168 92  128 121 53  115 107 44  237 230 166 219 213 140 211 207 119 219 215 116 197 194 88  169 165 64  206 200 115 139 131 54  123 115 36  140 135 54  149 143 66  130 125 47  179 176 97  144 141 62  201 198 117 211 209 128 202 199 120 160 157 76  211 210 122 174 174 78  168 170 64  158 160 50  177 176 67  171 171 62  180 179 75  184 181 86  145 138 54  139 133 46  126 121 25  140 136 37  155 150 54  154 150 51  191 188 80  181 179 66  166 166 57  148 149 30  163 167 29  169 173 37  175 175 63  133 130 33  128 125 31  141 139 39  106 105 0   137 137 28  198 196 94  204 201 104 211 206 112 230 224 133 189 183 92  123 117 26  193 187 93  215 210 114 217 212 116 216 211 115 194 189 93  206 202 105 222 220 125 210 206 114 189 185 93  98  95  0   114 114 12  160 161 60  167 166 75  136 135 44  133 133 36  147 148 45  140 142 34  156 157 48  138 140 32  138 140 32  137 138 33  193 194 91  157 157 57  140 141 40  184 184 82  196 197 96  108 107 12  174 173 80  184 182 92  128 126 36  109 108 15  144 144 46  117 118 13  180 181 76  177 177 75  121 121 23  89  87  1   125 123 37  175 175 81  171 171 73  152 152 52  122 123 20  173 175 67  168 170 60  182 184 76  160 161 60  151 149 61  151 149 63  163 162 69  182 183 80  188 190 78  168 170 60  156 156 58  151 150 59  131 129 43  147 145 60  150 149 56  138 136 50  119 114 50  107 98  51  94  84  48  102 91  59  81  71  34  118 111 59  117 114 37  182 181 90  207 207 107 185 187 77  166 169 52  188 192 70  208 212 90  190 194 76  172 173 66  167 168 65  179 179 79  192 190 100 197 194 116 188 183 118 202 194 145 82  75  23  180 174 99  232 229 134 187 188 74  204 205 84  200 202 81  144 144 33  168 165 70  148 144 54  135 132 38  172 169 75  169 165 75  171 168 78  158 155 61  166 163 71  107 102 22  105 98  25  94  90  16  130 128 44  157 157 59  131 132 29  126 126 31  96  95  4   121 119 29  118 117 24  189 190 89  184 184 82  140 141 40  138 138 42  181 180 91  185 184 91  170 171 62  182 186 66  171 177 59  149 154 41  153 156 50  167 170 68  161 163 67  170 172 76  174 177 75  184 187 88  188 189 97  196 197 106 223 225 128 116 118 21  95  96  4   131 132 38  157 161 55  114 119 8   174 178 69  184 187 86  194 194 105 159 158 76  156 155 80  135 131 73  141 135 102 93  88  62  51  46  16  148 145 110 115 111 76  50  46  0   172 168 94  154 153 63  172 171 76  187 188 94  129 132 44  113 115 30  105 110 24  103 108 22  141 146 60  139 143 62  128 133 61  164 170 95  153 160 73  176 182 103 153 158 104 101 101 72  79  76  64  63  59  55  57  56  52  70  69  65  62  60  59  57  55  56  56  56  56  55  55  55  55  55  55  55  55  55  53  56  55  53  56  55  51  52  49  62  62  60  55  58  57  61  64  61  67  71  61  72  78  55  97  103 66  114 120 86  66  69  54  72  73  70  54  53  56  57  56  61  64  63  68  70  69  72  64  64  62  59  60  57  65  65  65  75  75  75  73  73  73  83  83  83  72  72  72  83  83  83  83  83  83  72  72  72  61  59  59  68  66  66  83  81  82  56  54  55  75  73  73  81  78  79  67  64  65  70  68  69  71  69  70  71  69  70  71  69  70  70  68  69  70  68  67  69  67  66  69  67  68  69  67  68  68  66  64  74  72  70  74  72  70  68  66  64  70  66  62  75  71  68  84  79  78  89  86  80  57  52  40  177 174 150 183 180 143 141 140 91  136 134 76  128 126 67  122 120 64  126 123 69  180 178 122 96  90  42  81  72  39  82  72  46  86  78  47  126 119 76  149 146 83  128 126 56  109 109 43  85  83  22  92  90  33  159 157 99  135 135 66  134 134 61  96  96  28  85  84  18  136 134 66  145 143 71  208 207 127 171 171 89  171 171 89  147 146 67  153 151 79  205 204 129 203 203 119 162 162 78  138 135 66  130 126 61  157 152 83  143 140 59  156 156 54  163 164 57  135 133 36  157 153 66  155 150 67  173 167 94  137 126 68  98  86  33  84  75  17  125 117 53  170 163 95  141 134 64  147 143 72  139 135 64  114 109 40  163 157 91  142 136 72  163 157 93  157 151 87  150 144 80  152 147 78  150 145 76  120 113 45  105 97  31  113 105 44  78  70  7   104 96  28  104 97  26  114 107 37  107 100 30  125 118 47  146 139 66  141 135 57  120 115 35  122 117 35  135 131 44  129 126 34  119 116 21  133 129 37  141 137 49  127 122 41  158 153 75  113 108 28  133 128 45  164 160 75  184 180 92  197 193 105 143 139 52  140 135 50  109 105 22  133 128 45  173 168 88  173 168 88  185 180 100 179 174 94  159 154 74  185 180 100 148 143 62  181 179 95  156 154 68  157 156 65  150 148 62  142 138 64  130 125 56  177 173 99  156 152 74  167 165 81  96  93  12  116 112 40  110 105 38  129 124 57  151 147 75  167 164 83  163 159 74  139 134 51  176 171 90  175 169 93  182 174 99  168 160 85  162 154 79  174 166 87  175 169 91  172 165 97  176 168 105 163 155 94  151 144 78  168 160 81  182 177 92  158 156 72  175 172 94  178 174 100 168 162 101 142 136 90  157 151 108 201 195 143 174 170 110 180 176 114 191 188 125 184 182 123 204 201 145 190 187 131 185 183 127 197 194 138 185 183 127 187 187 130 188 186 141 143 137 114 115 107 96  110 105 93  127 122 110 97  91  82  110 104 95  149 144 134 112 107 97  123 120 110 121 118 108 118 116 105 116 113 103 119 113 106 122 117 110 119 113 106 111 107 88  146 145 105 155 156 108 140 140 97  142 141 105 104 100 72  130 124 103 114 107 91  98  91  80  94  89  82  94  88  84  92  88  82  92  88  82  93  89  84  94  90  85  94  90  85  94  90  85  96  93  87  115 111 106 123 119 114 115 111 106 104 101 95  96  93  87  115 111 106 94  90  85  97  91  86  117 111 106 124 117 113 113 107 102 94  90  85  91  87  81  100 96  91  115 111 106 93  87  82  91  85  80  94  88  84  100 94  89  101 97  92  99  95  89  96  93  85  95  92  84  90  89  80  94  92  86  96  94  90  94  92  90  90  90  90  84  83  86  77  76  81  72  73  77  65  71  76  57  63  68  53  56  62  47  51  56  46  49  55  49  53  58  55  57  63  60  62  66  65  68  64  76  80  72  83  84  77  83  84  77  85  84  78  89  88  81  92  88  82  95  92  86  105 104 96  99  99  90  99  99  90  105 104 96  104 101 93  104 101 93  94  91  83  113 109 101 115 112 102 116 113 103 115 112 102 110 107 97  110 104 95  123 115 106 118 110 102 110 102 94  122 117 108 120 115 105 134 129 119 113 108 98  110 104 95  117 111 102 126 121 111 118 112 103 101 96  89  107 102 94  112 106 99  96  90  83  96  93  85  96  93  85  96  93  85  96  93  85  98  94  86  98  94  86  98  94  86  98  94  86  99  95  87  99  95  87  99  95  87  99  95  87  98  94  86  98  94  86  98  94  86  98  94  86  102 99  91  111 108 100 100 97  89  103 100 92  100 95  87  100 95  87  100 95  87  100 95  87  101 96  89  101 96  89  101 96  89  101 96  89  101 96  89  101 96  89  101 96  89  101 96  89  106 100 93  106 100 93  106 100 93  106 100 93  105 99  92  105 99  92  106 100 93  106 100 93  106 101 91  106 101 91  107 102 92  107 102 92  122 117 108 121 116 106 120 115 105 101 96  87  111 106 94  113 108 96  113 108 96  111 106 94  120 115 103 115 111 99  104 99  87  110 105 93  114 109 97  108 104 92  106 101 89  105 100 88  100 95  83  106 101 89  106 101 89  112 107 95  108 103 94  132 126 117 104 98  89  106 101 91  101 96  87  97  91  82  102 99  89  98  95  84  110 107 99  95  92  84  94  91  83  96  93  85  80  78  74  103 100 101 61  59  59  44  41  40  39  36  30  74  72  57  66  66  41  64  64  34  70  66  38  63  55  31  84  74  50  114 102 76  123 110 80  123 108 70  125 111 61  116 102 50  99  83  38  
176 175 70  221 218 124 193 190 96  158 156 57  135 133 31  169 167 65  200 199 93  193 194 78  183 184 65  177 178 61  147 147 33  132 131 20  177 176 69  155 154 49  185 183 84  196 196 98  189 189 91  144 144 46  151 152 49  153 155 45  136 138 26  146 149 36  125 128 15  144 145 38  166 166 66  167 165 79  165 162 83  126 120 42  132 126 48  185 179 106 251 246 168 214 211 121 198 196 94  206 206 94  197 194 88  194 188 97  161 153 74  175 169 91  169 162 89  106 99  29  104 97  24  150 147 68  173 170 89  216 214 130 215 212 131 153 150 71  165 162 81  168 167 79  177 176 79  177 178 69  165 168 53  166 167 53  159 159 50  159 158 56  140 137 42  168 161 77  151 144 58  128 124 27  181 177 76  213 209 112 189 185 84  179 176 65  177 176 60  184 184 70  177 178 57  196 200 62  164 168 34  132 131 24  118 115 20  176 173 76  125 123 23  129 128 24  170 168 66  200 197 103 186 183 93  193 187 95  230 224 133 179 173 79  186 180 86  226 221 127 184 180 83  213 209 110 217 213 114 233 229 130 194 189 91  222 220 125 228 225 131 180 178 83  168 165 68  170 169 72  139 139 43  117 116 27  119 118 30  136 135 40  143 144 41  163 164 59  157 158 51  153 155 47  171 172 65  173 174 69  184 185 80  154 156 50  161 163 55  151 152 45  145 146 43  122 120 32  156 153 70  111 109 25  142 140 52  139 138 45  137 137 37  145 147 39  147 149 41  133 134 31  149 149 51  152 150 62  166 164 78  168 168 72  179 179 79  126 127 27  170 171 66  172 174 64  189 192 79  178 180 70  196 197 94  171 170 77  194 193 102 170 169 72  167 168 63  192 194 82  150 152 42  153 153 55  146 145 54  116 114 26  142 140 52  154 154 58  154 152 67  168 162 103 168 159 119 111 100 72  93  81  55  101 90  57  124 116 67  167 163 91  195 194 105 192 192 94  159 160 55  158 160 50  172 174 62  193 196 81  182 185 72  200 201 96  180 181 76  161 163 55  195 195 97  213 209 131 197 191 132 75  66  26  83  75  28  207 201 126 189 186 89  175 175 63  189 190 71  201 202 84  178 178 69  150 147 57  173 169 86  132 128 40  176 172 84  192 187 107 158 153 73  148 144 54  135 131 44  102 97  19  105 98  27  82  78  6   94  90  14  109 107 19  117 117 21  110 111 10  149 149 49  188 187 94  172 171 76  159 160 57  174 175 70  201 201 101 172 172 74  173 173 75  214 215 112 201 204 85  160 164 40  138 143 27  141 145 37  170 173 72  163 166 67  147 149 53  134 136 40  164 167 66  203 205 107 102 103 11  92  93  4   135 137 43  189 190 99  160 159 78  202 202 117 217 220 118 191 195 87  173 177 66  142 146 40  169 171 75  219 220 133 178 178 98  112 109 44  112 105 66  124 115 86  58  50  17  170 163 122 177 171 125 99  96  33  172 170 84  121 118 24  137 136 43  136 134 46  107 107 27  86  88  7   117 121 31  147 153 60  153 158 70  146 151 65  150 154 69  118 125 40  169 175 94  121 126 54  87  90  32  136 139 92  159 161 124 102 102 77  39  37  24  59  57  53  63  61  60  60  57  58  56  56  56  55  55  53  55  55  53  55  55  51  53  56  53  53  56  53  49  50  45  64  65  60  58  61  55  59  63  52  78  82  60  99  105 69  120 128 78  116 124 78  65  68  51  75  75  72  51  50  55  58  57  62  63  62  67  72  72  74  61  61  61  61  61  61  65  65  65  75  75  75  73  73  73  83  83  83  72  72  72  83  83  83  83  83  83  72  72  72  54  52  52  66  63  64  87  85  83  63  61  60  82  80  78  83  81  79  63  61  62  63  61  62  71  69  70  71  69  70  71  69  70  70  68  69  70  68  67  69  67  66  69  67  66  69  67  66  74  72  70  68  66  64  68  66  64  74  72  70  88  84  81  85  81  77  79  74  74  75  72  66  99  94  84  89  85  66  115 111 78  193 190 148 158 156 109 67  64  17  171 166 127 121 116 75  137 134 85  188 185 138 102 96  64  83  75  50  124 117 90  89  84  47  124 122 66  112 111 47  109 108 47  94  92  34  113 111 54  151 149 91  152 152 86  102 102 34  109 108 47  87  86  25  68  64  2   131 128 59  118 117 38  161 161 77  187 187 100 106 106 22  142 141 64  183 183 101 157 159 67  187 187 98  161 159 87  115 110 43  102 98  24  80  77  0   133 134 33  154 156 50  166 164 67  172 169 77  165 161 74  112 106 28  176 166 103 111 100 42  113 104 46  134 126 65  132 125 54  140 134 58  153 150 69  144 141 60  114 111 30  185 182 103 119 116 42  129 125 51  164 160 86  146 142 68  159 155 81  121 117 43  147 140 69  163 156 88  127 120 52  109 102 34  123 113 46  91  82  14  102 95  27  104 96  28  135 130 61  156 151 80  161 157 84  170 166 88  163 160 77  165 161 76  137 133 46  140 136 48  120 116 28  106 102 16  112 107 24  163 158 78  156 150 73  183 177 99  164 159 77  129 124 42  144 140 57  139 134 49  127 122 37  143 139 54  176 171 86  158 154 71  157 152 70  173 169 86  169 164 81  141 136 53  177 172 90  166 162 79  182 179 101 179 176 95  160 159 70  197 195 110 173 169 97  195 190 121 190 187 111 179 176 93  177 175 89  96  93  12  136 131 60  105 100 36  130 124 60  118 114 45  149 145 69  175 173 92  144 139 61  93  88  10  187 182 102 197 192 111 191 185 108 175 169 91  173 168 90  170 164 89  172 165 99  164 156 93  166 158 97  116 109 41  119 111 34  127 120 38  137 133 50  154 152 71  180 177 98  181 176 107 169 164 109 159 154 101 160 157 92  150 148 78  160 157 88  160 157 92  151 149 91  148 145 91  130 128 74  127 124 70  178 176 120 165 163 105 158 158 101 133 131 87  107 101 80  117 109 101 131 125 116 108 103 96  121 115 110 127 121 116 125 119 110 117 111 102 123 120 110 121 118 108 118 116 105 116 113 103 119 114 104 122 117 108 119 113 106 111 107 88  165 166 120 205 208 150 197 199 146 200 201 153 122 119 79  131 127 96  98  93  72  94  90  78  96  90  83  96  90  85  94  90  85  94  90  85  94  90  85  94  90  85  94  90  85  94  90  85  99  95  89  116 112 107 125 122 116 117 114 108 101 97  92  91  87  81  117 114 108 94  90  85  94  88  84  119 113 108 126 120 115 111 105 100 88  85  79  92  88  82  103 100 94  115 111 106 92  88  82  89  86  80  93  89  84  98  94  88  100 96  91  99  94  84  98  91  78  97  93  76  89  86  76  89  88  79  92  91  85  97  95  91  92  92  90  82  81  82  75  74  77  74  76  80  67  70  76  57  63  68  53  56  62  47  51  56  46  49  55  49  53  58  54  58  63  60  62  66  62  65  62  79  82  74  85  86  79  80  82  74  87  85  79  95  93  87  98  94  88  93  89  84  92  92  83  91  90  82  97  96  87  106 106 97  106 102 94  106 102 94  89  86  78  116 113 105 114 109 99  118 112 103 117 111 102 114 109 99  110 102 94  123 115 106 121 113 104 109 101 92  115 110 101 121 116 106 135 130 120 107 102 92  111 105 96  114 109 99  122 117 108 112 107 97  97  91  84  104 98  91  111 105 98  97  91  84  96  93  85  96  93  85  96  93  85  96  93  85  98  94  86  98  94  86  98  94  86  98  94  86  99  95  87  99  95  87  99  95  87  99  95  87  98  94  88  98  94  88  98  94  88  98  94  88  95  92  84  114 111 103 99  95  87  103 100 92  98  92  85  98  92  85  98  92  85  98  92  85  101 96  89  101 96  89  101 96  89  101 96  89  101 96  89  101 96  89  101 96  89  101 95  91  106 100 95  106 100 93  106 100 93  106 100 93  105 99  92  105 99  92  106 100 93  106 100 93  106 100 93  106 100 93  107 102 94  107 102 94  119 113 106 119 111 105 125 117 111 102 94  85  115 107 98  114 106 97  114 106 97  115 107 96  119 112 101 113 108 96  101 97  85  107 102 90  114 109 97  108 104 92  106 101 89  105 100 88  97  92  80  107 102 90  105 100 88  117 112 100 99  94  84  125 119 110 104 98  89  100 95  85  96  90  83  97  91  84  102 99  91  92  88  80  108 105 97  89  86  80  87  83  78  94  90  85  81  77  76  88  85  86  52  49  52  35  30  29  46  43  33  78  74  55  82  79  53  56  54  23  69  65  35  60  54  22  57  49  17  114 103 70  72  60  25  99  86  45  127 115 65  109 95  43  108 92  48  
206 207 90  166 166 59  191 189 87  137 136 34  177 176 71  176 175 68  183 183 69  185 187 63  186 189 59  194 199 61  203 207 69  187 190 60  192 194 72  178 178 69  151 150 48  144 144 44  116 116 16  146 147 42  160 162 52  193 196 77  186 189 70  157 159 49  135 136 29  149 150 43  153 153 55  192 189 108 124 121 42  156 155 62  167 167 71  192 190 100 227 225 137 194 191 99  179 177 80  193 192 90  222 221 117 197 195 91  191 188 93  166 161 83  186 179 111 165 160 93  130 125 56  136 132 58  137 134 55  174 171 90  168 166 83  142 139 56  163 161 73  173 173 75  184 185 76  175 179 57  172 177 50  158 160 37  166 167 51  152 151 47  136 134 37  199 195 98  154 150 51  155 152 44  184 181 75  175 171 72  152 147 51  128 124 23  133 129 28  143 142 40  165 165 56  189 190 67  141 142 23  128 126 29  152 149 57  121 119 18  146 145 38  140 138 34  191 189 89  135 131 42  158 155 65  196 192 93  181 177 76  187 181 88  197 192 98  188 183 89  184 180 83  183 179 78  218 214 113 208 204 103 183 179 78  207 205 108 212 209 112 141 139 37  156 154 54  165 164 73  116 114 30  72  69  0   112 110 25  167 167 71  153 154 51  177 178 73  167 168 63  170 171 66  174 175 70  147 149 41  130 131 24  201 202 95  166 168 60  146 147 42  146 146 48  118 116 32  104 102 21  147 147 54  182 183 82  159 160 57  153 155 47  149 151 37  156 158 46  147 148 45  154 154 58  175 174 83  136 135 44  151 151 53  158 159 56  172 173 70  168 170 62  196 199 86  180 183 68  199 201 87  188 190 80  175 176 73  184 184 84  200 200 100 199 200 95  186 188 76  145 147 37  149 149 51  139 139 43  158 158 60  150 150 52  160 160 62  153 151 67  170 163 106 96  86  49  89  77  52  86  74  46  73  63  23  124 117 63  164 159 88  159 157 71  153 153 55  143 144 41  125 126 25  199 199 99  203 204 103 167 168 65  188 190 82  166 168 56  175 178 61  135 136 31  167 163 91  156 148 98  58  48  8   137 129 79  166 161 83  190 187 94  106 103 10  157 154 60  207 206 102 168 166 64  136 132 45  161 156 73  125 120 35  135 129 52  163 155 90  136 128 65  157 152 74  150 145 63  127 122 39  128 124 39  92  90  4   153 151 67  145 142 61  119 118 28  167 170 53  201 204 85  214 214 114 199 198 103 159 160 55  215 217 107 215 217 107 172 175 60  216 220 100 215 219 97  182 186 64  135 138 21  147 151 43  139 141 42  185 187 91  168 170 76  209 211 114 171 174 75  184 187 84  134 137 36  124 125 31  152 153 61  116 116 27  116 115 33  154 149 83  189 185 114 172 171 78  197 199 94  171 175 67  173 176 72  201 201 112 167 166 85  125 123 41  180 176 102 171 164 109 118 109 69  71  60  25  178 168 130 199 192 137 157 152 81  176 172 82  155 152 55  152 150 53  154 154 58  188 187 96  126 127 36  129 133 36  130 134 40  87  90  5   157 159 74  152 159 61  140 146 55  141 143 77  54  54  0   87  91  28  157 161 94  211 216 144 219 222 164 91  90  67  45  41  38  57  55  58  64  61  67  61  60  63  48  48  46  61  61  57  51  52  45  41  45  39  54  57  54  51  52  47  54  55  48  61  66  53  51  55  31  79  81  39  128 130 79  133 140 83  112 119 73  50  53  36  58  58  58  61  59  67  57  56  63  69  68  71  73  73  75  66  65  72  54  52  60  70  69  72  69  69  69  78  78  78  90  90  90  77  77  77  75  75  75  91  91  91  78  78  78  77  75  76  63  61  60  80  78  74  59  57  53  74  72  68  91  90  86  63  61  60  63  61  62  71  69  68  80  78  76  80  77  78  74  71  72  74  72  70  76  74  70  76  74  70  74  72  68  80  78  74  74  72  68  74  72  68  80  78  74  91  90  86  80  78  74  84  79  76  96  92  89  99  95  89  101 96  87  86  82  67  93  90  68  89  86  60  86  81  53  123 118 90  107 103 68  139 138 86  151 151 94  119 115 66  173 169 125 144 140 96  94  91  42  89  84  29  95  91  29  161 159 89  166 164 89  128 127 52  121 120 45  117 115 43  120 117 50  102 97  40  100 95  44  99  90  43  116 109 56  125 120 56  121 117 43  142 138 60  177 174 93  177 173 97  156 152 76  105 102 26  111 107 36  82  76  15  142 136 70  112 107 24  157 154 62  172 170 73  109 107 10  111 108 13  155 152 59  159 155 68  176 171 88  194 185 113 140 131 63  145 135 68  167 157 90  142 136 63  135 129 54  134 129 48  155 150 69  161 155 75  159 154 74  123 118 38  141 136 55  134 129 48  194 189 109 141 136 53  173 169 86  201 197 114 192 187 107 147 140 60  117 109 32  144 134 67  112 102 37  107 100 34  109 104 37  110 107 40  100 98  30  97  94  29  110 107 40  152 148 74  124 121 44  115 109 36  126 119 46  152 147 71  172 167 87  122 118 33  149 145 60  116 111 31  159 154 76  119 113 35  141 134 62  183 174 106 120 112 39  131 124 40  160 154 65  161 156 71  122 118 33  132 127 42  180 176 91  156 150 65  133 126 42  170 166 81  197 192 109 194 188 113 178 172 97  208 206 122 172 169 88  171 166 95  196 192 123 135 131 55  184 181 98  172 170 84  135 132 49  128 124 48  124 120 48  129 124 55  133 128 62  143 138 69  180 176 104 181 178 99  126 124 41  133 132 42  166 164 76  171 166 84  156 150 73  186 180 105 148 141 68  173 164 92  203 194 124 155 146 74  140 131 59  130 122 45  155 147 70  156 148 73  137 131 58  137 130 64  142 135 78  161 155 107 121 116 65  131 127 65  192 190 122 179 178 115 157 154 101 119 114 74  119 112 80  112 108 78  131 127 94  189 187 146 126 124 82  137 134 94  146 144 115 118 113 101 119 113 108 110 104 99  124 117 115 111 103 108 106 99  101 120 114 107 114 109 99  114 111 103 125 122 114 114 111 99  118 116 101 119 114 100 124 119 105 115 110 103 126 122 105 162 159 122 174 173 123 139 140 90  181 182 131 183 184 136 145 144 105 120 117 95  87  85  72  91  87  79  92  88  80  94  91  83  96  93  85  102 99  91  99  95  87  92  91  85  90  89  82  112 111 105 101 99  93  119 118 112 95  93  87  91  90  86  91  90  86  112 111 105 92  88  82  101 98  90  113 109 101 116 112 107 117 114 108 94  90  87  95  92  86  88  85  77  113 109 101 95  92  86  90  89  82  94  95  90  87  85  79  92  88  80  111 105 89  114 103 72  157 149 118 120 118 100 91  92  83  87  88  81  106 107 102 95  96  93  91  91  91  74  77  76  55  57  59  60  61  68  55  58  66  52  55  63  48  53  60  43  49  56  44  50  57  51  57  64  66  70  73  55  60  56  79  82  74  91  92  85  92  93  86  88  87  80  83  82  75  93  89  84  100 96  91  94  91  83  96  93  85  95  94  85  89  88  79  98  97  89  109 108 99  101 100 91  120 116 108 118 110 102 120 110 102 113 103 95  123 113 105 113 103 95  128 118 110 113 103 95  116 108 99  126 121 111 112 107 97  128 123 113 120 115 105 101 98  88  141 138 127 110 107 97  98  95  84  96  93  85  108 105 97  108 105 97  100 97  89  98  94  86  98  94  86  98  94  86  98  94  86  98  94  86  98  94  86  98  94  86  98  94  86  99  95  87  99  95  87  99  95  87  100 96  91  100 95  95  99  94  93  96  92  91  94  90  87  98  94  88  103 100 92  103 100 90  98  95  84  106 102 94  94  91  83  104 101 95  101 98  90  89  86  78  91  88  77  108 105 97  103 100 92  95  92  82  106 103 92  106 102 96  95  91  88  101 97  94  109 105 100 103 100 90  111 109 98  101 96  89  106 100 95  106 100 95  101 95  91  110 102 98  110 102 98  119 111 107 107 98  94  129 120 116 121 110 107 122 111 108 114 103 98  109 99  93  133 122 117 116 106 100 116 106 98  119 109 99  115 107 96  109 102 90  103 96  85  110 103 92  116 109 97  104 97  84  104 97  84  101 97  83  105 100 86  125 120 108 106 101 89  104 98  89  122 117 108 103 100 92  98  94  86  100 96  91  96  93  87  92  88  82  88  85  79  97  91  86  98  91  89  92  86  83  83  77  72  80  76  71  80  76  73  35  30  31  44  40  37  58  54  37  58  52  31  59  53  32  56  51  28  93  86  57  72  67  30  76  69  26  124 115 71  72  61  19  64  53  9   100 91  37  126 115 59  118 106 55  
189 189 73  182 182 70  168 167 58  192 191 85  192 191 85  192 192 82  176 176 60  162 164 38  168 171 36  183 187 47  198 203 62  226 229 98  182 183 62  162 161 56  126 124 24  143 144 41  173 175 67  202 204 94  180 183 68  179 182 63  188 191 74  122 123 16  126 128 22  112 114 9   137 137 39  131 128 49  131 128 49  182 182 84  179 180 77  154 154 58  185 184 91  173 170 78  162 159 66  171 170 77  161 161 65  217 215 113 175 172 77  133 127 51  219 212 144 184 179 108 168 164 91  156 152 78  100 96  20  153 150 69  170 167 84  175 174 86  165 164 69  185 185 83  177 179 67  200 204 82  177 181 54  168 170 44  192 193 74  178 178 69  175 173 69  205 202 96  172 169 60  181 178 68  160 157 49  108 103 6   135 130 38  142 137 43  131 126 32  143 141 44  185 183 82  170 170 58  136 136 27  109 107 12  119 116 21  137 136 32  148 147 40  175 173 69  154 151 54  129 126 36  159 156 64  160 156 55  134 131 27  148 143 47  198 193 99  181 176 80  154 150 51  149 145 44  182 178 75  168 164 61  167 163 62  193 191 92  190 188 88  180 178 79  159 157 62  119 117 36  80  76  2   71  67  0   110 107 26  181 181 85  196 197 94  190 191 89  174 175 72  168 169 66  138 139 36  115 116 13  161 163 57  190 192 87  145 146 41  146 147 42  137 137 39  139 137 51  178 175 92  132 132 36  157 157 55  136 137 32  124 126 18  166 168 56  147 149 39  122 122 22  158 157 62  156 155 62  165 164 69  160 161 60  157 158 53  150 151 46  161 163 55  156 158 46  171 173 59  207 209 97  179 181 71  163 164 59  196 197 94  181 182 77  199 201 91  206 209 92  179 181 69  170 170 70  156 155 60  140 141 40  123 123 23  144 143 48  144 142 58  101 95  33  90  82  37  79  69  31  82  73  33  135 127 75  158 152 90  116 111 42  192 188 110 145 144 51  129 129 31  182 182 88  182 182 88  143 142 49  135 135 35  177 178 69  184 187 67  180 184 60  145 147 37  122 117 46  118 110 61  108 99  56  130 122 72  171 165 92  170 164 87  136 129 61  135 128 58  165 161 78  171 167 80  158 154 69  166 162 79  135 130 50  114 107 37  105 95  42  116 107 53  159 152 84  161 155 75  169 165 75  163 160 65  165 164 69  144 143 52  99  96  15  108 107 16  193 197 73  209 214 85  187 188 83  190 190 95  165 165 65  192 194 84  178 182 60  190 196 66  208 214 80  189 195 63  196 201 76  158 160 48  204 207 106 173 174 80  167 168 74  147 149 55  136 138 44  149 151 57  162 164 68  149 151 55  161 163 65  182 184 88  206 207 118 185 184 107 125 119 60  101 95  33  167 164 83  217 217 121 188 190 89  199 202 101 168 169 80  135 135 53  136 132 56  133 129 60  132 126 67  62  54  7   82  72  35  105 96  54  114 107 48  116 112 36  142 138 49  147 145 45  172 171 69  179 178 74  225 226 123 153 154 53  198 201 102 105 108 16  74  76  0   89  92  9   98  105 9   129 134 46  136 137 73  165 166 104 154 158 81  183 191 101 186 196 95  204 210 129 168 166 133 53  50  42  58  53  53  54  52  52  63  61  60  47  48  41  42  44  32  64  67  50  79  82  63  68  71  51  71  72  54  82  83  62  84  89  60  104 108 70  109 108 56  136 136 77  103 110 51  98  105 61  50  53  36  58  58  60  61  59  67  57  56  63  64  64  64  75  75  75  70  69  76  54  52  60  68  67  70  71  71  71  79  79  79  88  88  88  77  77  77  75  75  75  91  91  91  78  78  78  60  57  58  68  66  64  81  80  73  74  73  66  75  74  67  90  89  82  71  69  68  78  76  75  77  75  74  74  72  68  74  72  70  80  78  76  78  77  73  71  70  66  71  70  66  78  77  73  68  66  62  75  73  69  75  73  69  68  66  62  77  76  72  78  77  73  81  77  74  81  77  74  81  77  74  99  95  91  69  63  58  65  60  52  75  70  58  68  64  47  75  69  51  80  76  45  80  79  29  126 127 67  126 124 65  169 167 108 137 136 75  128 125 62  110 106 44  132 129 62  131 128 51  152 149 70  125 122 44  119 116 42  149 143 79  101 94  37  92  83  36  99  90  45  117 108 66  94  86  38  133 127 68  143 138 69  122 118 44  114 110 34  130 126 52  178 173 104 153 148 82  107 101 37  135 129 67  128 122 58  146 139 66  172 168 85  164 160 73  132 128 38  140 136 46  178 174 87  168 163 78  178 173 91  183 175 98  186 177 105 137 128 56  169 160 88  161 155 79  191 185 110 159 154 76  163 158 78  144 139 59  135 130 48  163 158 76  189 184 101 191 186 104 184 180 95  173 169 84  172 168 81  189 185 97  151 147 60  112 106 19  110 103 21  131 122 50  138 128 61  108 101 33  95  90  23  81  78  13  76  74  11  94  93  32  84  80  20  124 119 54  129 123 59  139 130 69  168 159 98  112 105 36  177 171 96  180 176 89  137 133 46  102 97  17  129 124 46  108 102 27  151 145 72  163 153 89  161 152 84  173 166 82  175 169 80  111 106 21  129 125 40  91  86  1   152 148 61  195 188 102 158 151 65  168 164 76  159 155 72  163 157 80  185 180 102 132 130 46  103 100 19  116 112 40  170 165 94  156 152 74  161 159 78  151 149 65  142 139 58  103 100 23  94  90  16  111 107 38  103 98  31  82  76  15  163 157 91  168 165 89  204 202 119 147 146 58  142 140 52  204 199 116 157 152 74  148 141 71  150 143 73  183 175 100 187 179 102 191 183 106 188 180 103 168 160 85  170 162 89  159 150 80  170 161 93  169 161 98  159 151 92  164 157 102 118 113 58  145 142 77  177 174 111 142 139 85  123 118 79  107 100 75  114 105 90  105 99  83  110 104 83  139 135 107 144 140 109 104 101 77  113 109 92  120 114 107 122 116 112 113 107 100 113 107 102 127 120 122 104 97  99  112 106 101 133 128 118 121 116 108 118 112 105 110 104 95  107 102 90  119 114 100 124 119 105 119 114 102 118 112 96  107 102 74  132 129 91  104 102 59  145 146 97  172 174 121 170 171 123 149 149 119 109 107 90  92  89  76  95  92  84  95  92  84  96  93  85  84  80  72  88  85  77  94  93  84  98  97  89  113 112 106 106 105 99  125 124 117 97  96  89  91  90  86  102 98  95  123 119 114 92  88  82  103 100 92  107 104 96  115 112 104 107 104 96  93  90  82  103 97  90  98  93  83  101 98  88  81  80  71  105 104 98  84  83  75  84  84  71  142 141 118 185 180 150 193 184 141 201 193 155 165 164 144 109 111 99  75  76  66  76  77  70  83  83  79  90  90  88  86  89  85  76  78  80  60  62  66  54  56  62  47  51  56  42  48  53  46  53  57  43  49  54  46  53  57  56  62  65  74  79  73  80  83  75  93  94  87  98  99  92  102 100 94  125 124 117 104 101 95  109 105 100 104 101 93  100 97  89  92  92  83  101 100 91  103 102 93  97  96  87  92  92  83  116 113 105 130 122 113 131 121 113 124 114 106 134 124 116 108 98  90  124 114 106 112 102 94  116 108 99  117 111 102 131 125 116 128 123 113 119 114 104 121 118 108 127 124 113 101 98  88  100 97  87  102 99  91  114 111 103 114 111 103 104 101 93  99  95  87  99  95  87  99  95  87  99  95  87  99  95  87  99  95  87  99  95  87  99  95  87  99  95  87  99  95  87  99  95  87  99  95  89  93  88  88  94  90  89  98  93  90  100 96  91  106 102 94  107 104 94  102 100 87  93  90  78  100 95  85  111 105 98  94  89  82  107 102 94  108 103 94  107 102 92  83  78  68  96  90  81  103 98  84  103 98  86  103 97  90  103 97  92  106 100 97  107 101 96  100 95  83  101 97  85  105 100 90  114 109 101 114 109 101 105 99  92  110 102 96  111 103 97  115 107 100 109 101 94  130 120 114 122 112 106 123 113 107 114 103 98  104 91  86  120 107 103 108 98  92  107 97  89  119 109 99  113 103 93  107 99  88  104 97  86  108 100 89  110 103 90  104 97  84  101 94  80  110 105 91  113 109 94  122 117 105 104 99  87  107 102 92  119 114 104 96  90  81  88  85  77  91  87  81  89  86  80  88  85  79  88  85  79  86  80  75  94  88  84  99  93  88  98  92  85  84  79  69  35  29  22  50  44  39  28  23  13  75  69  49  87  80  55  66  58  38  48  40  17  72  66  32  58  53  12  103 97  47  102 95  42  94  84  37  99  88  42  141 132 76  101 93  34  90  79  23  
180 179 75  157 157 48  198 198 86  196 196 82  169 169 55  183 183 71  156 156 42  169 171 45  156 159 28  171 173 47  205 206 85  185 185 73  114 112 11  125 121 29  125 122 27  173 175 67  153 156 41  211 215 97  194 197 82  124 126 18  126 128 22  107 108 3   119 121 15  119 121 15  145 145 49  181 178 99  175 172 94  190 190 97  160 160 62  158 157 64  178 176 86  210 209 118 166 165 74  150 148 62  159 157 71  164 162 74  159 157 73  151 147 73  128 124 50  173 171 87  188 186 102 158 155 76  103 100 23  96  93  16  139 137 53  180 180 84  195 196 93  177 178 73  168 170 62  174 176 66  152 155 40  183 183 67  189 190 71  186 187 69  185 186 69  175 173 60  181 178 68  168 166 55  140 136 33  124 118 29  189 182 98  151 144 58  161 155 64  169 167 67  168 166 64  175 173 69  129 128 24  119 117 15  139 137 35  125 123 19  144 143 39  182 180 78  184 181 84  200 197 105 179 176 82  127 123 24  155 151 50  166 161 63  160 155 57  144 139 40  116 112 11  144 140 38  197 193 92  181 177 76  193 188 87  196 194 90  182 180 80  183 180 87  101 96  14  132 128 57  119 114 48  109 104 35  197 194 118 192 190 100 189 189 91  181 181 83  161 161 65  132 132 36  99  98  3   129 128 33  172 172 74  150 150 50  117 118 15  140 141 38  160 161 58  154 154 58  154 154 61  135 134 41  137 136 43  139 139 43  151 151 53  145 146 43  132 133 32  110 110 12  133 133 36  114 114 16  153 154 53  151 152 47  142 143 38  137 138 33  138 139 34  118 120 12  174 176 66  184 185 76  163 164 57  186 186 86  213 213 111 163 165 53  189 193 73  192 196 74  182 185 70  180 180 80  168 168 74  138 138 42  114 113 18  179 178 87  168 166 81  136 132 58  157 152 85  105 100 38  136 130 68  197 192 126 119 114 48  90  84  23  153 148 80  138 136 52  139 138 47  137 135 47  123 121 33  140 140 47  139 140 39  199 201 87  217 222 97  190 196 66  131 134 19  116 113 32  128 121 62  136 128 78  140 133 81  164 156 95  126 117 58  140 129 85  102 91  47  109 100 44  125 117 49  119 114 33  134 129 46  139 132 59  115 107 46  104 93  46  114 103 57  152 144 83  162 156 78  193 191 94  147 145 41  85  85  0   86  86  0   92  90  2   150 149 54  211 215 95  172 176 52  128 129 24  157 156 61  208 207 114 158 159 52  161 168 31  209 217 69  192 199 55  179 185 51  192 196 74  196 198 88  226 228 132 156 157 66  187 188 94  188 190 93  174 175 83  164 165 78  192 192 112 209 209 124 175 178 77  153 156 52  148 150 56  89  88  9   125 119 60  68  62  5   133 128 62  203 200 122 210 211 118 219 222 123 187 189 90  152 152 65  143 137 73  116 109 56  136 126 75  151 141 92  158 148 101 107 97  46  99  91  30  125 118 45  145 143 57  175 175 77  209 210 105 199 201 91  185 187 75  166 168 60  132 133 32  116 116 27  103 105 27  98  98  25  133 134 54  170 171 91  131 132 57  208 210 128 183 190 92  202 211 101 192 202 82  203 210 112 200 201 153 35  32  10  54  53  35  44  42  27  44  43  32  49  49  36  64  66  45  91  94  61  107 115 65  118 127 71  91  96  51  70  75  30  69  77  28  115 121 67  103 104 42  139 140 78  89  93  42  34  38  2   50  52  40  58  58  60  61  60  65  57  56  61  58  59  56  76  76  74  75  75  75  55  54  57  65  65  65  73  73  73  83  83  83  85  85  85  77  77  77  76  76  76  91  91  91  78  78  78  73  71  69  81  79  75  87  86  77  69  68  59  74  73  64  84  83  75  59  57  53  70  68  67  77  76  70  74  73  66  74  73  66  80  78  72  71  70  66  78  76  75  78  77  73  71  70  66  76  75  68  82  81  74  82  81  74  76  75  68  84  83  77  80  78  72  71  70  64  67  65  61  64  63  59  99  95  91  86  82  79  66  62  57  78  72  65  75  69  60  69  62  51  77  72  49  159 155 113 157 155 99  112 110 49  113 112 44  127 125 53  169 168 91  160 157 76  168 166 85  168 165 87  152 148 74  112 107 43  123 116 61  97  89  44  89  79  42  78  67  32  99  89  49  123 114 62  113 104 46  118 110 46  102 95  27  116 109 41  121 114 46  105 100 36  166 160 98  144 138 74  159 154 87  142 136 70  144 138 76  49  39  0   80  71  17  95  89  18  143 138 58  161 156 73  157 152 70  175 169 89  142 136 59  163 155 80  193 184 112 179 170 98  168 159 87  127 121 46  171 165 90  197 191 113 212 206 129 177 171 94  150 145 65  182 176 96  175 169 89  177 172 92  175 170 87  171 166 84  180 176 91  187 183 96  164 160 73  172 165 79  124 117 33  113 108 28  152 147 71  183 176 105 100 95  26  67  64  0   80  79  18  70  68  9   70  65  10  124 117 63  65  58  3   114 104 53  169 159 106 168 160 96  175 168 95  120 116 30  122 118 31  139 133 53  144 139 61  133 128 47  169 163 85  146 137 67  158 149 77  179 172 88  186 179 92  149 145 60  190 185 102 111 106 21  135 131 46  191 185 100 188 181 97  186 182 97  182 177 92  143 138 56  170 165 83  99  97  11  111 111 27  102 101 21  130 128 51  171 168 89  104 102 21  112 109 31  90  86  13  137 133 61  89  84  15  202 197 132 136 130 68  145 139 77  166 161 96  178 174 100 171 168 89  158 155 76  179 176 97  170 165 83  139 133 55  169 161 98  172 164 101 153 145 68  160 153 69  170 163 81  184 176 99  126 117 45  180 171 101 121 112 45  110 100 33  135 128 58  143 137 64  132 128 55  119 115 44  139 137 65  119 115 55  131 124 83  105 95  71  115 106 93  116 106 98  121 111 101 150 142 124 190 185 160 151 145 122 95  87  78  124 116 112 115 109 105 117 111 104 112 107 93  92  88  73  110 102 96  126 117 116 125 117 113 121 112 106 127 119 113 121 112 106 123 115 108 126 118 112 116 108 101 116 109 97  124 117 101 124 118 97  138 130 112 138 130 110 105 97  72  144 141 103 190 192 137 193 196 138 174 174 131 165 164 132 93  89  72  97  91  82  103 97  88  106 101 91  100 97  87  99  96  83  99  97  81  98  95  82  117 114 106 115 111 106 134 130 124 100 96  91  100 96  93  83  76  74  104 97  95  100 94  89  103 97  90  114 109 101 118 112 103 118 113 101 93  88  76  98  91  78  95  88  72  119 114 100 92  92  83  87  86  77  97  93  76  140 136 108 190 185 141 202 199 148 161 157 110 129 126 88  102 103 82  78  80  68  77  79  67  86  88  78  85  86  79  88  89  84  86  89  85  79  81  80  67  69  71  59  61  65  48  52  55  41  47  49  49  55  58  45  52  54  49  55  58  62  69  66  78  84  77  75  79  69  90  91  82  85  87  77  95  94  85  133 132 124 99  95  87  108 105 97  123 120 112 117 114 104 95  94  83  98  98  87  109 106 96  96  93  83  96  93  83  110 107 97  115 110 101 117 109 101 110 102 94  121 113 104 112 105 96  131 123 114 121 113 104 129 121 112 115 110 101 139 133 124 129 124 114 120 115 105 125 123 112 103 100 90  93  90  80  99  96  85  99  95  87  110 107 99  110 107 99  101 98  90  97  96  87  97  96  87  97  96  87  97  96  87  101 100 89  101 100 89  102 101 90  102 101 90  103 100 90  103 100 90  104 102 91  103 100 92  101 100 91  102 101 92  106 102 94  108 105 95  116 114 101 117 115 100 110 110 94  102 100 85  112 105 96  103 93  85  105 95  85  113 103 93  96  86  78  112 102 94  128 118 110 129 120 107 122 114 96  122 114 96  122 113 100 122 112 102 134 124 116 129 119 111 129 122 108 124 117 103 133 126 115 124 117 105 124 117 105 133 126 115 127 120 109 127 120 109 124 117 105 130 123 111 140 130 119 130 121 108 131 122 109 123 114 103 116 107 96  121 111 103 117 108 97  116 109 97  122 115 101 109 102 88  104 97  84  106 102 87  106 102 87  103 98  84  104 99  85  96  91  77  91  84  73  104 97  86  115 107 96  107 99  88  109 102 90  121 113 102 103 98  86  110 104 95  103 97  88  100 95  85  94  91  81  91  88  77  105 99  92  103 97  88  92  87  77  80  76  64  89  84  70  75  69  53  76  69  56  63  57  39  83  76  46  74  65  34  90  81  52  52  43  12  78  71  32  89  83  37  123 117 65  92  84  30  74  64  15  125 115 63  123 115 56  100 92  29  90  82  18  
113 110 15  158 157 53  193 193 82  144 145 31  193 194 80  144 144 35  171 171 62  150 150 37  159 159 48  166 166 59  169 167 65  105 102 7   119 115 25  172 168 83  155 151 61  142 142 40  118 121 8   172 175 56  216 219 102 192 193 86  174 175 72  137 138 33  142 143 38  167 168 67  129 128 35  149 145 67  126 123 47  195 194 105 171 170 77  151 150 59  187 186 95  201 200 109 179 177 89  154 152 69  200 197 116 171 168 89  93  89  13  88  84  12  95  91  15  105 104 14  165 164 71  156 153 72  179 175 101 131 127 53  147 145 64  152 152 56  195 196 93  178 178 76  190 191 91  139 139 41  139 139 41  162 160 60  136 135 31  173 173 64  193 193 82  211 208 102 199 196 92  161 157 54  116 111 15  149 143 58  187 180 98  149 143 54  179 174 77  175 173 71  156 155 50  189 187 87  152 150 51  158 157 51  178 177 71  161 159 57  182 180 80  178 176 77  162 159 62  173 171 76  157 154 60  140 135 39  170 166 67  177 173 74  149 145 44  165 161 57  170 167 63  194 190 89  189 185 84  194 190 89  213 210 106 199 199 89  169 168 63  113 110 15  137 133 50  129 124 53  100 94  30  177 171 107 207 202 133 165 162 79  185 183 93  146 145 52  150 149 54  122 121 26  139 139 43  146 146 50  143 142 47  116 116 18  131 131 31  118 119 14  173 174 69  182 183 82  167 167 71  170 169 74  112 112 19  87  86  0   99  97  7   117 116 23  100 99  4   116 116 18  121 121 23  124 125 22  154 156 50  161 163 57  151 152 47  135 135 33  118 119 16  110 111 6   178 179 72  209 211 103 178 179 74  204 204 107 154 155 52  139 142 25  189 194 69  203 208 83  194 197 80  170 170 68  164 163 68  144 143 48  146 146 50  140 140 47  193 192 101 144 142 56  137 134 53  188 184 110 204 200 129 153 148 80  102 97  30  90  85  21  130 125 56  114 111 28  146 145 56  152 150 66  135 132 49  132 130 46  126 126 33  153 154 49  187 190 75  197 201 79  153 156 43  128 126 38  145 141 69  149 143 79  166 160 100 140 131 72  95  86  32  154 143 99  137 126 82  129 120 66  154 146 80  147 142 61  127 122 39  111 103 35  67  59  0   107 97  46  154 145 88  172 165 97  136 132 47  176 174 72  148 148 36  130 132 22  152 153 48  143 143 45  159 159 59  181 184 69  147 151 33  135 136 29  150 150 52  139 138 45  126 127 24  131 136 7   189 196 55  171 177 38  135 140 8   173 177 57  173 175 67  177 179 83  189 190 99  197 199 105 134 136 42  192 194 102 181 182 92  133 133 51  132 132 46  132 134 36  178 181 80  107 108 21  76  75  0   125 121 50  116 112 40  67  63  0   81  78  0   125 126 33  178 181 82  213 216 115 121 119 31  94  88  26  118 110 61  112 101 53  161 151 99  168 158 106 166 157 101 176 168 102 156 150 73  103 102 11  104 104 6   139 140 35  163 164 57  190 192 87  161 161 63  131 130 41  94  91  12  131 129 57  124 124 56  137 138 65  96  98  20  191 193 108 200 205 107 173 180 71  192 202 82  193 205 75  195 204 94  183 184 123 60  59  22  105 103 72  158 158 131 113 112 89  50  48  28  70  68  48  115 118 85  111 118 63  134 142 80  125 130 76  95  99  48  94  101 44  102 109 50  87  88  24  111 111 54  102 104 63  38  40  14  50  52  42  58  58  58  61  60  63  57  57  59  54  54  54  77  77  75  77  77  75  56  56  56  63  63  63  76  76  76  84  84  84  84  84  84  77  77  77  76  76  76  91  91  91  77  77  77  64  62  61  67  65  61  85  85  76  53  52  41  76  76  64  99  99  90  64  63  59  64  63  59  71  71  62  80  79  68  80  79  68  74  73  64  76  74  70  74  72  70  74  72  68  76  74  70  77  76  70  70  69  63  70  69  63  77  76  70  80  78  72  70  69  63  76  75  66  91  90  82  90  90  78  68  68  54  71  68  57  67  64  54  69  64  54  73  68  59  82  74  66  74  67  51  109 103 71  154 150 103 155 153 94  156 154 84  150 150 70  156 156 72  143 141 55  147 145 62  142 138 62  130 125 58  86  79  24  87  78  33  97  88  50  135 124 89  85  75  37  152 144 97  147 138 77  113 106 38  132 124 56  92  84  19  80  72  9   118 109 48  139 133 76  121 114 55  149 143 79  133 128 62  101 96  29  117 110 54  62  50  11  55  43  4   88  79  23  162 155 86  149 143 70  137 131 56  141 135 59  102 96  23  149 141 68  168 159 87  149 141 68  177 169 96  147 141 65  111 105 29  164 159 81  156 150 73  156 150 73  151 146 68  180 175 97  158 153 75  126 120 42  126 120 42  150 145 65  196 191 108 183 178 93  136 132 45  163 157 70  161 156 71  120 115 32  108 105 24  182 179 103 163 161 89  134 131 64  174 170 108 169 165 105 106 102 44  173 166 109 121 114 59  113 103 50  106 97  41  176 168 105 169 163 87  130 126 39  173 170 80  191 187 101 180 176 91  161 157 69  186 182 97  212 204 129 176 167 95  159 151 72  139 132 50  116 112 29  142 137 55  207 203 118 173 169 84  189 182 98  209 202 118 159 155 70  157 153 68  142 137 55  136 131 49  186 183 100 147 147 63  136 136 54  156 156 76  192 188 110 181 178 99  150 146 70  149 145 71  177 172 101 145 140 71  186 181 112 161 156 90  140 135 69  149 144 75  179 175 101 138 135 58  167 164 87  150 147 68  151 146 66  162 155 82  137 129 68  87  79  18  106 98  21  116 109 25  179 171 90  177 169 92  167 158 86  182 173 103 163 154 86  166 156 89  184 178 103 162 157 76  187 183 98  154 152 69  165 162 83  125 122 57  128 122 78  117 107 81  105 95  75  114 104 85  116 105 84  129 122 95  142 136 104 95  90  64  112 104 98  116 107 107 124 116 110 94  90  76  118 115 91  151 145 122 115 108 94  113 103 95  106 95  90  127 119 113 131 123 114 119 112 103 121 113 102 108 99  86  114 105 90  149 141 119 171 166 129 142 136 100 159 152 125 108 101 76  114 107 78  164 159 120 178 177 125 153 152 100 111 109 64  125 121 89  135 132 110 104 99  85  98  93  81  92  87  75  97  92  80  96  92  75  94  91  69  94  91  69  107 103 88  110 104 95  128 123 111 90  85  73  91  86  72  104 97  84  125 118 105 93  86  70  97  91  71  131 126 100 121 116 86  143 139 106 119 116 83  122 116 86  83  75  52  103 99  80  98  98  85  69  69  53  144 139 111 194 189 150 194 188 138 178 175 124 112 112 69  80  81  49  82  83  62  83  85  71  94  97  82  98  100 88  87  89  79  77  78  71  81  84  79  87  90  86  76  79  78  67  70  69  55  60  58  45  53  50  49  56  54  52  59  57  60  68  65  79  87  82  86  92  84  87  91  80  102 104 94  80  82  72  90  89  80  125 122 114 98  94  86  116 113 103 118 116 105 129 126 116 106 106 95  105 105 94  113 110 99  104 102 91  108 105 95  107 104 94  106 101 91  106 101 91  99  94  84  108 103 94  105 100 90  126 119 110 119 112 103 127 122 112 122 117 108 134 129 119 133 128 118 124 118 109 132 130 119 104 102 91  110 107 97  114 111 101 106 102 94  118 115 107 118 115 107 109 106 98  112 111 103 112 111 103 112 111 103 112 111 103 109 108 97  109 108 97  109 108 97  109 108 97  116 113 103 116 113 103 116 113 103 116 113 103 122 121 110 119 119 108 118 116 105 116 113 103 122 119 109 128 125 112 126 126 112 122 119 109 125 117 111 140 129 121 143 133 123 126 116 105 141 130 125 135 124 121 136 126 118 135 126 113 133 124 106 143 135 115 143 135 117 133 123 110 140 130 119 133 126 115 145 138 126 141 134 123 148 141 130 144 136 125 144 136 125 148 141 130 146 139 128 145 138 126 137 129 118 150 142 131 150 143 129 140 134 118 141 135 121 133 126 113 139 131 123 136 128 119 138 130 121 136 131 121 141 136 124 125 120 108 120 115 103 127 124 111 123 121 108 118 113 101 125 120 108 112 107 97  98  93  83  112 105 96  112 105 96  104 96  90  114 105 99  116 108 101 93  88  80  100 95  87  107 102 92  99  94  84  85  82  71  77  74  63  87  82  75  92  86  79  93  88  78  87  83  71  69  62  51  82  75  62  66  59  43  67  61  42  62  54  29  57  48  22  83  74  45  77  69  37  60  52  14  102 95  50  105 100 47  102 97  42  43  35  0   99  89  38  97  88  29  112 104 40  78  70  5   
127 124 31  176 174 72  140 139 32  120 120 8   178 178 67  139 138 31  154 152 52  149 145 56  111 106 23  144 140 57  146 141 58  130 126 43  108 103 21  173 169 86  141 136 51  128 126 38  153 154 53  186 189 72  186 190 66  157 160 43  144 147 32  156 157 48  179 180 75  143 143 45  80  78  0   159 156 79  192 188 114 196 194 113 171 169 83  177 175 87  146 145 56  192 188 101 194 190 103 217 212 127 228 223 141 247 241 165 147 140 67  83  76  3   104 98  18  133 133 38  123 123 27  119 117 34  142 138 64  126 122 49  107 103 25  140 139 49  180 180 82  154 154 56  188 187 94  126 124 41  153 150 73  207 201 128 192 186 111 194 190 107 182 178 90  201 194 108 145 139 50  123 117 28  131 124 38  123 115 36  125 118 34  153 149 48  213 211 102 179 179 70  154 152 48  136 134 37  159 157 60  210 209 100 198 197 88  198 196 94  178 176 79  194 192 95  157 155 58  141 139 39  151 149 52  145 140 46  144 138 45  163 159 62  179 175 71  190 188 77  182 180 69  187 183 80  159 155 54  193 188 87  181 178 72  165 166 52  157 157 44  126 125 16  157 155 58  179 176 97  124 119 52  121 115 53  126 121 59  174 169 100 152 149 68  167 166 73  112 113 13  124 124 24  173 173 73  154 155 54  132 133 32  128 128 28  135 135 33  165 166 59  145 146 41  149 148 53  207 206 111 158 159 54  149 149 47  172 170 82  180 178 94  168 167 79  156 155 60  129 129 31  131 132 29  128 129 24  118 120 12  114 115 10  130 131 28  138 139 36  144 145 42  94  95  0   138 140 32  203 205 97  170 171 66  207 207 109 193 194 91  151 154 35  192 196 70  201 206 79  166 170 50  163 164 59  160 160 62  153 153 55  144 144 44  124 125 22  207 207 107 160 160 64  111 110 21  175 172 94  154 150 81  109 103 43  140 135 73  126 122 51  128 125 42  138 137 44  164 163 70  158 155 74  118 114 41  124 120 48  131 127 53  140 138 53  135 134 39  189 190 87  196 197 94  175 175 79  199 197 109 194 192 106 174 171 94  91  82  22  140 131 72  183 175 109 135 128 58  176 170 94  166 161 81  140 136 48  134 129 46  140 133 64  128 120 57  187 181 108 190 185 102 183 179 89  165 163 64  191 190 81  161 161 47  166 169 54  130 132 20  137 138 31  184 185 80  185 187 77  108 110 0   159 161 53  181 182 77  139 139 41  116 116 18  145 146 43  129 131 21  187 190 71  197 201 79  152 154 42  163 164 59  233 236 135 183 185 89  133 135 41  86  88  0   127 129 35  226 229 130 224 227 121 211 214 111 120 122 28  83  83  1   56  54  0   79  78  3   185 184 89  156 157 52  138 139 36  145 145 45  137 137 37  133 133 36  179 178 85  152 150 66  164 157 87  222 214 153 116 107 51  86  77  23  101 91  40  146 137 78  165 159 84  173 170 80  164 164 64  158 159 56  137 137 37  137 136 43  154 152 69  137 133 59  101 95  31  125 119 58  139 136 71  123 120 52  147 145 73  97  97  15  164 166 72  161 164 63  167 171 62  201 209 90  188 198 70  183 190 76  156 157 81  61  60  10  82  79  39  132 131 95  82  80  49  35  32  8   40  35  21  54  53  33  71  72  37  100 100 59  110 109 68  108 109 63  103 109 57  114 118 62  196 196 139 167 166 116 105 103 74  40  40  26  54  55  48  51  52  49  49  49  47  57  57  57  61  60  63  78  78  80  78  78  80  61  61  61  62  62  62  76  76  76  76  76  76  80  80  80  76  76  76  76  76  76  82  81  82  77  77  75  68  66  62  80  78  72  68  67  56  80  80  66  87  87  73  92  92  81  60  59  52  62  61  54  64  64  53  67  67  51  67  68  49  66  66  52  75  73  69  76  74  75  75  73  71  71  70  66  87  83  78  79  75  70  79  75  70  87  83  78  82  79  73  72  69  61  92  92  81  133 134 115 147 150 119 96  99  64  81  81  52  88  88  63  90  86  69  86  81  69  86  77  71  83  76  65  98  90  69  157 151 117 133 128 77  149 146 81  167 164 87  175 173 92  159 156 75  116 112 36  157 152 85  136 129 70  158 150 98  132 124 75  142 133 86  140 133 81  121 114 55  126 121 55  121 114 44  92  86  13  105 98  29  105 97  33  76  67  8   95  86  30  126 116 63  69  60  1   101 94  28  135 127 62  165 157 98  116 107 55  63  52  8   70  59  15  87  77  30  99  89  36  141 131 68  138 128 61  139 129 62  158 148 81  138 129 59  154 145 75  129 123 50  113 107 34  146 140 64  120 114 37  155 149 71  154 148 70  157 152 74  146 140 62  154 148 72  149 143 70  130 124 51  100 94  21  111 105 29  127 121 44  137 133 50  157 153 68  133 129 41  150 146 61  132 132 48  138 137 55  120 119 42  141 140 65  163 161 89  149 144 75  180 175 108 124 119 52  177 169 104 200 193 127 162 154 91  149 141 76  136 129 59  148 143 62  175 171 79  172 170 73  166 164 69  171 168 74  182 180 80  203 200 105 201 193 114 177 168 98  153 144 74  141 133 60  110 102 25  149 142 60  205 199 114 209 202 118 190 183 99  182 175 91  205 199 114 175 168 86  161 155 75  165 160 82  158 154 78  121 120 43  146 145 66  142 142 62  163 159 81  150 146 70  143 139 63  177 173 97  185 181 105 179 176 97  161 158 80  144 141 62  130 127 46  178 175 96  207 203 127 166 162 86  195 193 107 158 156 70  165 159 84  107 100 32  101 93  32  155 147 84  173 164 90  176 169 87  177 170 90  190 182 105 189 179 105 222 211 140 172 162 93  166 157 87  169 160 90  123 115 38  187 183 96  165 162 72  178 175 92  185 181 107 177 170 113 171 163 113 158 150 100 168 161 111 147 140 90  175 169 119 109 103 55  126 120 83  145 136 121 112 101 96  96  89  76  121 115 92  180 176 145 173 169 138 113 104 87  112 100 90  114 102 95  134 124 116 148 138 128 102 94  76  119 112 84  120 112 78  150 143 107 155 149 101 198 195 128 187 184 114 189 184 129 130 124 74  185 181 125 194 188 138 129 124 85  122 116 84  119 112 82  158 151 126 146 140 120 108 101 85  123 116 102 117 110 99  126 120 104 103 97  76  116 112 81  132 128 98  189 184 161 129 123 102 131 126 100 105 101 71  93  89  56  130 125 88  169 164 124 98  93  49  138 135 84  200 199 138 192 192 119 202 203 128 194 194 124 208 203 148 119 111 75  116 111 85  98  97  72  139 140 110 197 192 150 188 181 136 127 122 80  107 103 68  94  96  68  97  101 76  102 106 86  92  95  78  87  90  73  91  93  79  90  92  80  92  94  84  88  92  84  80  83  77  100 103 97  88  91  86  74  79  73  67  72  66  76  82  73  67  73  64  71  77  68  85  91  82  92  99  87  126 131 118 121 123 111 114 116 104 122 121 110 155 152 141 125 119 110 140 135 125 132 130 119 149 146 135 144 143 132 142 142 131 141 141 130 134 134 123 137 136 125 128 125 114 125 123 112 128 125 114 135 132 121 122 119 109 103 100 90  110 104 95  108 103 94  124 118 109 136 131 121 120 115 105 138 132 123 128 123 113 130 127 117 113 110 99  110 107 97  100 97  87  115 112 104 115 112 104 115 112 104 115 112 104 117 116 107 117 116 107 116 115 106 116 115 104 117 117 103 123 123 109 124 124 110 119 119 105 122 119 107 127 124 111 127 124 111 122 119 109 131 128 118 128 125 117 122 118 113 118 115 109 127 121 116 117 113 110 112 111 107 115 113 109 127 126 122 106 102 96  114 111 101 106 103 92  122 118 117 116 112 111 125 122 116 113 110 97  103 102 84  115 114 94  95  93  76  110 108 93  109 107 94  92  92  83  98  97  91  99  95  91  89  83  78  87  82  75  107 102 94  85  79  72  93  88  80  100 95  87  101 96  89  101 96  87  110 105 93  90  85  71  84  79  67  85  80  70  71  65  60  62  55  53  64  59  59  54  50  47  60  57  51  56  52  46  61  60  53  56  55  49  60  59  52  65  61  56  61  58  52  42  38  32  51  47  44  41  34  32  32  25  23  33  26  26  49  42  42  44  38  38  32  24  27  45  41  40  33  29  26  32  28  25  28  24  20  22  18  15  21  17  13  18  14  11  17  13  10  21  15  12  21  15  12  14  8   5   12  6   0   8   0   0   24  14  6   43  34  21  35  26  11  55  47  24  70  64  31  102 98  56  140 136 87  131 125 75  111 103 58  117 109 62  128 121 66  118 112 51  114 106 43  
210 207 112 189 187 87  152 151 49  158 157 53  143 142 38  146 144 42  149 146 54  224 218 138 208 202 127 177 172 92  136 132 47  130 126 39  142 138 51  148 143 58  140 135 50  131 130 41  174 174 76  175 178 63  167 171 47  185 189 67  167 170 53  145 147 37  123 124 21  103 102 9   179 177 91  181 178 101 192 188 114 165 161 85  142 139 58  159 157 73  175 173 88  190 185 100 168 164 76  208 205 113 208 205 115 182 176 96  106 100 25  92  86  11  107 102 22  130 129 36  128 127 34  121 118 37  140 137 61  123 119 45  114 110 34  117 115 31  156 154 66  152 150 62  168 166 83  132 128 55  140 135 69  203 195 131 234 226 161 211 204 133 222 216 141 195 187 108 163 156 74  139 131 52  149 142 62  141 133 58  95  88  4   127 124 18  180 178 64  149 149 39  146 144 40  165 163 66  194 192 95  183 182 73  152 152 43  158 157 55  172 170 73  169 166 71  177 175 77  150 148 49  134 132 32  145 140 46  124 119 25  146 141 43  177 174 68  199 198 80  186 184 66  179 175 69  180 176 75  226 222 121 191 188 80  171 172 53  180 182 61  204 204 88  180 179 75  157 155 69  68  64  0   105 100 36  129 123 61  130 125 56  99  95  17  165 164 73  96  96  0   123 123 25  125 125 27  114 114 14  124 124 24  100 100 2   121 121 21  159 160 57  143 143 43  172 171 78  190 190 95  152 154 44  182 184 76  196 195 104 123 121 37  122 121 30  168 168 72  130 131 28  105 107 0   99  100 0   112 114 6   143 144 41  178 178 78  137 137 37  139 140 35  125 127 19  186 188 78  189 191 81  170 171 64  179 180 77  177 178 73  158 161 42  184 188 61  204 209 82  201 205 83  194 196 88  193 194 91  170 171 66  136 137 30  186 188 78  185 187 77  154 155 52  145 145 49  179 177 91  138 135 58  109 104 37  96  91  22  128 125 44  152 151 60  154 155 54  187 187 89  215 213 129 170 166 92  139 135 66  151 146 77  137 133 61  138 135 56  144 143 52  175 175 79  188 188 92  188 188 92  206 205 112 203 201 115 135 128 60  204 197 128 178 174 89  143 140 48  189 185 95  171 168 78  143 140 48  169 164 79  232 225 154 218 211 140 229 225 140 207 204 112 192 189 95  201 199 100 200 199 93  178 178 64  152 156 36  124 128 8   153 156 39  171 173 63  175 176 71  118 119 14  194 196 86  188 190 80  194 195 92  174 174 76  128 127 34  86  86  0   174 176 66  199 201 87  201 203 91  202 204 96  204 207 106 130 131 35  124 125 31  147 148 57  125 127 31  181 184 82  217 221 112 199 203 97  199 201 107 192 192 108 155 154 79  126 126 42  132 134 24  171 175 53  195 198 83  180 182 72  192 193 88  124 124 26  109 108 17  153 151 65  171 166 84  218 212 134 157 150 80  166 159 95  221 212 154 137 129 66  132 127 44  173 171 76  146 147 44  179 180 75  202 202 104 105 104 16  200 196 122 210 205 141 115 108 51  181 174 118 136 134 66  117 115 41  136 136 56  106 107 20  141 143 47  140 142 44  154 156 58  188 191 85  177 185 64  164 171 57  194 197 112 161 160 94  129 126 75  109 108 58  104 104 49  141 140 93  112 108 80  80  74  51  56  52  24  53  49  18  52  48  17  57  56  20  72  75  28  87  91  37  148 149 90  102 101 51  80  78  51  64  62  46  66  66  52  65  67  55  63  65  51  62  63  54  62  62  60  76  75  78  76  76  76  62  62  62  62  62  62  75  75  75  72  72  72  76  76  76  76  76  76  76  76  76  82  81  82  76  76  74  97  95  91  159 158 149 80  80  66  153 153 137 117 117 101 95  95  81  66  65  56  75  74  65  74  74  60  120 121 103 127 129 106 90  91  72  75  73  69  85  83  84  85  84  80  73  71  65  73  69  64  70  66  60  70  66  60  73  69  64  73  69  64  70  66  58  78  78  67  94  95  74  122 125 90  125 129 89  98  99  64  74  74  47  76  73  51  73  69  55  75  68  57  79  71  60  78  70  50  108 102 68  111 106 53  153 150 81  157 154 73  125 123 39  132 129 50  114 109 38  139 133 72  154 148 91  111 104 50  81  74  17  108 101 44  109 103 41  122 117 48  154 150 79  165 159 86  151 145 74  118 110 44  105 96  36  86  77  21  94  85  31  126 117 60  115 107 48  178 170 107 150 142 79  172 164 105 150 141 85  186 177 121 107 97  46  137 126 82  119 108 62  179 167 112 179 168 108 133 123 60  130 120 55  159 149 82  146 137 67  106 100 27  83  76  3   175 169 93  178 173 95  105 99  21  149 143 66  184 178 101 163 157 82  122 116 43  112 105 34  136 129 61  100 93  25  113 106 36  173 167 94  187 182 102 169 164 81  123 119 32  175 173 88  104 104 22  137 138 61  115 116 39  142 141 64  135 131 55  92  86  11  107 101 26  93  87  12  92  86  11  122 116 43  176 169 98  169 162 93  163 156 86  168 162 84  194 190 105 191 187 97  166 163 73  144 142 47  155 153 51  171 169 70  161 154 70  188 180 103 180 171 97  137 128 54  119 111 34  121 114 35  209 202 120 168 161 77  182 175 91  187 180 96  140 133 49  154 147 65  142 136 59  80  76  4   69  66  0   65  63  0   74  72  0   148 147 70  154 150 79  75  71  0   110 106 34  107 103 29  177 173 97  153 150 71  153 150 69  118 116 32  139 137 51  152 150 64  179 176 95  186 183 102 192 190 100 165 164 73  146 140 62  93  86  16  92  84  19  83  75  9   118 109 39  154 146 71  190 182 107 169 161 86  216 205 132 205 194 118 189 181 104 149 141 64  141 133 58  130 122 43  169 166 73  170 167 74  181 179 93  151 148 69  188 184 112 177 171 105 178 173 104 199 194 125 195 190 123 192 186 122 171 165 103 173 167 117 133 124 93  115 107 85  115 108 81  191 185 153 212 206 169 108 102 70  114 104 85  127 115 103 143 131 122 132 120 108 195 184 165 148 139 110 143 137 92  205 200 147 194 188 136 216 212 150 210 210 126 201 201 114 184 179 108 178 172 108 194 191 121 161 157 97  134 127 88  135 126 98  117 108 79  182 173 146 159 152 129 122 114 96  138 129 116 134 124 112 136 128 110 119 111 86  140 134 97  179 175 133 184 178 142 179 174 137 152 147 108 131 127 83  191 187 140 202 196 148 197 192 141 195 190 133 182 179 112 217 216 139 210 211 122 213 215 123 206 206 122 181 178 109 107 101 55  124 115 82  180 176 143 201 197 162 120 115 75  102 97  58  95  91  60  81  81  56  85  89  67  65  70  50  76  79  60  75  78  58  77  80  61  80  83  66  98  100 86  95  97  85  83  87  77  71  75  64  62  66  56  62  66  56  59  65  54  54  60  49  60  66  55  54  60  49  55  61  50  64  71  57  62  69  55  96  101 88  77  79  67  83  85  71  80  80  66  134 131 118 91  86  74  107 102 90  107 104 94  74  71  61  75  74  63  83  83  71  78  78  67  77  77  66  76  76  64  71  71  60  75  73  62  74  71  61  81  78  68  73  70  60  59  56  46  56  53  42  44  41  31  51  48  38  51  48  38  54  48  39  83  78  68  73  70  60  51  48  38  39  36  26  42  39  28  38  35  25  37  34  26  37  34  26  37  34  26  37  34  26  40  39  30  41  40  32  42  41  33  44  43  32  35  35  22  40  40  24  39  39  23  35  33  17  30  28  13  36  34  18  36  34  18  30  27  15  24  21  11  24  21  13  24  20  15  26  20  15  27  20  18  22  15  15  19  15  14  21  19  18  11  9   5   35  35  26  16  16  0   13  13  0   2   0   0   20  18  17  11  10  0   39  40  21  63  65  40  56  59  28  23  28  0   52  57  26  39  41  15  16  16  0   6   6   0   10  9   0   21  17  9   8   3   0   12  6   0   11  5   0   6   0   0   12  6   0   11  5   0   13  8   0   22  20  5   13  11  0   1   0   0   14  11  0   6   2   0   6   1   0   9   6   7   9   6   7   5   3   1   0   0   0   6   7   2   3   1   0   6   5   1   6   5   1   0   0   0   9   5   0   14  11  0   11  6   0   7   2   0   8   3   0   2   0   0   8   1   1   8   1   3   12  5   7   9   3   3   7   3   0   4   0   0   3   0   0   2   0   0   7   1   0   11  4   4   13  6   6   7   0   0   2   0   0   4   0   0   15  7   0   63  52  47  36  26  18  36  27  12  41  33  10  56  50  17  96  88  50  112 106 58  96  90  40  117 108 66  124 115 71  137 130 75  102 96  36  114 106 45  
212 211 106 206 204 105 180 178 81  175 171 79  212 209 116 172 169 75  203 199 107 215 211 124 213 209 120 199 197 98  193 192 86  164 163 57  164 162 61  104 100 8   132 128 38  138 138 38  136 137 30  185 187 75  189 192 77  168 172 52  189 192 75  192 193 86  123 123 25  126 125 35  208 206 122 159 156 77  180 176 102 170 166 92  189 186 110 206 203 122 168 166 83  214 209 129 236 232 145 214 213 109 189 188 81  177 174 81  149 145 60  149 144 64  137 132 52  118 117 28  116 114 28  139 136 57  144 140 64  115 111 37  101 97  23  88  84  10  109 105 31  103 99  25  152 148 76  157 152 83  159 154 87  194 187 119 180 174 103 148 142 66  187 182 102 211 204 120 189 182 98  176 169 89  167 159 84  159 150 80  158 150 73  146 141 43  173 170 62  169 168 61  144 143 39  176 174 74  182 180 80  162 161 56  147 146 39  128 126 24  161 159 59  179 176 82  168 165 70  163 161 59  170 168 66  193 187 93  174 169 75  163 159 60  180 177 69  179 178 57  204 203 83  170 168 59  153 149 48  176 173 69  195 192 82  190 191 70  164 166 42  178 179 60  212 211 102 149 147 57  110 107 28  124 120 48  75  71  0   108 105 26  123 121 37  153 152 63  129 128 37  160 159 68  119 118 28  125 124 31  151 150 57  136 135 44  179 178 87  163 161 71  118 117 26  157 156 63  189 190 89  187 189 79  151 153 43  143 143 45  129 128 35  114 114 16  165 166 63  135 136 29  116 118 8   111 113 3   133 135 29  194 194 96  186 185 90  180 181 78  151 152 45  151 153 41  202 205 90  178 181 64  189 192 77  174 176 66  145 147 37  168 171 56  187 190 71  194 198 74  178 182 60  125 128 15  145 147 37  178 180 66  202 206 86  186 189 70  201 204 87  157 159 49  151 152 49  154 154 56  102 101 8   121 119 29  161 160 72  204 203 115 200 199 104 201 202 97  211 212 109 170 168 78  144 142 58  197 194 116 173 169 95  172 167 98  228 223 152 227 223 145 195 193 107 178 177 84  135 134 41  139 138 47  179 177 91  190 184 106 179 175 90  163 161 59  184 183 76  175 173 73  176 173 78  182 178 86  140 135 50  179 173 98  147 141 65  146 142 54  177 173 83  166 162 77  136 132 45  144 142 45  200 200 91  172 176 54  193 197 71  208 212 88  157 159 45  145 145 45  163 163 63  194 196 84  131 133 21  140 142 36  168 169 68  171 171 71  139 140 37  158 159 54  159 161 51  157 160 43  151 153 41  102 104 3   133 135 41  148 150 56  135 137 43  152 153 59  142 144 50  128 130 38  174 176 79  183 186 85  175 178 75  155 158 55  141 145 37  185 187 73  177 180 62  166 169 54  126 128 18  124 125 20  153 154 53  158 157 64  188 187 94  154 151 56  170 167 74  197 193 103 215 211 128 227 221 148 227 221 148 177 172 90  191 188 95  172 172 72  143 144 41  174 175 74  190 190 97  227 224 143 238 234 162 208 202 140 140 135 71  126 125 46  152 152 63  134 136 42  97  99  5   114 116 24  109 109 22  110 109 32  148 148 66  161 164 61  161 164 59  191 193 99  174 173 94  122 121 56  165 165 97  185 188 100 198 200 115 151 150 89  158 154 110 136 131 94  66  62  31  67  62  38  56  54  25  56  58  14  114 116 61  138 139 75  121 121 62  89  88  50  53  54  24  71  74  44  94  99  68  97  105 73  71  77  52  65  67  55  72  73  68  72  73  68  65  66  63  63  63  63  75  75  75  69  69  69  69  69  69  76  76  76  77  77  77  82  81  82  76  76  74  76  75  68  125 125 113 54  54  38  125 126 107 109 109 91  97  97  81  61  61  49  69  69  57  78  79  63  169 170 150 183 185 159 112 113 92  66  64  58  68  66  64  75  74  67  81  80  73  78  74  68  81  78  72  81  78  72  78  74  68  91  87  81  82  79  71  75  75  61  74  75  56  64  68  44  113 115 90  113 115 90  92  91  68  73  70  51  65  62  42  89  83  67  74  68  47  105 98  66  120 114 66  136 134 66  161 161 77  156 154 64  125 124 33  131 129 45  123 119 45  94  88  26  131 125 65  109 103 39  112 107 41  105 100 34  107 102 35  116 111 44  114 109 42  132 124 58  134 126 61  152 144 83  156 147 91  109 100 46  94  85  29  107 99  38  83  74  13  169 160 104 152 144 85  107 99  36  142 135 67  135 128 58  120 112 49  108 98  49  70  59  15  128 116 66  127 116 60  154 143 85  186 175 113 180 170 105 91  82  12  71  65  0   107 101 28  105 99  23  154 148 70  120 114 37  148 142 64  155 149 73  123 117 44  93  87  14  107 100 32  149 141 76  136 128 65  98  90  24  101 95  24  130 125 47  156 151 69  156 154 66  137 135 49  128 128 55  87  89  18  108 109 32  134 134 52  95  92  11  135 130 48  166 159 73  145 138 52  110 103 19  92  84  7   158 152 81  67  60  0   111 103 39  121 113 50  99  92  22  147 140 67  144 138 65  143 138 56  197 194 97  194 193 91  162 157 63  184 178 89  182 176 87  162 156 69  153 146 64  166 158 79  194 186 105 176 169 85  177 171 86  174 167 83  114 108 23  137 129 50  132 125 54  156 150 86  53  48  0   60  59  0   114 114 45  104 102 32  126 121 59  129 123 61  143 137 73  109 104 35  154 150 79  136 132 56  135 131 53  161 159 78  200 198 112 177 175 87  173 171 83  193 192 101 187 186 93  186 185 92  148 144 54  85  81  0   76  70  0   108 101 33  124 113 51  123 112 50  118 108 41  147 138 66  173 163 87  193 183 102 201 194 108 199 193 104 162 155 71  188 181 95  184 181 86  208 205 113 212 207 124 142 136 59  203 197 117 198 193 113 173 168 88  208 203 125 190 183 112 150 143 73  198 192 119 189 185 116 145 138 81  133 128 77  169 162 119 184 177 136 132 124 86  57  48  19  71  60  44  67  53  44  71  57  43  67  55  34  106 98  66  173 167 119 209 204 137 216 212 140 143 137 73  166 161 94  170 167 86  175 173 90  177 173 97  196 192 121 163 161 89  167 164 99  182 176 128 149 142 101 113 107 63  139 131 93  149 140 111 75  64  45  62  51  36  60  48  34  88  77  58  88  79  50  118 111 68  163 158 107 134 129 74  152 147 92  191 187 131 182 177 122 171 166 113 153 146 94  154 147 97  125 118 64  175 171 102 164 161 82  170 167 86  172 169 88  208 204 128 184 178 112 158 150 98  193 184 141 145 137 99  126 119 87  42  37  14  35  31  12  30  30  12  7   10  0   25  31  9   31  37  14  25  31  9   26  32  10  26  29  9   21  24  7   30  33  18  31  33  21  24  28  16  14  18  5   12  17  4   22  26  13  24  30  17  18  25  11  27  34  20  24  30  17  22  29  16  24  31  15  18  25  9   38  43  27  40  42  27  22  24  10  32  32  18  81  79  66  31  29  16  43  40  27  98  95  82  27  27  14  38  38  24  31  34  19  15  17  5   21  23  11  15  17  5   19  19  7   23  22  11  14  14  3   21  21  10  19  19  7   27  27  16  24  23  12  12  12  0   19  19  7   23  22  11  49  46  35  49  46  35  39  38  27  7   7   0   2   1   0   9   8   0   9   8   0   3   2   0   3   2   0   3   2   0   3   2   0   10  9   0   12  13  4   18  17  8   20  20  9   27  28  11  30  30  12  26  25  7   18  17  0   15  11  0   21  17  0   21  17  0   15  11  0   11  9   0   10  8   0   13  8   0   13  7   0   10  1   0   5   0   0   4   0   0   10  6   3   54  48  39  139 135 118 75  72  46  22  19  0   49  44  32  34  29  19  14  10  0   136 135 103 177 178 132 178 182 128 137 144 87  165 171 117 137 141 92  116 118 77  91  91  59  86  85  62  84  81  66  51  48  38  26  20  11  43  38  28  35  30  20  64  59  49  30  25  16  28  24  9   64  62  42  57  59  36  25  26  7   42  42  29  5   4   0   6   5   1   0   0   0   2   0   0   9   7   3   4   3   0   10  8   2   5   4   0   4   1   0   6   2   0   2   0   0   57  54  41  77  75  44  79  75  40  76  72  42  72  67  41  36  29  11  29  22  8   20  13  4   5   0   0   4   0   0   15  9   4   18  12  7   8   2   0   5   0   0   13  5   1   38  29  25  66  57  53  36  27  23  17  9   0   44  38  19  88  82  61  92  83  70  32  20  6   67  57  33  76  67  36  58  51  15  96  87  45  118 110 61  85  77  25  103 95  50  135 124 78  115 106 50  102 94  33  92  83  27  
196 195 88  183 181 79  157 154 60  132 128 38  226 222 134 225 221 131 201 198 108 205 201 111 192 190 93  180 180 73  157 157 44  130 131 17  161 160 51  141 138 41  152 150 53  165 167 57  147 150 37  140 142 34  101 102 0   68  70  0   133 135 29  121 121 23  75  74  0   114 112 24  117 115 31  135 132 51  168 165 89  119 116 42  131 127 53  185 182 103 171 168 89  141 135 57  151 147 62  234 233 128 201 201 92  177 175 75  106 102 12  105 100 17  185 180 100 139 136 55  110 107 26  151 148 69  117 114 37  133 130 54  103 99  25  96  92  20  90  86  17  67  62  0   107 102 33  116 111 42  165 161 89  208 202 131 137 131 58  114 108 35  127 121 44  181 174 90  167 160 76  203 195 116 182 174 99  127 118 50  202 194 117 189 185 86  162 159 51  177 176 67  152 152 45  119 117 15  143 141 42  140 138 34  139 137 33  164 163 59  165 164 62  143 142 40  162 160 58  199 197 96  163 161 61  167 162 66  163 159 62  139 135 34  148 145 37  184 183 65  186 184 68  156 153 49  205 201 102 210 206 103 205 203 92  196 197 76  187 189 66  178 179 62  178 177 71  213 212 119 216 214 130 195 192 113 138 135 56  129 127 41  154 153 65  140 139 51  112 111 23  131 129 45  107 104 21  138 136 48  187 185 97  174 171 90  166 163 82  149 147 59  163 162 69  189 190 89  180 181 76  132 133 28  138 139 36  131 131 33  147 147 49  161 162 59  163 164 57  156 157 50  171 173 63  192 194 84  136 137 30  168 168 70  107 106 11  124 124 24  146 148 40  182 185 72  194 197 80  192 196 74  195 199 77  185 187 73  192 194 82  194 197 82  186 189 72  189 193 73  194 197 78  157 160 43  178 181 64  194 198 76  194 198 76  216 220 98  186 189 72  173 175 65  189 191 83  174 175 70  195 197 89  186 188 76  171 172 65  164 164 66  156 156 58  140 142 34  165 166 59  163 163 65  168 167 76  243 241 153 187 185 101 114 110 32  157 154 75  225 223 142 201 200 109 194 195 90  187 189 81  138 138 42  165 163 75  148 143 58  208 205 115 220 219 112 224 224 110 177 177 65  161 159 55  149 147 49  129 126 36  163 158 76  189 184 101 186 183 91  198 194 104 177 171 94  147 141 63  164 161 69  203 201 97  209 212 97  209 213 91  209 213 91  211 214 101 145 145 47  189 189 93  186 188 78  214 216 104 217 218 115 206 206 106 147 148 45  157 157 55  152 152 52  151 151 51  202 203 98  143 144 41  121 123 29  147 148 57  153 154 61  203 205 109 174 176 79  136 138 44  109 109 22  166 167 75  194 197 91  195 200 82  188 194 71  210 217 91  225 229 109 241 244 126 217 220 105 187 189 77  186 188 78  182 183 78  163 163 65  181 181 83  171 169 68  196 194 92  217 214 115 204 201 108 198 193 113 221 216 138 170 166 81  203 199 109 175 175 79  156 156 58  195 196 95  195 195 99  195 193 107 208 204 128 161 156 90  143 138 69  140 140 56  140 141 50  111 112 21  134 135 46  141 142 55  107 106 29  100 97  32  83  81  11  125 126 35  185 188 89  185 186 97  138 137 55  77  77  6   180 182 104 192 198 93  164 170 65  98  99  19  148 146 85  177 173 126 150 144 110 49  45  19  73  68  42  57  57  16  142 144 91  144 145 79  152 153 89  90  91  43  47  50  8   80  84  42  125 132 88  124 134 89  78  86  49  68  71  49  71  73  59  71  73  61  68  69  61  64  65  60  73  74  71  65  66  61  64  65  60  76  76  72  77  78  73  82  82  77  76  76  72  60  59  50  82  82  68  54  54  38  66  66  48  87  87  69  118 119 100 68  68  54  69  69  53  63  64  46  78  80  57  75  77  51  57  59  38  78  78  69  83  81  77  80  79  70  68  67  58  75  72  64  84  80  72  84  80  74  75  72  64  72  69  59  66  64  51  75  73  58  89  90  71  71  74  55  63  66  45  96  98  72  129 129 102 91  89  60  68  64  35  112 108 80  80  74  40  119 113 67  138 134 72  149 149 69  124 124 37  114 112 24  144 142 56  157 154 75  145 141 69  72  67  0   100 95  28  119 116 40  101 98  19  149 145 69  119 116 42  117 113 41  109 104 35  101 94  28  101 93  32  88  80  21  118 108 54  162 152 103 141 131 82  88  80  21  115 107 48  100 90  39  84  75  19  114 107 39  126 120 42  111 105 25  180 174 101 116 107 53  74  64  15  91  79  26  104 93  35  99  89  27  119 109 44  146 136 71  137 127 60  91  84  11  104 98  22  127 121 46  119 113 37  132 126 48  113 107 32  148 141 68  141 134 64  144 137 71  130 123 57  127 120 52  114 107 39  150 143 75  91  84  13  121 115 40  173 168 88  168 166 81  139 139 55  106 106 35  150 150 80  127 128 48  157 157 73  173 171 85  192 188 103 175 168 84  148 141 57  147 140 60  130 121 47  169 162 91  130 122 59  121 112 56  97  87  33  76  67  8   148 140 79  111 103 37  127 121 44  198 195 100 164 162 63  188 182 93  169 163 76  176 171 79  205 199 110 162 155 75  189 181 104 183 175 98  201 193 116 167 159 82  152 144 65  138 131 49  132 124 45  152 146 75  125 119 58  78  74  18  143 141 85  179 178 113 99  96  31  129 122 63  140 134 75  164 158 94  161 156 90  156 151 82  101 97  23  99  95  19  158 155 74  159 157 73  152 150 64  193 192 101 181 180 87  185 184 91  220 219 126 193 190 96  214 211 119 173 169 86  159 153 80  83  72  12  88  77  19  117 107 42  139 130 60  156 145 71  193 183 102 205 199 110 206 201 109 182 176 89  180 173 87  207 204 112 194 190 103 211 206 125 170 164 87  152 148 65  207 203 118 186 181 99  159 151 72  125 116 44  172 166 95  171 165 90  166 161 85  178 171 101 152 147 80  199 192 133 184 176 124 89  81  34  81  71  34  72  60  34  78  65  44  58  46  20  45  34  1   140 131 89  132 126 69  172 168 94  167 164 85  199 194 123 170 165 94  188 185 104 175 173 88  172 169 88  179 176 97  184 183 108 219 217 147 150 146 88  84  79  26  136 131 78  196 190 142 140 132 96  45  34  4   38  27  0   69  58  30  154 144 111 163 153 113 165 157 107 180 173 118 171 164 107 177 170 113 153 146 92  167 160 106 194 187 132 92  84  30  61  54  0   171 164 105 218 214 145 194 190 116 187 183 107 145 141 67  196 191 125 188 182 123 167 160 106 123 115 67  157 147 109 52  43  14  24  18  0   30  28  13  21  23  9   45  50  32  44  50  27  16  23  0   22  28  1   31  37  12  38  42  18  35  39  15  42  45  26  37  40  23  22  26  11  7   11  0   24  29  14  37  42  24  38  44  23  28  33  13  28  33  15  26  32  14  23  28  10  19  25  7   37  42  22  38  44  23  79  82  63  15  18  0   55  55  39  75  75  59  30  28  13  36  34  18  105 106 90  47  47  33  84  86  72  63  65  51  13  15  1   23  26  11  15  17  3   22  24  10  21  21  8   10  10  0   17  17  3   18  18  4   14  14  3   19  19  7   18  18  4   33  33  17  38  38  24  75  74  63  25  24  13  13  13  2   11  10  0   10  9   0   21  21  10  20  20  9   7   7   0   7   7   0   7   7   0   7   7   0   17  16  5   20  20  9   27  27  16  33  31  18  31  30  10  32  32  7   25  25  0   18  15  0   19  16  0   23  20  0   23  20  0   19  16  0   33  33  8   30  29  5   26  22  1   22  18  1   15  8   0   12  5   0   17  10  0   24  17  3   29  22  4   111 106 83  169 165 135 154 150 122 145 138 122 90  83  70  66  60  39  81  77  44  104 103 55  153 155 99  132 137 79  158 163 104 126 128 75  136 134 89  117 116 77  111 109 80  132 128 107 121 117 100 68  64  47  54  50  33  51  47  30  154 150 133 78  74  55  27  24  0   54  55  23  61  62  28  23  23  0   51  50  30  3   1   0   14  10  2   9   6   0   19  17  6   7   4   0   2   0   0   9   7   0   4   3   0   13  9   0   18  14  0   22  19  0   114 112 81  178 176 129 180 178 124 172 169 118 159 155 111 142 136 100 143 136 107 113 105 83  42  33  16  16  7   0   65  57  39  91  86  65  81  75  54  32  24  8   8   0   0   15  6   0   50  40  30  86  77  64  44  36  18  100 93  64  137 131 99  58  48  27  16  3   0   41  30  2   75  65  30  50  40  0   76  68  23  129 121 71  77  67  18  92  81  37  107 96  50  104 94  38  105 96  38  112 102 49  
192 193 86  175 176 73  138 138 40  164 163 68  208 207 114 206 204 114 177 175 87  140 139 51  180 179 86  142 142 40  135 137 27  150 152 40  149 151 39  168 170 64  140 142 36  119 122 9   163 165 53  151 152 45  68  69  0   79  78  0   85  82  0   86  83  4   138 135 54  149 147 59  146 145 56  153 151 67  167 164 83  179 173 98  178 172 97  179 174 96  194 189 111 143 137 62  194 189 109 199 196 104 192 190 91  181 176 78  174 169 75  201 197 110 178 173 91  196 190 112 161 155 79  167 164 85  187 184 105 180 177 98  149 145 69  96  93  16  111 107 34  109 103 30  185 179 106 139 132 59  185 179 104 186 180 105 132 125 52  120 113 45  162 155 84  171 166 88  186 181 99  210 205 122 189 183 103 158 152 79  192 187 107 187 186 84  171 171 57  169 170 51  155 156 39  151 150 48  125 122 25  94  93  0   178 178 69  169 168 61  154 153 44  193 194 80  185 185 71  198 197 92  172 170 71  187 185 86  158 156 57  161 159 57  192 191 87  196 195 86  162 161 56  163 160 65  215 213 118 193 192 90  208 208 97  205 206 87  165 166 48  148 147 38  100 98  0   129 126 32  154 150 60  208 204 117 211 207 119 159 155 68  127 123 33  116 116 20  125 124 33  139 136 57  116 113 34  102 100 12  137 135 49  152 148 76  112 109 35  150 149 54  188 190 82  189 192 77  132 134 24  115 114 21  117 116 27  157 156 65  139 139 41  196 198 90  211 213 105 177 177 77  166 167 64  214 216 102 190 193 78  146 147 46  111 111 15  112 112 17  149 149 49  161 163 55  137 140 25  194 198 74  194 198 74  192 195 78  164 166 54  193 196 81  186 189 74  170 172 60  187 190 73  192 196 72  184 188 61  186 190 66  188 192 72  204 207 92  140 142 32  143 144 39  119 121 13  143 145 35  160 164 44  190 196 66  194 198 74  125 126 21  100 100 2   129 130 23  139 141 31  190 192 87  221 221 121 204 204 109 149 148 53  196 197 94  220 220 118 192 192 94  173 175 67  234 239 107 189 195 61  163 165 53  203 203 107 240 236 148 219 215 127 248 246 146 219 219 107 190 192 68  201 203 82  187 187 80  182 179 82  157 154 62  179 176 82  189 187 85  189 186 89  121 117 41  138 134 60  139 138 47  163 163 65  192 192 92  152 153 50  153 155 47  177 178 73  175 177 83  167 168 74  188 191 85  203 206 100 197 199 105 93  95  3   139 141 42  192 195 96  153 154 61  147 148 59  136 136 56  141 140 61  135 135 51  83  84  0   166 167 73  191 194 95  154 158 52  121 125 21  162 163 72  209 210 118 163 168 57  173 179 56  212 220 86  212 220 86  217 224 98  223 229 108 225 230 115 198 203 88  192 195 76  195 198 83  207 208 103 185 185 83  166 168 58  158 159 52  197 197 100 186 185 94  184 181 98  175 173 90  128 126 40  152 150 62  157 156 65  137 136 43  215 215 119 201 200 107 197 195 110 182 179 101 151 147 75  122 117 46  125 122 44  128 124 46  136 132 58  149 145 71  166 163 84  132 128 55  125 119 60  116 110 48  168 168 84  136 137 48  170 169 92  97  95  25  83  80  13  125 124 47  156 159 56  173 177 68  176 179 89  122 123 50  93  91  35  143 139 95  82  79  41  58  54  19  103 102 64  82  83  34  127 128 67  153 154 90  104 106 49  103 108 54  71  78  25  95  104 53  116 125 74  123 131 85  85  91  55  48  52  24  92  95  76  100 102 90  51  53  43  43  45  35  56  58  44  59  62  45  57  58  42  48  49  32  62  62  50  47  47  35  47  47  33  81  81  65  54  55  36  95  96  75  116 117 96  113 114 96  89  90  71  76  77  58  71  73  52  89  90  67  103 105 79  54  55  34  66  64  51  57  53  45  81  78  68  72  69  59  54  52  41  57  54  43  64  60  52  72  69  57  89  85  64  61  58  34  71  69  49  91  92  74  72  76  52  118 122 93  45  48  13  186 188 146 138 138 92  80  78  31  130 126 82  124 118 68  154 151 86  177 176 99  125 123 39  121 118 37  92  87  18  116 110 46  104 96  32  94  87  21  155 148 77  175 169 91  150 147 57  133 129 37  155 150 65  147 142 59  136 131 51  107 101 26  86  79  11  83  75  11  72  63  5   45  35  0   102 90  53  172 160 125 154 143 99  115 105 56  105 94  46  77  68  10  87  81  8   100 95  15  150 145 63  177 171 96  101 93  32  104 94  38  151 143 80  159 152 84  133 127 51  128 122 47  149 142 74  177 170 102 125 119 43  115 110 32  139 132 59  149 143 70  146 143 66  99  95  19  158 154 80  184 178 112 109 102 45  94  88  26  159 154 76  120 115 32  171 166 88  118 111 38  154 147 74  132 126 50  146 143 62  168 165 87  135 134 59  155 154 77  171 171 89  162 163 76  133 131 46  133 128 47  134 127 59  104 96  32  115 108 42  69  62  0   127 120 50  137 130 64  113 103 52  64  53  7   59  49  0   163 154 98  115 108 40  165 160 80  157 154 60  157 154 62  169 162 89  129 122 54  143 138 60  147 142 61  159 154 76  185 179 106 169 161 95  135 127 64  64  54  0   119 110 40  90  82  3   106 99  17  150 144 69  105 101 32  127 123 63  162 160 101 128 127 63  141 138 73  130 124 62  95  88  24  144 137 71  137 130 62  161 154 83  114 108 35  141 135 59  180 175 97  136 131 51  163 158 76  189 184 101 171 167 82  206 202 115 171 168 78  169 166 73  190 187 94  170 167 74  179 174 94  132 121 61  114 103 48  147 137 72  168 159 89  155 146 74  189 181 104 199 193 108 193 186 99  213 207 122 205 198 116 186 178 99  184 176 99  169 161 86  220 212 135 180 173 91  189 182 100 189 181 102 194 183 110 187 176 107 193 183 116 202 193 123 146 137 67  156 147 77  192 185 115 187 180 112 189 181 115 178 170 107 210 201 142 153 146 94  167 159 112 100 89  45  114 103 57  129 119 70  139 129 73  100 93  27  170 164 91  212 206 133 175 169 91  146 141 56  140 136 48  161 159 74  182 180 97  170 166 88  131 127 53  90  85  19  95  89  29  128 121 64  151 143 91  160 152 105 149 138 92  168 158 104 183 174 118 144 136 75  179 171 110 162 153 95  129 120 66  170 159 113 155 143 102 112 100 61  193 182 140 151 141 94  111 101 47  130 122 59  192 185 119 145 140 73  142 136 70  167 163 91  173 168 101 196 189 135 73  65  15  107 99  47  174 166 121 71  59  31  43  34  10  129 127 98  165 167 141 63  66  47  30  35  15  29  35  8   30  37  7   48  52  24  33  37  8   29  35  1   38  44  10  29  33  7   38  42  20  33  35  18  8   10  0   36  38  24  45  49  27  34  38  10  88  94  62  165 169 145 57  61  39  24  28  8   8   12  0   52  56  32  14  18  0   75  78  54  62  66  42  61  62  41  110 111 90  24  24  6   48  49  30  101 101 83  64  65  49  94  97  80  45  49  29  21  24  5   33  36  16  5   8   0   22  26  4   22  26  4   16  20  0   12  15  0   28  31  14  16  15  4   17  16  5   32  33  12  25  26  3   59  59  43  42  42  29  44  43  30  44  43  30  14  14  1   24  24  10  28  28  15  2   2   0   10  8   0   17  15  2   22  19  7   30  27  15  11  9   0   24  22  7   52  50  35  30  27  7   14  12  0   64  64  25  42  41  3   33  30  0   32  29  0   83  80  43  25  24  0   33  33  0   42  44  2   100 102 60  76  75  39  34  33  0   36  31  1   32  26  0   47  39  3   77  69  33  39  30  1   93  86  59  77  73  45  69  64  39  40  34  16  33  27  11  24  16  0   25  20  0   39  35  4   100 99  63  179 181 142 129 129 88  100 95  58  163 157 123 100 95  65  93  88  60  143 141 114 97  94  70  147 142 119 124 119 93  77  74  48  131 128 100 82  80  49  66  66  27  115 117 66  108 110 59  21  21  0   60  58  26  13  9   0   13  9   0   64  62  35  51  50  18  29  24  0   82  78  45  49  46  13  36  33  0   63  58  16  148 144 95  134 131 75  169 167 106 180 179 116 181 178 113 176 173 108 198 195 132 188 183 126 181 175 125 191 184 143 58  51  15  70  62  28  178 171 133 154 148 102 124 117 72  74  64  29  22  10  0   51  39  15  69  57  36  58  48  29  93  84  58  95  88  47  117 110 69  76  65  35  58  44  17  33  19  0   67  55  20  87  76  34  95  84  40  83  71  30  59  48  6   83  69  28  67  53  10  118 105 57  82  70  19  73  63  12  
185 187 77  194 195 90  187 187 87  196 196 100 142 141 48  168 167 79  196 194 108 132 130 44  117 116 27  135 135 37  139 140 35  145 147 37  151 153 43  135 136 31  118 119 14  152 154 42  189 192 79  211 213 107 124 124 26  114 112 22  149 146 63  111 108 30  125 122 44  145 143 57  129 127 41  138 136 52  138 135 54  134 128 50  115 110 32  136 131 51  183 177 99  175 169 91  193 188 108 179 175 88  176 173 78  210 205 109 229 224 127 183 180 87  189 184 99  233 228 147 227 221 144 202 199 118 164 161 78  136 133 52  136 133 54  105 102 24  130 126 50  183 176 103 184 178 105 163 157 80  119 113 35  148 142 64  215 209 134 183 176 105 180 174 103 183 177 99  184 179 97  189 184 99  203 198 115 203 197 119 183 178 95  189 187 87  168 168 56  179 180 64  143 143 34  133 130 35  143 140 48  147 145 43  179 178 72  158 157 51  190 189 80  205 205 91  213 213 101 199 197 96  171 169 72  158 157 55  121 119 18  162 160 60  146 143 44  169 167 67  189 186 89  201 199 104 211 208 113 205 203 101 187 187 80  177 177 63  152 153 39  175 174 67  190 188 84  193 192 88  156 154 52  142 140 40  161 158 63  169 165 75  132 128 38  97  97  0   145 144 51  107 103 25  82  79  2   126 125 37  157 155 67  128 124 50  174 171 94  175 175 77  163 164 55  156 158 46  112 114 9   129 127 41  107 104 23  152 151 58  151 152 49  194 196 86  182 184 76  133 133 36  138 138 38  178 180 66  190 193 78  197 198 96  136 136 38  125 125 27  171 171 71  88  89  0   87  88  0   175 179 59  190 194 72  147 150 35  140 143 30  166 169 52  154 158 40  174 177 64  174 177 60  172 177 50  186 191 62  193 197 73  146 150 30  130 133 18  179 181 71  225 227 121 187 188 83  138 140 30  150 153 34  184 189 55  187 192 63  161 163 55  193 193 93  204 205 103 184 185 80  189 190 85  180 181 78  185 185 85  199 199 97  224 227 114 204 207 92  163 164 59  189 192 77  200 207 66  210 217 78  192 194 84  211 210 120 208 204 121 163 159 74  205 202 105 206 206 94  165 168 40  196 199 68  184 184 70  161 159 55  119 116 19  142 140 42  157 156 52  135 133 36  119 116 40  102 98  26  109 107 21  181 180 87  137 136 43  99  98  3   160 161 60  187 187 87  139 140 47  183 185 87  190 194 84  184 189 78  175 177 79  139 141 45  216 218 117 188 190 89  156 158 64  118 118 34  99  97  27  116 113 43  155 155 73  201 201 112 173 174 80  130 132 33  145 148 42  134 137 34  143 145 51  192 194 98  217 221 112 178 184 64  189 196 66  223 231 98  224 231 103 240 246 124 206 212 94  219 225 107 180 184 60  199 203 81  213 215 103 185 187 77  172 175 60  189 191 81  221 221 121 178 177 84  189 188 97  204 203 115 143 141 55  95  93  9   147 145 62  125 123 37  209 208 117 192 191 98  149 148 55  152 151 60  146 143 62  135 132 51  147 145 60  209 207 123 231 227 153 197 194 120 190 188 107 156 152 74  112 108 39  115 110 41  184 184 102 148 148 66  118 116 44  124 121 56  113 110 47  116 114 41  155 158 59  175 178 73  168 172 77  115 117 37  117 117 51  112 109 53  101 100 46  116 115 65  112 113 67  108 109 61  134 135 76  108 109 47  73  76  18  93  97  43  129 135 83  104 110 60  138 144 92  111 117 65  81  86  41  70  74  36  124 126 100 130 134 114 58  61  44  65  68  49  91  95  69  44  49  20  44  46  18  56  58  33  10  11  0   49  50  32  83  84  65  70  71  53  41  42  21  47  49  25  94  95  72  96  97  76  54  55  34  32  33  12  82  83  62  115 116 93  49  51  28  37  38  15  36  34  18  49  46  33  125 123 108 74  72  57  50  48  32  63  60  45  101 98  88  91  88  73  105 103 74  78  76  47  70  69  46  71  69  49  73  75  49  78  81  51  73  77  37  167 170 126 178 177 127 126 123 71  107 102 49  147 143 83  147 146 69  139 139 55  110 108 22  130 127 48  111 106 42  109 102 45  129 121 62  182 174 110 173 167 94  177 172 92  159 156 66  176 173 80  148 143 60  154 148 68  154 149 66  142 137 57  99  93  20  100 93  25  80  73  7   135 126 70  125 113 73  70  57  23  98  86  49  150 139 97  121 111 62  84  75  17  141 134 62  165 160 80  154 148 68  123 117 44  107 98  40  102 93  37  125 117 53  98  91  18  112 107 24  161 156 73  88  82  9   121 114 44  169 163 87  154 148 72  134 128 55  104 97  24  124 121 44  175 172 96  104 100 27  122 117 48  161 155 98  115 109 47  155 150 69  152 148 63  146 140 62  143 136 66  163 156 88  187 180 112 166 162 90  192 188 114 156 155 78  152 151 71  138 138 53  156 156 72  157 154 71  122 118 42  84  76  13  100 91  33  112 103 42  157 150 84  168 161 88  162 155 84  204 195 139 139 128 79  63  53  4   123 114 58  158 151 83  163 158 78  168 164 74  157 152 72  152 143 89  157 146 100 141 133 72  162 155 84  197 190 117 176 169 96  165 158 90  187 180 114 110 100 33  104 95  23  103 95  16  95  88  6   116 110 35  153 150 81  155 154 88  128 127 63  122 121 58  132 128 66  142 136 72  166 159 93  198 192 119 185 179 104 109 103 30  144 138 65  134 128 53  80  74  0   104 98  22  122 116 41  221 215 140 159 154 76  139 133 53  175 170 87  192 188 101 176 172 82  172 169 77  211 206 121 135 126 61  125 114 54  120 111 41  180 171 99  167 158 88  170 162 89  188 180 101 202 195 113 205 199 114 217 210 128 204 197 117 215 207 130 183 175 98  188 180 103 201 193 116 190 182 105 171 160 86  114 103 31  192 180 111 206 194 125 187 178 108 183 174 104 174 165 95  191 183 110 209 200 128 199 191 119 205 196 126 177 168 100 173 166 102 152 144 83  162 153 95  141 132 76  186 177 121 104 95  36  125 117 53  121 114 46  169 162 89  213 207 130 179 174 92  164 160 75  187 185 101 203 201 120 200 197 118 179 175 101 225 221 150 187 182 115 189 184 120 185 179 117 198 190 129 213 205 142 241 234 164 178 172 97  194 188 113 177 170 100 183 175 112 122 113 57  133 122 78  81  70  30  98  86  47  143 132 88  127 117 66  172 164 103 118 110 42  210 203 132 210 206 137 180 175 106 178 173 102 139 134 68  130 123 68  156 148 98  144 137 82  154 146 99  64  52  24  183 173 149 165 161 128 102 103 71  19  23  0   22  26  2   38  43  14  33  38  4   10  16  0   45  48  15  47  50  15  38  41  6   19  22  0   37  39  11  35  37  12  30  31  8   49  51  28  131 134 103 73  77  37  172 176 136 89  92  61  14  16  0   33  34  13  35  37  14  71  73  48  54  56  28  89  92  61  130 132 102 64  68  35  108 111 78  92  96  61  139 142 109 96  99  68  88  90  62  109 111 85  27  29  3   37  38  13  44  45  20  23  24  0   13  15  0   17  18  0   35  37  14  25  27  0   17  18  0   9   9   0   23  21  6   37  36  12  24  24  0   43  42  19  79  78  58  68  67  47  31  30  10  14  12  0   29  26  4   16  13  0   19  15  0   42  39  17  48  43  22  51  45  24  39  33  12  54  49  26  31  26  2   47  42  19  42  38  8   93  88  49  88  85  38  129 126 75  118 118 65  67  66  14  93  92  40  66  65  13  77  78  28  78  81  32  113 116 67  89  90  41  73  71  24  100 97  48  97  91  41  96  89  35  86  76  25  102 91  51  108 95  63  25  14  0   78  65  42  55  42  24  31  18  0   24  11  0   27  15  0   22  13  0   41  34  4   104 100 68  133 130 97  149 138 107 176 162 133 74  65  36  34  27  0   59  55  24  52  48  17  58  52  20  103 98  63  64  58  22  117 114 74  98  97  52  65  64  14  112 112 56  149 147 90  115 112 61  73  69  25  69  62  30  71  65  31  138 135 86  165 163 109 141 136 85  173 167 119 170 165 114 148 143 88  167 163 101 205 203 133 191 190 111 170 170 90  184 182 110 169 167 97  189 187 117 139 136 69  171 168 105 135 131 73  146 141 88  96  88  41  170 161 116 150 142 90  80  74  10  93  87  23  99  89  38  87  76  34  135 122 88  172 159 129 76  65  35  123 113 77  111 103 58  92  83  38  51  39  4   98  85  53  80  68  33  85  73  34  72  61  15  92  82  33  85  74  30  77  65  24  83  69  28  85  72  31  68  54  13  106 93  50  80  70  21  
163 165 50  175 177 67  173 174 71  194 194 98  165 163 75  152 150 66  124 121 40  145 142 61  112 110 25  139 138 45  143 143 43  163 163 61  143 143 43  103 103 7   105 105 8   189 190 85  193 194 87  118 119 16  118 119 16  173 175 67  187 188 83  172 171 78  137 135 49  118 116 35  103 100 21  158 155 74  164 161 80  191 186 104 194 190 107 186 181 99  168 163 80  182 177 94  159 155 70  187 183 96  218 214 122 217 212 118 224 219 125 177 174 81  166 163 73  191 187 99  201 197 110 181 180 91  105 104 18  81  79  0   125 123 41  145 142 65  179 175 101 179 173 100 148 141 68  151 146 68  141 136 55  158 153 73  177 172 92  182 176 100 158 152 77  204 199 118 157 153 68  163 159 72  159 155 70  176 171 90  151 147 64  142 139 47  148 145 48  141 138 41  118 114 22  105 100 15  125 120 35  173 171 76  180 179 77  179 178 74  208 207 105 204 201 104 197 194 99  173 171 76  146 143 46  156 154 52  149 147 45  137 135 38  136 133 41  149 146 54  147 144 49  194 193 91  205 204 99  176 174 72  122 121 19  147 145 41  169 168 59  120 120 8   189 189 73  201 203 82  178 180 58  192 192 78  163 162 57  127 123 33  101 97  10  89  89  0   88  87  0   117 114 35  131 128 49  143 142 49  163 162 67  171 169 83  147 146 58  152 152 54  186 186 86  161 161 65  142 140 52  146 143 62  210 208 122 216 216 116 184 185 76  181 183 73  130 131 24  149 149 49  165 166 63  122 124 12  165 167 55  193 194 89  184 185 80  116 118 8   143 144 37  129 129 31  133 133 36  211 213 105 170 171 62  174 176 68  156 158 46  147 152 25  157 162 33  189 193 73  160 164 44  147 152 27  150 154 30  157 160 41  150 153 34  161 166 41  192 195 76  151 152 47  119 120 20  96  97  0   137 138 31  157 161 37  193 197 73  159 161 51  140 141 40  124 124 26  131 131 35  156 155 60  119 119 22  131 131 31  184 185 80  187 189 79  165 167 57  137 138 33  208 210 98  234 239 107 186 191 64  208 207 114 178 174 98  122 116 43  123 118 38  166 164 67  176 176 64  190 192 64  204 207 76  183 184 65  165 164 58  142 139 47  154 150 60  113 110 13  115 112 20  125 122 46  144 139 70  126 123 47  196 194 110 184 183 90  182 182 84  157 157 59  118 118 20  146 149 47  180 184 75  183 190 65  182 189 61  196 201 85  185 190 79  171 176 65  180 184 75  213 216 115 185 186 97  169 168 91  136 135 60  81  81  0   173 174 82  201 203 104 157 160 61  142 144 50  145 146 52  206 209 110 212 215 114 192 196 92  143 147 39  130 134 21  185 191 73  183 190 63  219 227 97  218 224 102 213 220 97  202 207 80  186 191 64  196 200 80  204 208 90  200 203 86  196 199 84  204 206 100 180 181 78  178 178 76  230 230 132 229 227 141 177 173 97  189 185 112 117 114 37  163 161 75  199 198 103 175 177 69  181 183 75  180 180 80  172 172 74  187 188 85  188 189 88  192 191 98  192 190 100 199 198 103 209 209 113 194 193 102 175 173 88  135 135 51  135 135 55  98  97  22  140 137 70  96  91  36  89  85  23  102 102 15  162 164 68  187 191 97  148 151 63  112 112 37  109 109 39  134 137 64  172 174 103 169 172 112 111 113 56  96  97  37  138 136 80  90  88  43  22  22  0   95  97  56  102 105 61  144 147 99  96  100 49  113 116 67  110 113 69  142 143 108 117 120 89  112 114 88  82  84  56  51  54  19  55  59  21  95  99  61  112 116 80  98  101 72  75  77  51  57  59  36  67  68  45  56  58  33  44  45  20  81  83  57  83  85  61  57  59  36  85  87  64  97  99  75  165 166 143 156 158 135 134 136 113 114 113 92  116 114 97  87  85  68  49  47  27  81  80  60  72  71  51  78  76  60  45  44  24  111 109 80  181 179 148 132 128 107 59  58  36  82  82  55  96  97  65  95  96  64  79  78  42  105 100 60  146 140 94  145 138 83  182 177 111 181 178 99  147 145 60  121 119 33  116 113 32  130 125 56  172 166 102 175 167 101 158 151 83  149 143 70  154 148 72  155 149 71  101 95  20  112 104 38  112 104 38  120 114 39  137 132 52  122 117 37  157 152 74  140 135 54  97  90  17  78  69  13  73  63  16  90  78  39  106 94  55  154 143 94  133 124 65  73  66  0   106 99  29  165 159 88  125 117 53  158 148 99  154 143 94  114 105 47  112 105 32  132 128 40  108 105 15  135 131 46  146 140 62  79  73  0   129 122 52  164 158 85  141 135 59  104 102 21  163 160 79  156 152 74  129 125 51  111 106 40  144 139 72  123 118 40  129 124 46  123 116 48  147 138 77  148 139 81  175 166 107 116 110 48  85  80  11  76  73  0   105 103 22  135 132 51  114 111 30  96  93  14  126 123 47  108 103 34  115 110 43  151 143 80  157 150 82  125 119 41  152 147 67  179 173 102 179 171 108 78  69  13  91  82  24  136 129 59  121 115 38  170 165 83  141 133 68  49  35  6   50  35  13  67  56  12  142 134 73  171 164 96  166 161 85  175 169 89  205 201 115 148 142 55  163 157 70  170 164 79  124 116 37  126 119 50  146 143 76  145 146 73  130 133 59  90  92  27  31  30  0   67  61  0   103 98  29  152 147 69  189 184 101 187 182 102 175 169 93  141 134 62  114 107 37  173 166 98  152 145 77  152 145 77  119 112 41  102 96  23  170 164 89  221 216 136 194 190 107 173 169 84  152 148 65  168 160 85  158 149 77  146 138 61  190 182 105 216 206 139 210 200 135 198 190 117 166 158 81  212 206 121 208 202 113 176 170 81  201 195 106 180 173 89  180 172 93  226 218 143 212 204 131 186 175 101 173 162 89  188 177 106 173 162 91  130 119 48  170 158 87  228 217 145 192 181 109 163 151 80  179 167 98  151 139 71  189 179 112 122 114 51  162 154 91  144 133 73  183 172 112 166 159 95  189 181 115 190 183 114 129 122 52  180 174 103 206 200 127 194 188 115 210 203 130 182 178 105 192 188 114 172 168 96  136 131 60  216 212 138 211 207 134 187 183 109 203 200 124 186 180 105 190 184 108 165 160 80  163 158 78  184 178 101 177 170 100 155 147 84  164 155 99  122 112 63  166 156 109 182 172 118 134 126 65  116 109 41  180 174 103 182 175 104 164 158 85  163 159 83  157 153 77  181 178 99  182 178 105 180 174 110 200 194 132 182 176 115 189 182 128 180 172 136 112 105 75  52  48  13  53  52  15  49  49  19  42  45  15  14  17  0   45  49  11  55  59  21  53  54  20  26  26  0   29  29  1   71  72  35  33  36  0   46  48  9   142 144 104 98  99  60  166 169 125 150 154 100 148 151 100 91  92  55  13  12  0   45  44  22  59  58  36  107 106 81  19  20  0   54  55  21  114 116 74  80  83  34  121 125 71  166 171 113 181 186 128 92  95  44  91  93  49  118 121 79  63  64  25  54  56  19  31  32  0   29  29  0   23  23  0   2   1   0   42  41  16  75  76  42  58  59  24  37  36  12  58  55  33  35  33  6   44  42  13  90  86  58  81  77  46  35  28  0   23  17  0   25  19  0   52  43  12  46  37  6   69  60  29  120 112 78  116 105 73  109 99  64  65  55  19  79  68  33  75  67  31  95  87  49  74  67  26  107 101 55  93  88  35  92  89  26  121 121 52  92  92  23  80  79  14  104 104 47  77  78  28  66  69  23  111 115 66  98  100 43  86  86  25  77  76  8   94  89  20  104 94  27  63  48  0   96  77  26  86  65  24  89  66  38  88  64  42  157 132 115 58  33  14  91  68  42  72  49  18  61  44  11  67  55  20  39  31  0   92  82  44  92  75  39  80  63  30  63  50  16  31  21  0   43  36  0   25  17  0   50  43  4   86  77  34  79  70  23  69  62  10  95  88  31  64  57  0   90  83  31  140 130 76  175 166 107 132 123 62  121 112 56  121 113 52  151 145 72  155 149 73  182 174 106 178 171 105 180 175 108 174 169 100 163 159 83  171 168 85  189 188 97  170 168 80  138 135 58  138 133 66  189 183 122 149 142 85  117 110 56  125 118 64  180 173 118 146 139 85  146 136 84  57  48  0   126 120 44  118 112 32  161 154 85  158 149 93  172 162 115 79  68  26  51  40  0   135 124 82  172 161 117 109 98  56  106 94  57  93  81  44  77  66  22  71  61  12  96  84  31  153 141 86  106 95  40  105 93  42  70  57  12  128 115 74  88  73  39  74  59  23  111 100 53  
149 152 35  171 173 61  163 164 59  229 228 133 199 197 109 126 124 41  142 139 56  136 134 48  156 154 64  166 166 68  177 177 75  185 185 83  139 140 39  130 129 36  168 168 72  189 190 87  114 114 12  87  87  0   178 177 82  154 154 56  117 117 19  181 180 87  154 152 67  197 194 116 145 142 65  177 173 95  188 185 104 234 229 147 218 213 128 193 189 102 175 171 83  161 157 69  164 160 73  148 144 54  187 181 92  201 195 106 176 170 81  156 151 59  171 168 76  142 139 47  173 170 78  192 191 98  156 154 64  135 133 47  115 112 29  139 136 57  112 109 35  94  88  15  136 130 55  137 132 52  158 154 69  139 134 49  135 130 48  176 170 92  130 125 47  173 169 86  141 137 49  128 124 35  132 128 36  146 142 50  119 116 23  148 145 48  144 142 45  97  93  3   129 125 40  141 136 53  159 155 70  159 156 66  128 125 33  166 164 69  199 196 104 130 126 39  107 103 14  123 121 26  119 117 17  135 133 31  154 152 52  122 119 27  165 161 74  155 151 63  122 119 25  194 194 87  200 200 91  155 153 51  178 176 79  221 219 122 164 162 61  125 124 13  180 182 63  183 185 57  198 201 72  212 214 90  164 164 53  143 140 46  146 142 50  146 147 44  172 172 72  132 130 44  135 133 47  160 160 64  178 178 80  178 177 84  187 186 93  178 178 78  188 188 90  157 155 67  123 121 35  114 112 26  147 147 54  179 180 77  216 218 110 221 222 115 199 200 93  203 205 97  179 180 73  154 156 48  147 149 41  111 113 5   163 164 57  147 149 39  124 125 20  109 108 15  201 200 109 202 202 102 159 161 53  138 140 32  179 182 67  172 177 48  166 171 40  182 186 64  179 182 67  194 197 82  188 191 76  163 165 50  189 193 73  184 189 59  166 170 46  146 148 40  136 136 38  150 149 54  151 151 51  157 159 45  178 181 64  137 138 31  128 128 28  138 137 44  153 152 63  135 133 45  150 149 56  152 152 52  140 141 38  112 113 13  115 115 15  88  88  0   159 161 53  201 205 81  185 188 71  147 146 58  130 126 52  179 173 98  177 173 88  151 150 48  157 157 44  198 200 76  220 222 98  186 187 73  141 140 35  136 133 41  172 169 79  166 164 67  168 164 72  150 147 68  153 149 75  164 161 82  188 186 100 150 150 52  147 148 47  146 146 48  165 165 65  219 223 117 184 189 76  196 203 75  221 229 99  160 166 41  161 167 46  177 182 69  161 164 59  169 171 73  191 192 101 146 146 60  181 181 95  210 211 122 182 184 88  145 149 40  140 144 38  132 133 44  159 159 72  213 215 121 188 190 91  102 104 3   146 149 47  111 114 13  126 130 24  198 204 84  218 225 99  202 208 87  198 204 86  184 187 65  146 150 30  143 146 29  150 152 38  168 171 56  157 159 47  186 188 78  210 212 104 181 183 75  174 175 74  210 208 122 231 228 151 200 196 122 180 177 98  194 193 102 224 225 120 237 241 121 229 233 111 208 210 98  186 188 78  209 212 97  200 203 88  197 199 94  206 206 104 204 206 100 182 183 78  184 185 80  170 169 72  107 107 23  145 144 64  132 131 54  127 125 55  143 139 83  142 138 78  149 149 69  146 147 56  183 185 89  179 183 88  152 155 68  130 132 50  197 199 114 209 213 132 171 173 104 104 106 41  106 105 41  159 157 101 104 102 57  68  65  25  111 111 70  119 119 76  101 102 54  71  73  20  79  81  28  132 133 85  160 163 121 134 135 98  115 116 84  74  77  42  70  75  34  60  64  22  80  84  42  123 127 87  84  88  52  62  65  34  75  77  49  82  84  56  53  55  27  49  52  24  70  73  44  98  101 72  85  88  60  125 127 101 119 121 95  97  99  73  69  71  45  60  61  38  82  81  59  131 130 108 80  79  57  80  80  55  116 116 89  103 103 78  88  87  67  82  78  57  101 100 68  153 151 120 63  60  36  64  61  39  118 115 89  94  92  63  60  57  28  57  51  19  71  64  23  137 129 79  156 148 85  175 169 93  142 138 53  143 141 53  156 154 68  129 126 47  104 100 29  114 109 42  106 98  35  112 104 40  151 144 76  155 148 77  158 151 83  115 107 44  116 107 51  95  87  28  172 166 95  116 111 33  122 117 39  135 129 52  133 128 45  122 117 39  128 121 51  102 94  35  113 103 54  59  48  4   77  66  20  162 152 101 164 155 97  141 133 70  151 143 80  162 153 93  84  74  23  122 112 61  171 162 104 100 93  25  115 111 26  114 110 21  151 147 60  141 136 55  100 93  25  62  54  0   65  58  0   125 118 47  164 161 82  165 162 83  122 119 40  135 131 57  142 137 68  131 126 59  140 133 60  83  76  5   91  82  22  185 176 122 93  83  32  137 127 76  145 138 83  88  82  20  96  92  18  102 99  20  101 98  19  107 103 25  73  69  0   104 101 25  126 122 49  159 155 83  144 137 69  144 138 65  154 149 66  180 176 91  154 148 68  191 185 110 95  88  20  118 110 42  114 109 31  176 171 88  184 179 99  130 122 61  36  21  0   64  48  33  128 116 77  137 129 70  185 178 110 178 173 95  177 173 83  198 195 98  189 185 84  168 163 67  130 124 35  138 130 53  140 132 68  148 145 82  92  92  21  79  81  10  103 105 38  85  84  18  126 123 56  156 151 80  162 156 78  150 145 65  137 132 54  166 161 85  204 197 124 128 121 51  128 121 53  189 181 113 168 160 92  166 159 91  134 127 57  139 132 59  194 188 113 187 182 104 184 179 99  113 108 28  132 124 47  133 126 46  181 174 92  167 159 80  204 195 127 196 186 121 198 190 117 177 169 92  195 188 106 170 164 75  131 126 32  184 179 85  169 164 72  190 184 97  203 195 116 182 174 99  193 182 108 160 150 76  203 193 119 207 196 122 189 179 105 221 210 136 177 166 92  170 158 87  167 156 87  167 155 89  181 169 103 202 190 126 155 145 80  178 171 105 118 108 43  142 133 68  186 179 111 175 167 99  180 174 103 198 191 121 161 154 83  175 168 97  204 197 126 173 167 96  161 157 86  150 145 74  154 150 79  173 169 97  167 163 89  189 185 112 194 190 114 199 195 119 189 183 107 201 195 120 163 157 82  176 170 94  133 126 53  191 184 116 170 162 99  215 207 148 197 187 134 204 195 139 214 206 143 168 161 90  176 170 94  163 157 82  169 162 89  157 151 78  186 182 106 161 158 80  137 133 57  159 155 81  119 115 46  156 150 86  202 197 132 130 123 66  136 130 87  69  63  26  73  68  31  54  51  13  44  41  3   66  66  29  77  76  38  63  63  22  61  61  18  50  50  11  32  30  0   57  55  24  145 144 103 138 139 90  110 111 58  136 139 83  165 168 112 167 169 111 162 166 101 139 142 81  122 123 77  72  71  37  36  34  5   117 114 86  174 173 137 66  67  23  62  63  15  105 107 54  131 133 73  181 184 119 126 130 61  98  102 33  118 121 60  96  98  42  133 135 82  105 106 56  85  86  38  69  70  22  89  89  43  65  65  24  26  24  0   47  45  12  125 125 80  98  97  52  80  77  39  100 94  62  23  17  0   72  64  31  112 105 66  76  69  28  38  29  0   80  71  28  88  77  35  100 89  47  91  79  38  109 98  56  101 90  46  70  59  15  106 95  51  129 118 74  79  68  24  91  80  36  126 118 71  118 110 63  133 125 78  172 165 110 126 121 55  119 117 43  119 117 43  123 123 55  129 127 71  93  91  44  106 106 65  118 118 75  89  89  34  91  90  26  82  79  10  73  67  0   114 102 35  119 102 40  149 128 72  147 125 77  121 95  63  70  42  19  99  70  53  72  44  22  76  49  17  74  48  11  63  42  4   68  52  12  66  55  13  130 116 75  95  74  35  74  51  13  93  77  36  111 97  56  98  87  41  73  63  14  115 105 56  134 124 73  94  82  27  106 95  38  112 101 41  119 108 50  114 99  47  118 105 48  170 158 91  185 173 104 178 164 98  158 146 77  174 165 84  194 187 103 189 181 102 206 198 124 188 178 111 159 152 84  142 136 63  163 160 79  182 182 88  137 136 45  174 170 96  152 146 84  140 133 79  112 105 55  173 165 115 131 124 72  193 186 129 166 160 100 95  86  30  123 115 52  149 144 62  149 145 58  176 170 92  135 128 60  143 134 76  132 122 68  149 140 86  177 167 116 186 176 129 102 91  49  159 148 106 130 119 75  120 110 59  106 97  41  126 115 57  173 162 102 138 127 67  128 117 60  170 158 108 168 154 113 64  49  18  85  70  39  119 108 64  
139 142 29  173 175 67  181 182 79  178 178 80  188 187 94  158 157 66  150 149 58  181 181 85  151 151 51  171 172 65  173 175 63  170 172 60  165 166 59  172 172 72  161 161 63  119 120 18  93  93  0   140 138 53  144 140 66  80  74  10  107 101 37  201 198 119 196 194 113 196 193 117 166 162 86  225 222 144 220 217 136 213 208 126 189 185 97  157 154 64  149 145 56  131 125 34  147 141 50  156 150 61  158 151 65  189 180 97  173 164 79  163 157 68  168 162 71  144 142 47  139 136 41  164 163 68  189 189 95  177 175 87  153 151 65  208 205 124 181 178 99  147 141 65  152 147 69  148 143 58  133 129 41  111 107 19  135 131 46  157 152 74  159 154 76  143 138 56  121 117 30  175 171 79  140 138 38  141 140 31  182 182 68  137 138 24  169 168 61  144 142 47  128 124 35  127 124 31  106 102 12  113 109 23  101 96  14  134 129 48  178 173 93  162 157 72  120 117 24  139 136 37  146 144 42  104 102 2   123 121 26  126 122 32  122 118 31  136 132 45  98  95  2   152 151 47  191 190 83  127 124 27  200 197 105 213 209 120 134 131 36  123 122 18  158 159 45  189 191 65  200 203 72  149 152 23  152 154 33  184 183 76  165 164 58  189 193 73  195 198 81  159 159 59  181 180 87  135 134 41  199 198 105 158 157 64  131 131 35  192 192 90  163 163 61  156 155 60  136 135 42  163 163 61  119 120 18  131 131 35  112 112 19  152 152 54  172 173 66  151 154 37  158 161 46  138 138 38  119 119 22  143 144 37  139 141 31  147 148 47  95  94  3   125 123 39  177 175 89  119 120 20  163 164 55  193 196 81  208 211 92  213 217 90  168 173 48  164 166 52  126 128 20  114 114 14  150 150 48  160 162 52  158 161 44  181 186 59  154 158 36  146 148 40  129 129 31  126 126 33  117 117 21  173 174 69  160 162 54  128 128 26  178 177 82  140 139 51  130 128 42  154 152 67  137 135 47  124 124 28  156 155 60  130 129 38  118 117 28  139 138 47  165 165 65  187 190 73  172 175 60  138 138 42  171 169 83  166 163 73  147 145 45  169 169 55  199 201 79  186 187 69  163 163 51  150 148 49  129 127 30  115 113 14  190 188 88  208 207 105 187 185 88  197 195 110 182 180 97  201 200 109 181 181 83  154 156 50  144 145 40  147 148 45  170 171 66  163 167 59  171 176 65  135 140 25  202 208 87  166 173 43  149 156 31  162 166 58  111 113 15  128 130 38  136 138 46  149 152 51  155 158 57  169 171 77  123 125 24  166 172 49  198 204 84  155 157 63  140 140 58  157 157 77  125 125 41  119 121 23  128 131 30  139 141 45  133 135 37  162 166 58  220 225 114 238 241 135 171 175 69  150 151 46  158 159 54  145 146 41  117 119 11  140 142 34  166 168 60  199 201 91  217 219 109 195 197 89  177 176 79  187 185 99  195 192 111 128 125 42  138 137 44  135 136 29  145 149 29  179 184 55  192 197 68  213 216 97  186 189 72  174 178 56  202 206 84  234 236 124 201 202 95  151 152 45  167 169 61  181 184 71  178 178 76  157 158 71  105 104 25  141 141 59  195 193 119 178 172 110 94  88  24  139 136 57  135 134 41  164 168 64  139 142 36  180 182 83  175 176 85  203 204 115 180 182 100 148 151 77  174 176 107 137 137 67  138 138 70  159 159 102 87  86  36  143 141 96  140 138 94  109 108 56  148 148 94  86  85  31  169 169 117 122 123 77  104 103 65  67  69  32  96  98  61  104 109 66  63  68  23  113 115 71  135 137 95  81  83  46  88  89  55  99  102 70  115 117 87  71  75  42  74  77  44  81  83  53  117 120 89  116 118 88  130 132 102 82  84  56  64  67  39  59  61  33  80  82  54  54  54  29  51  51  24  134 133 106 122 122 93  93  92  60  89  87  56  63  60  34  62  59  33  52  48  15  83  79  47  49  44  21  134 129 108 124 119 95  84  79  54  43  36  7   88  80  44  69  58  9   163 153 91  179 171 92  138 132 43  148 145 52  146 142 52  159 155 72  142 136 61  137 130 62  148 140 79  115 106 52  74  65  11  157 149 86  141 133 68  102 95  29  69  60  0   67  58  6   81  72  18  102 95  27  102 96  23  95  88  20  79  72  4   140 133 60  142 136 61  149 143 66  178 172 99  136 129 63  90  80  26  69  57  16  85  73  34  121 111 62  108 99  43  109 101 38  157 150 84  98  90  24  99  91  28  132 123 62  105 97  33  123 117 42  101 96  14  137 133 48  157 152 74  129 123 59  68  62  5   80  73  16  78  71  12  96  91  24  115 110 41  135 130 59  90  86  17  123 117 53  93  87  23  123 116 48  62  55  0   91  82  24  147 137 85  144 134 87  59  49  2   107 97  46  139 130 71  105 98  29  134 128 53  113 107 32  125 119 43  147 141 63  158 153 75  140 134 56  136 131 53  162 156 78  156 151 71  196 191 108 168 164 76  166 163 73  200 196 109 179 174 92  189 184 101 143 140 50  208 205 113 164 160 73  126 119 50  66  53  21  61  47  19  142 132 83  166 159 95  152 145 77  163 158 78  158 155 61  166 165 61  184 183 76  168 166 64  126 120 31  168 160 83  164 156 93  121 117 61  79  76  23  76  77  17  104 107 35  87  88  11  142 142 62  151 147 71  155 148 77  172 166 95  111 104 31  197 190 117 187 181 106 136 131 53  146 140 64  162 156 80  165 159 86  150 143 73  133 126 55  116 110 37  165 159 84  171 166 88  204 198 120 180 175 97  124 116 39  125 117 40  167 160 78  138 130 51  167 158 86  162 153 81  188 180 101 199 192 110 193 185 106 176 169 87  166 160 69  186 181 84  193 188 91  208 203 107 215 209 118 174 167 81  175 166 85  184 173 97  216 206 130 185 174 98  156 145 69  179 169 92  175 165 91  208 197 126 171 159 92  145 133 69  164 151 87  196 184 120 208 198 133 187 177 110 153 143 76  168 159 91  179 173 102 149 142 72  157 150 80  173 167 96  150 143 73  157 150 80  127 120 50  193 187 114 142 136 63  199 193 120 144 138 65  207 201 128 214 207 137 182 174 106 149 142 74  176 168 102 163 155 92  133 124 63  180 172 111 199 191 130 146 138 74  161 153 89  149 141 78  151 143 80  156 148 85  180 173 107 187 181 110 142 136 61  155 149 71  128 122 45  175 168 95  127 121 48  139 132 59  147 140 69  114 107 39  182 174 108 198 190 127 198 190 129 170 163 104 85  77  23  65  60  12  103 96  53  91  86  44  67  63  21  95  88  45  103 96  53  139 132 89  98  91  48  134 128 82  120 114 68  90  84  38  103 96  53  105 98  55  192 187 138 176 172 112 135 133 65  143 140 75  134 132 62  125 124 47  173 171 98  175 170 115 98  92  46  96  88  50  197 190 147 117 113 53  133 130 63  185 183 115 154 151 84  185 183 115 170 168 100 131 128 61  148 145 80  155 151 91  131 126 69  134 130 70  113 109 49  117 113 51  148 145 80  149 147 79  110 106 46  99  93  45  98  92  46  136 132 74  142 138 78  131 123 74  124 116 69  78  67  21  126 115 67  84  72  19  99  88  33  82  70  17  97  85  32  87  75  22  101 89  36  92  80  28  121 110 57  110 98  47  61  49  0   104 94  42  142 132 81  97  90  38  90  83  31  112 105 55  60  52  3   65  56  11  85  77  27  111 106 42  128 123 52  138 134 62  138 135 70  105 100 49  170 165 126 229 223 193 211 204 174 151 147 105 84  79  28  119 110 54  106 95  38  118 105 50  79  63  9   81  63  5   105 86  36  85  66  29  83  62  35  61  39  17  98  75  49  75  54  18  101 78  36  117 97  53  65  48  1   95  82  34  122 107 60  104 79  35  98  73  29  67  47  1   129 115 63  124 112 50  95  85  18  126 116 51  115 102 40  78  64  7   102 88  34  97  83  31  115 99  45  126 110 52  125 110 45  127 114 41  161 145 75  173 156 93  130 113 50  135 122 51  188 178 102 210 200 122 199 188 114 166 155 97  158 145 95  158 149 95  156 148 83  162 157 72  165 161 76  168 160 94  158 149 95  133 122 76  121 110 66  150 139 95  152 142 93  163 156 99  147 142 80  128 119 61  149 142 74  176 171 86  141 137 47  179 174 92  178 173 95  154 147 74  154 147 78  175 167 103 146 137 78  114 104 55  123 113 66  115 105 56  166 157 103 118 109 50  90  81  20  126 116 53  154 144 81  96  86  21  138 127 65  167 155 100 110 97  51  106 91  58  78  63  32  98  86  49  
