P3
94 60
255
255 0   0   255 0   0   255 0   0   255 0   0   255 0   0   255 0   0   255 0   0   255 0   0   255 0   0   255 0   0   255 0   0   255 0   0   255 0   0   255 0   0   255 0   0   255 0   0   255 0   0   255 0   0   255 0   0   255 0   0   255 0   0   255 0   0   255 0   0   255 0   0   255 0   0   255 0   0   255 0   0   255 0   0   255 0   0   255 0   0   255 0   0   255 0   0   255 0   0   255 0   0   255 0   0   255 0   0   255 0   0   255 0   0   255 0   0   255 0   0   255 0   0   255 0   0   255 0   0   255 0   0   255 0   0   255 0   0   255 0   0   255 0   0   255 0   0   255 0   0   255 0   0   255 0   0   255 0   0   255 0   0   255 0   0   255 0   0   255 0   0   255 0   0   255 0   0   255 0   0   255 0   0   255 0   0   255 0   0   255 0   0   255 0   0   255 0   0   255 0   0   255 0   0   255 0   0   255 0   0   255 0   0   255 0   0   255 0   0   255 0   0   255 0   0   255 0   0   255 0   0   255 0   0   255 0   0   255 0   0   255 0   0   255 0   0   255 0   0   255 0   0   255 0   0   255 0   0   255 0   0   255 0   0   255 0   0   255 0   0   255 0   0   255 0   0   255 0   0   255 0   0   
255 0   0   12  97  203 12  97  203 12  97  203 12  97  203 12  97  203 12  97  203 12  97  203 12  97  203 12  97  203 12  97  203 12  97  203 12  97  203 12  97  203 12  97  203 12  97  203 12  97  203 12  97  203 12  97  203 12  97  203 12  97  203 12  97  203 12  97  203 12  97  203 12  97  203 12  97  203 12  97  203 12  97  203 12  97  203 12  97  203 12  97  203 12  97  203 12  97  203 12  97  203 12  97  203 12  97  203 12  97  203 12  97  203 12  97  203 12  97  203 12  97  203 12  97  203 12  97  203 12  97  203 12  97  203 12  97  203 12  97  203 12  97  203 12  97  203 12  97  203 12  97  203 12  97  203 12  97  203 12  97  203 12  97  203 12  97  203 12  97  203 12  97  203 12  97  203 12  97  203 12  97  203 12  97  203 12  97  203 12  97  203 12  97  203 12  97  203 12  97  203 12  97  203 12  97  203 12  97  203 12  97  203 12  97  203 12  97  203 12  97  203 12  97  203 12  97  203 12  97  203 12  97  203 12  97  203 12  97  203 12  97  203 12  97  203 12  97  203 12  97  203 12  97  203 12  97  203 12  97  203 12  97  203 12  97  203 12  97  203 12  97  203 12  97  203 12  97  203 255 0   0   
255 0   0   12  97  203 12  97  203 12  97  203 12  97  203 12  97  203 12  97  203 12  97  203 12  97  203 12  97  203 12  97  203 12  97  203 12  97  203 12  97  203 12  97  203 12  97  203 12  97  203 12  97  203 12  97  203 12  97  203 12  97  203 12  97  203 12  97  203 12  97  203 12  97  203 12  97  203 12  97  203 12  97  203 12  97  203 12  97  203 12  97  203 12  97  203 12  97  203 12  97  203 12  97  203 12  97  203 12  97  203 12  97  203 12  97  203 12  97  203 12  97  203 12  97  203 12  97  203 12  97  203 12  97  203 12  97  203 12  97  203 12  97  203 12  97  203 12  97  203 12  97  203 12  97  203 12  97  203 12  97  203 12  97  203 12  97  203 12  97  203 12  97  203 12  97  203 12  97  203 12  97  203 12  97  203 12  97  203 12  97  203 12  97  203 12  97  203 12  97  203 12  97  203 12  97  203 12  97  203 12  97  203 12  97  203 12  97  203 12  97  203 12  97  203 12  97  203 12  97  203 12  97  203 12  97  203 12  97  203 12  97  203 12  97  203 12  97  203 12  97  203 12  97  203 12  97  203 12  97  203 12  97  203 12  97  203 12  97  203 12  97  203 12  97  203 12  97  203 255 0   0   
255 0   0   12  97  203 12  97  203 12  97  203 12  97  203 12  97  203 12  97  203 12  97  203 12  97  203 12  97  203 12  97  203 12  97  203 12  97  203 12  97  203 12  97  203 12  97  203 12  97  203 12  97  203 12  97  203 12  97  203 12  97  203 12  97  203 12  97  203 12  97  203 12  97  203 12  97  203 12  97  203 12  97  203 12  97  203 12  97  203 12  97  203 12  97  203 12  97  203 12  97  203 12  97  203 12  97  203 12  97  203 12  97  203 12  97  203 12  97  203 12  97  203 12  97  203 12  97  203 12  97  203 12  97  203 12  97  203 12  97  203 12  97  203 12  97  203 12  97  203 12  97  203 12  97  203 12  97  203 12  97  203 12  97  203 12  97  203 12  97  203 12  97  203 12  97  203 12  97  203 12  97  203 12  97  203 12  97  203 12  97  203 12  97  203 12  97  203 12  97  203 12  97  203 12  97  203 12  97  203 12  97  203 12  97  203 12  97  203 12  97  203 12  97  203 12  97  203 12  97  203 12  97  203 12  97  203 12  97  203 12  97  203 12  97  203 12  97  203 12  97  203 12  97  203 12  97  203 12  97  203 12  97  203 12  97  203 12  97  203 12  97  203 12  97  203 12  97  203 255 0   0   
255 0   0   12  97  203 12  97  203 12  97  203 12  97  203 12  97  203 12  97  203 12  97  203 12  97  203 12  97  203 12  97  203 12  97  203 12  97  203 12  97  203 12  97  203 12  97  203 12  97  203 12  97  203 12  97  203 12  97  203 12  97  203 12  97  203 12  97  203 12  97  203 12  97  203 12  97  203 12  97  203 12  97  203 12  97  203 12  97  203 12  97  203 12  97  203 12  97  203 12  97  203 12  97  203 12  97  203 12  97  203 12  97  203 12  97  203 12  97  203 12  97  203 12  97  203 12  97  203 12  97  203 12  97  203 12  97  203 12  97  203 12  97  203 12  97  203 12  97  203 12  97  203 12  97  203 12  97  203 12  97  203 12  97  203 12  97  203 12  97  203 12  97  203 12  97  203 12  97  203 12  97  203 12  97  203 12  97  203 12  97  203 12  97  203 12  97  203 12  97  203 12  97  203 12  97  203 12  97  203 12  97  203 12  97  203 12  97  203 12  97  203 12  97  203 12  97  203 12  97  203 12  97  203 12  97  203 12  97  203 12  97  203 12  97  203 12  97  203 12  97  203 12  97  203 12  97  203 12  97  203 12  97  203 12  97  203 12  97  203 12  97  203 12  97  203 12  97  203 255 0   0   
255 0   0   12  97  203 12  97  203 12  97  203 12  97  203 12  97  203 12  97  203 12  97  203 12  97  203 12  97  203 12  97  203 12  97  203 12  97  203 12  97  203 12  97  203 12  97  203 12  97  203 12  97  203 12  97  203 12  97  203 12  97  203 12  97  203 12  97  203 12  97  203 12  97  203 12  97  203 12  97  203 12  97  203 12  97  203 12  97  203 12  97  203 12  97  203 12  97  203 12  97  203 12  97  203 12  97  203 12  97  203 12  97  203 12  97  203 12  97  203 12  97  203 12  97  203 12  97  203 12  97  203 12  97  203 12  97  203 12  97  203 12  97  203 12  97  203 12  97  203 12  97  203 12  97  203 12  97  203 12  97  203 12  97  203 12  97  203 12  97  203 12  97  203 12  97  203 12  97  203 12  97  203 12  97  203 12  97  203 12  97  203 12  97  203 12  97  203 12  97  203 12  97  203 12  97  203 12  97  203 12  97  203 12  97  203 12  97  203 12  97  203 12  97  203 12  97  203 12  97  203 12  97  203 12  97  203 12  97  203 12  97  203 12  97  203 12  97  203 12  97  203 12  97  203 12  97  203 12  97  203 12  97  203 12  97  203 12  97  203 12  97  203 12  97  203 12  97  203 255 0   0   
255 0   0   12  97  203 12  97  203 12  97  203 12  97  203 12  97  203 12  97  203 12  97  203 12  97  203 12  97  203 12  97  203 12  97  203 12  97  203 12  97  203 12  97  203 12  97  203 12  97  203 12  97  203 12  97  203 12  97  203 12  97  203 12  97  203 12  97  203 12  97  203 12  97  203 12  97  203 12  97  203 12  97  203 12  97  203 12  97  203 12  97  203 12  97  203 12  97  203 12  97  203 12  97  203 12  97  203 12  97  203 12  97  203 12  97  203 12  97  203 12  97  203 12  97  203 12  97  203 12  97  203 12  97  203 12  97  203 12  97  203 12  97  203 12  97  203 12  97  203 12  97  203 12  97  203 12  97  203 12  97  203 12  97  203 12  97  203 12  97  203 12  97  203 12  97  203 12  97  203 12  97  203 12  97  203 12  97  203 12  97  203 12  97  203 12  97  203 12  97  203 12  97  203 12  97  203 12  97  203 12  97  203 12  97  203 12  97  203 12  97  203 12  97  203 12  97  203 12  97  203 12  97  203 12  97  203 12  97  203 12  97  203 12  97  203 12  97  203 12  97  203 12  97  203 12  97  203 12  97  203 12  97  203 12  97  203 12  97  203 12  97  203 12  97  203 12  97  203 255 0   0   
255 0   0   12  97  203 12  97  203 12  97  203 12  97  203 12  97  203 12  97  203 12  97  203 12  97  203 12  97  203 12  97  203 12  97  203 12  97  203 12  97  203 12  97  203 12  97  203 12  97  203 12  97  203 12  97  203 12  97  203 12  97  203 12  97  203 12  97  203 12  97  203 12  97  203 12  97  203 12  97  203 12  97  203 12  97  203 12  97  203 12  97  203 12  97  203 12  97  203 12  97  203 12  97  203 12  97  203 12  97  203 12  97  203 12  97  203 12  97  203 12  97  203 12  97  203 12  97  203 12  97  203 12  97  203 12  97  203 12  97  203 12  97  203 12  97  203 12  97  203 12  97  203 12  97  203 12  97  203 12  97  203 12  97  203 12  97  203 12  97  203 12  97  203 12  97  203 12  97  203 12  97  203 12  97  203 12  97  203 12  97  203 12  97  203 12  97  203 12  97  203 12  97  203 12  97  203 12  97  203 12  97  203 12  97  203 12  97  203 12  97  203 12  97  203 12  97  203 12  97  203 12  97  203 12  97  203 12  97  203 12  97  203 12  97  203 12  97  203 12  97  203 12  97  203 12  97  203 12  97  203 12  97  203 12  97  203 12  97  203 12  97  203 12  97  203 12  97  203 255 0   0   
255 0   0   12  97  203 12  97  203 12  97  203 12  97  203 12  97  203 12  97  203 12  97  203 12  97  203 12  97  203 12  97  203 12  97  203 12  97  203 12  97  203 12  97  203 12  97  203 12  97  203 12  97  203 12  97  203 12  97  203 12  97  203 12  97  203 12  97  203 12  97  203 12  97  203 12  97  203 12  97  203 12  97  203 12  97  203 12  97  203 12  97  203 12  97  203 12  97  203 12  97  203 12  97  203 12  97  203 12  97  203 12  97  203 12  97  203 12  97  203 12  97  203 12  97  203 12  97  203 12  97  203 12  97  203 12  97  203 12  97  203 12  97  203 12  97  203 12  97  203 12  97  203 12  97  203 12  97  203 12  97  203 12  97  203 12  97  203 12  97  203 12  97  203 12  97  203 12  97  203 12  97  203 12  97  203 12  97  203 12  97  203 12  97  203 12  97  203 12  97  203 12  97  203 12  97  203 12  97  203 12  97  203 12  97  203 12  97  203 12  97  203 12  97  203 12  97  203 12  97  203 12  97  203 12  97  203 12  97  203 12  97  203 12  97  203 12  97  203 12  97  203 12  97  203 12  97  203 12  97  203 12  97  203 12  97  203 12  97  203 12  97  203 12  97  203 12  97  203 255 0   0   
255 0   0   12  97  203 12  97  203 12  97  203 12  97  203 12  97  203 12  97  203 12  97  203 12  97  203 12  97  203 12  97  203 12  97  203 12  97  203 12  97  203 12  97  203 12  97  203 12  97  203 12  97  203 12  97  203 12  97  203 12  97  203 12  97  203 12  97  203 12  97  203 12  97  203 12  97  203 12  97  203 12  97  203 12  97  203 12  97  203 12  97  203 12  97  203 12  97  203 12  97  203 12  97  203 12  97  203 12  97  203 12  97  203 12  97  203 12  97  203 12  97  203 12  97  203 12  97  203 12  97  203 12  97  203 12  97  203 12  97  203 12  97  203 12  97  203 12  97  203 12  97  203 12  97  203 12  97  203 12  97  203 12  97  203 12  97  203 12  97  203 12  97  203 12  97  203 12  97  203 12  97  203 12  97  203 12  97  203 12  97  203 12  97  203 12  97  203 12  97  203 12  97  203 12  97  203 12  97  203 12  97  203 12  97  203 12  97  203 12  97  203 12  97  203 12  97  203 12  97  203 12  97  203 12  97  203 12  97  203 12  97  203 12  97  203 12  97  203 12  97  203 12  97  203 12  97  203 12  97  203 12  97  203 12  97  203 12  97  203 12  97  203 12  97  203 12  97  203 255 0   0   
255 0   0   12  97  203 12  97  203 12  97  203 12  97  203 12  97  203 12  97  203 12  97  203 12  97  203 12  97  203 12  97  203 12  97  203 12  97  203 12  97  203 12  97  203 12  97  203 12  97  203 12  97  203 12  97  203 12  97  203 12  97  203 12  97  203 12  97  203 12  97  203 12  97  203 12  97  203 12  97  203 12  97  203 12  97  203 12  97  203 12  97  203 12  97  203 12  97  203 12  97  203 12  97  203 12  97  203 12  97  203 12  97  203 12  97  203 12  97  203 12  97  203 12  97  203 12  97  203 12  97  203 12  97  203 12  97  203 12  97  203 12  97  203 12  97  203 12  97  203 12  97  203 12  97  203 12  97  203 12  97  203 12  97  203 12  97  203 12  97  203 12  97  203 12  97  203 12  97  203 12  97  203 12  97  203 12  97  203 12  97  203 12  97  203 12  97  203 12  97  203 12  97  203 12  97  203 12  97  203 12  97  203 12  97  203 12  97  203 12  97  203 12  97  203 12  97  203 12  97  203 12  97  203 12  97  203 12  97  203 12  97  203 12  97  203 12  97  203 12  97  203 12  97  203 12  97  203 12  97  203 12  97  203 12  97  203 12  97  203 12  97  203 12  97  203 12  97  203 255 0   0   
255 0   0   12  97  203 12  97  203 12  97  203 12  97  203 12  97  203 12  97  203 12  97  203 12  97  203 12  97  203 12  97  203 12  97  203 12  97  203 12  97  203 12  97  203 12  97  203 12  97  203 12  97  203 12  97  203 12  97  203 12  97  203 12  97  203 12  97  203 12  97  203 12  97  203 12  97  203 12  97  203 12  97  203 12  97  203 12  97  203 12  97  203 12  97  203 12  97  203 12  97  203 12  97  203 12  97  203 12  97  203 12  97  203 12  97  203 12  97  203 12  97  203 12  97  203 12  97  203 12  97  203 12  97  203 12  97  203 12  97  203 12  97  203 12  97  203 12  97  203 12  97  203 12  97  203 12  97  203 12  97  203 12  97  203 12  97  203 12  97  203 12  97  203 12  97  203 12  97  203 12  97  203 12  97  203 12  97  203 12  97  203 12  97  203 12  97  203 12  97  203 12  97  203 12  97  203 12  97  203 12  97  203 12  97  203 12  97  203 12  97  203 12  97  203 12  97  203 12  97  203 12  97  203 12  97  203 12  97  203 12  97  203 12  97  203 12  97  203 12  97  203 12  97  203 12  97  203 12  97  203 12  97  203 12  97  203 12  97  203 12  97  203 12  97  203 12  97  203 255 0   0   
255 0   0   12  97  203 12  97  203 12  97  203 12  97  203 12  97  203 12  97  203 12  97  203 12  97  203 12  97  203 12  97  203 12  97  203 12  97  203 12  97  203 12  97  203 12  97  203 12  97  203 12  97  203 12  97  203 12  97  203 12  97  203 12  97  203 12  97  203 12  97  203 12  97  203 12  97  203 12  97  203 12  97  203 12  97  203 12  97  203 12  97  203 12  97  203 12  97  203 12  97  203 12  97  203 12  97  203 12  97  203 12  97  203 12  97  203 12  97  203 12  97  203 12  97  203 12  97  203 12  97  203 12  97  203 12  97  203 12  97  203 12  97  203 12  97  203 12  97  203 12  97  203 12  97  203 12  97  203 12  97  203 12  97  203 12  97  203 12  97  203 12  97  203 12  97  203 12  97  203 12  97  203 12  97  203 12  97  203 12  97  203 12  97  203 12  97  203 12  97  203 12  97  203 12  97  203 12  97  203 12  97  203 12  97  203 12  97  203 12  97  203 12  97  203 12  97  203 12  97  203 12  97  203 12  97  203 12  97  203 12  97  203 12  97  203 12  97  203 12  97  203 12  97  203 12  97  203 12  97  203 12  97  203 12  97  203 12  97  203 12  97  203 12  97  203 12  97  203 255 0   0   
255 0   0   12  97  203 12  97  203 12  97  203 12  97  203 12  97  203 12  97  203 12  97  203 12  97  203 12  97  203 12  97  203 12  97  203 12  97  203 12  97  203 12  97  203 12  97  203 12  97  203 12  97  203 12  97  203 12  97  203 12  97  203 12  97  203 12  97  203 12  97  203 12  97  203 12  97  203 12  97  203 12  97  203 12  97  203 12  97  203 12  97  203 12  97  203 12  97  203 12  97  203 12  97  203 12  97  203 12  97  203 12  97  203 12  97  203 12  97  203 12  97  203 12  97  203 12  97  203 12  97  203 12  97  203 12  97  203 12  97  203 12  97  203 12  97  203 12  97  203 12  97  203 12  97  203 12  97  203 12  97  203 12  97  203 12  97  203 12  97  203 12  97  203 12  97  203 12  97  203 12  97  203 12  97  203 12  97  203 12  97  203 12  97  203 12  97  203 12  97  203 12  97  203 12  97  203 12  97  203 12  97  203 12  97  203 12  97  203 12  97  203 12  97  203 12  97  203 12  97  203 12  97  203 12  97  203 12  97  203 12  97  203 12  97  203 12  97  203 12  97  203 12  97  203 12  97  203 12  97  203 12  97  203 12  97  203 12  97  203 12  97  203 12  97  203 12  97  203 255 0   0   
255 0   0   12  97  203 12  97  203 12  97  203 12  97  203 12  97  203 12  97  203 12  97  203 12  97  203 12  97  203 12  97  203 12  97  203 12  97  203 12  97  203 12  97  203 12  97  203 12  97  203 12  97  203 12  97  203 12  97  203 12  97  203 12  97  203 12  97  203 12  97  203 12  97  203 12  97  203 12  97  203 12  97  203 12  97  203 12  97  203 12  97  203 12  97  203 12  97  203 12  97  203 12  97  203 12  97  203 12  97  203 12  97  203 12  97  203 12  97  203 12  97  203 12  97  203 12  97  203 12  97  203 12  97  203 12  97  203 12  97  203 12  97  203 12  97  203 12  97  203 12  97  203 12  97  203 12  97  203 12  97  203 12  97  203 12  97  203 12  97  203 12  97  203 12  97  203 12  97  203 12  97  203 12  97  203 12  97  203 12  97  203 12  97  203 12  97  203 12  97  203 12  97  203 12  97  203 12  97  203 12  97  203 12  97  203 12  97  203 12  97  203 12  97  203 12  97  203 12  97  203 12  97  203 12  97  203 12  97  203 12  97  203 12  97  203 12  97  203 12  97  203 12  97  203 12  97  203 12  97  203 12  97  203 12  97  203 12  97  203 12  97  203 12  97  203 12  97  203 255 0   0   
255 0   0   12  97  203 12  97  203 12  97  203 12  97  203 12  97  203 12  97  203 12  97  203 12  97  203 12  97  203 12  97  203 12  97  203 12  97  203 12  97  203 12  97  203 12  97  203 12  97  203 12  97  203 12  97  203 12  97  203 12  97  203 12  97  203 12  97  203 12  97  203 12  97  203 12  97  203 12  97  203 12  97  203 12  97  203 12  97  203 12  97  203 12  97  203 12  97  203 12  97  203 12  97  203 12  97  203 12  97  203 12  97  203 12  97  203 12  97  203 12  97  203 12  97  203 12  97  203 12  97  203 12  97  203 12  97  203 12  97  203 12  97  203 12  97  203 12  97  203 12  97  203 12  97  203 12  97  203 12  97  203 12  97  203 12  97  203 12  97  203 12  97  203 12  97  203 12  97  203 12  97  203 12  97  203 12  97  203 12  97  203 12  97  203 12  97  203 12  97  203 12  97  203 12  97  203 12  97  203 12  97  203 12  97  203 12  97  203 12  97  203 12  97  203 12  97  203 12  97  203 12  97  203 12  97  203 12  97  203 12  97  203 12  97  203 12  97  203 12  97  203 12  97  203 12  97  203 12  97  203 12  97  203 12  97  203 12  97  203 12  97  203 12  97  203 12  97  203 255 0   0   
255 0   0   12  97  203 12  97  203 12  97  203 12  97  203 12  97  203 12  97  203 12  97  203 12  97  203 12  97  203 12  97  203 12  97  203 12  97  203 12  97  203 12  97  203 12  97  203 12  97  203 12  97  203 12  97  203 12  97  203 12  97  203 12  97  203 12  97  203 12  97  203 12  97  203 12  97  203 12  97  203 12  97  203 12  97  203 12  97  203 12  97  203 12  97  203 12  97  203 12  97  203 12  97  203 12  97  203 12  97  203 12  97  203 12  97  203 12  97  203 12  97  203 12  97  203 12  97  203 12  97  203 12  97  203 12  97  203 12  97  203 12  97  203 12  97  203 12  97  203 12  97  203 12  97  203 12  97  203 12  97  203 12  97  203 12  97  203 12  97  203 12  97  203 12  97  203 12  97  203 12  97  203 12  97  203 12  97  203 12  97  203 12  97  203 12  97  203 12  97  203 12  97  203 12  97  203 12  97  203 12  97  203 12  97  203 12  97  203 12  97  203 12  97  203 12  97  203 12  97  203 12  97  203 12  97  203 12  97  203 12  97  203 12  97  203 12  97  203 12  97  203 12  97  203 12  97  203 12  97  203 12  97  203 12  97  203 12  97  203 12  97  203 12  97  203 12  97  203 255 0   0   
255 0   0   12  97  203 12  97  203 12  97  203 12  97  203 12  97  203 12  97  203 12  97  203 12  97  203 12  97  203 12  97  203 12  97  203 12  97  203 12  97  203 12  97  203 12  97  203 12  97  203 12  97  203 12  97  203 12  97  203 12  97  203 12  97  203 12  97  203 12  97  203 12  97  203 12  97  203 12  97  203 12  97  203 12  97  203 12  97  203 12  97  203 12  97  203 12  97  203 12  97  203 12  97  203 12  97  203 12  97  203 12  97  203 12  97  203 12  97  203 12  97  203 12  97  203 12  97  203 12  97  203 12  97  203 12  97  203 12  97  203 12  97  203 12  97  203 12  97  203 12  97  203 12  97  203 12  97  203 12  97  203 12  97  203 12  97  203 12  97  203 12  97  203 12  97  203 12  97  203 12  97  203 12  97  203 12  97  203 12  97  203 12  97  203 12  97  203 12  97  203 12  97  203 12  97  203 12  97  203 12  97  203 12  97  203 12  97  203 12  97  203 12  97  203 12  97  203 12  97  203 12  97  203 12  97  203 12  97  203 12  97  203 12  97  203 12  97  203 12  97  203 12  97  203 12  97  203 12  97  203 12  97  203 12  97  203 12  97  203 12  97  203 12  97  203 12  97  203 255 0   0   
255 0   0   12  97  203 12  97  203 12  97  203 12  97  203 12  97  203 12  97  203 12  97  203 12  97  203 12  97  203 12  97  203 12  97  203 12  97  203 12  97  203 12  97  203 12  97  203 12  97  203 12  97  203 12  97  203 12  97  203 12  97  203 12  97  203 12  97  203 12  97  203 12  97  203 12  97  203 12  97  203 12  97  203 12  97  203 12  97  203 12  97  203 12  97  203 12  97  203 12  97  203 12  97  203 12  97  203 12  97  203 12  97  203 12  97  203 12  97  203 12  97  203 12  97  203 12  97  203 12  97  203 12  97  203 12  97  203 12  97  203 12  97  203 12  97  203 12  97  203 12  97  203 12  97  203 12  97  203 12  97  203 12  97  203 12  97  203 12  97  203 12  97  203 12  97  203 12  97  203 12  97  203 12  97  203 12  97  203 12  97  203 12  97  203 12  97  203 12  97  203 12  97  203 12  97  203 12  97  203 12  97  203 12  97  203 12  97  203 12  97  203 12  97  203 12  97  203 12  97  203 12  97  203 12  97  203 12  97  203 12  97  203 12  97  203 12  97  203 12  97  203 12  97  203 12  97  203 12  97  203 12  97  203 12  97  203 12  97  203 12  97  203 12  97  203 12  97  203 255 0   0   
255 0   0   12  97  203 12  97  203 12  97  203 12  97  203 12  97  203 12  97  203 12  97  203 12  97  203 12  97  203 12  97  203 12  97  203 12  97  203 12  97  203 12  97  203 12  97  203 12  97  203 12  97  203 12  97  203 12  97  203 12  97  203 12  97  203 12  97  203 12  97  203 12  97  203 12  97  203 12  97  203 12  97  203 12  97  203 12  97  203 12  97  203 12  97  203 12  97  203 12  97  203 12  97  203 12  97  203 12  97  203 12  97  203 12  97  203 12  97  203 12  97  203 12  97  203 12  97  203 12  97  203 12  97  203 12  97  203 12  97  203 12  97  203 12  97  203 12  97  203 12  97  203 12  97  203 12  97  203 12  97  203 12  97  203 12  97  203 12  97  203 12  97  203 12  97  203 12  97  203 12  97  203 12  97  203 12  97  203 12  97  203 12  97  203 12  97  203 12  97  203 12  97  203 12  97  203 12  97  203 12  97  203 12  97  203 12  97  203 12  97  203 12  97  203 12  97  203 12  97  203 12  97  203 12  97  203 12  97  203 12  97  203 12  97  203 12  97  203 12  97  203 12  97  203 12  97  203 12  97  203 12  97  203 12  97  203 12  97  203 12  97  203 12  97  203 12  97  203 255 0   0   
255 0   0   12  97  203 12  97  203 12  97  203 12  97  203 12  97  203 12  97  203 12  97  203 12  97  203 12  97  203 12  97  203 12  97  203 12  97  203 12  97  203 12  97  203 12  97  203 12  97  203 12  97  203 12  97  203 12  97  203 12  97  203 12  97  203 12  97  203 12  97  203 12  97  203 12  97  203 12  97  203 12  97  203 12  97  203 12  97  203 12  97  203 12  97  203 12  97  203 12  97  203 12  97  203 12  97  203 12  97  203 12  97  203 12  97  203 12  97  203 12  97  203 12  97  203 12  97  203 12  97  203 12  97  203 12  97  203 12  97  203 12  97  203 12  97  203 12  97  203 12  97  203 12  97  203 12  97  203 12  97  203 12  97  203 12  97  203 12  97  203 12  97  203 12  97  203 12  97  203 12  97  203 12  97  203 12  97  203 12  97  203 12  97  203 12  97  203 12  97  203 12  97  203 12  97  203 12  97  203 12  97  203 12  97  203 12  97  203 12  97  203 12  97  203 12  97  203 12  97  203 12  97  203 12  97  203 12  97  203 12  97  203 12  97  203 12  97  203 12  97  203 12  97  203 12  97  203 12  97  203 12  97  203 12  97  203 12  97  203 12  97  203 12  97  203 12  97  203 255 0   0   
255 0   0   12  97  203 12  97  203 12  97  203 12  97  203 12  97  203 12  97  203 12  97  203 12  97  203 12  97  203 12  97  203 12  97  203 12  97  203 12  97  203 12  97  203 12  97  203 12  97  203 12  97  203 12  97  203 12  97  203 12  97  203 12  97  203 12  97  203 12  97  203 12  97  203 12  97  203 12  97  203 12  97  203 12  97  203 12  97  203 12  97  203 12  97  203 12  97  203 12  97  203 12  97  203 12  97  203 12  97  203 12  97  203 12  97  203 12  97  203 12  97  203 12  97  203 12  97  203 12  97  203 12  97  203 12  97  203 12  97  203 12  97  203 12  97  203 12  97  203 12  97  203 12  97  203 12  97  203 12  97  203 12  97  203 12  97  203 12  97  203 12  97  203 12  97  203 12  97  203 12  97  203 12  97  203 12  97  203 12  97  203 12  97  203 12  97  203 12  97  203 12  97  203 12  97  203 12  97  203 12  97  203 12  97  203 12  97  203 12  97  203 12  97  203 12  97  203 12  97  203 12  97  203 12  97  203 12  97  203 12  97  203 12  97  203 12  97  203 12  97  203 12  97  203 12  97  203 12  97  203 12  97  203 12  97  203 12  97  203 12  97  203 12  97  203 12  97  203 255 0   0   
255 0   0   12  97  203 12  97  203 12  97  203 12  97  203 12  97  203 12  97  203 12  97  203 12  97  203 12  97  203 12  97  203 12  97  203 12  97  203 12  97  203 12  97  203 12  97  203 12  97  203 12  97  203 12  97  203 12  97  203 12  97  203 12  97  203 12  97  203 12  97  203 12  97  203 12  97  203 12  97  203 12  97  203 12  97  203 12  97  203 12  97  203 12  97  203 12  97  203 12  97  203 12  97  203 12  97  203 12  97  203 12  97  203 12  97  203 12  97  203 12  97  203 12  97  203 12  97  203 12  97  203 12  97  203 12  97  203 12  97  203 12  97  203 12  97  203 12  97  203 12  97  203 12  97  203 12  97  203 12  97  203 12  97  203 12  97  203 12  97  203 12  97  203 12  97  203 12  97  203 12  97  203 12  97  203 12  97  203 12  97  203 12  97  203 12  97  203 12  97  203 12  97  203 12  97  203 12  97  203 12  97  203 12  97  203 12  97  203 12  97  203 12  97  203 12  97  203 12  97  203 12  97  203 12  97  203 12  97  203 12  97  203 12  97  203 12  97  203 12  97  203 12  97  203 12  97  203 12  97  203 12  97  203 12  97  203 12  97  203 12  97  203 12  97  203 12  97  203 255 0   0   
255 0   0   12  97  203 12  97  203 12  97  203 12  97  203 12  97  203 12  97  203 12  97  203 12  97  203 12  97  203 12  97  203 12  97  203 12  97  203 12  97  203 12  97  203 12  97  203 12  97  203 12  97  203 12  97  203 12  97  203 12  97  203 12  97  203 12  97  203 12  97  203 12  97  203 12  97  203 12  97  203 12  97  203 12  97  203 12  97  203 12  97  203 12  97  203 12  97  203 12  97  203 12  97  203 12  97  203 12  97  203 12  97  203 12  97  203 12  97  203 12  97  203 12  97  203 12  97  203 12  97  203 12  97  203 12  97  203 12  97  203 12  97  203 12  97  203 12  97  203 12  97  203 12  97  203 12  97  203 12  97  203 12  97  203 12  97  203 12  97  203 12  97  203 12  97  203 12  97  203 12  97  203 12  97  203 12  97  203 12  97  203 12  97  203 12  97  203 12  97  203 12  97  203 12  97  203 12  97  203 12  97  203 12  97  203 12  97  203 12  97  203 12  97  203 12  97  203 12  97  203 12  97  203 12  97  203 12  97  203 12  97  203 12  97  203 12  97  203 12  97  203 12  97  203 12  97  203 12  97  203 12  97  203 12  97  203 12  97  203 12  97  203 12  97  203 12  97  203 255 0   0   
255 0   0   12  97  203 12  97  203 12  97  203 12  97  203 12  97  203 12  97  203 12  97  203 12  97  203 12  97  203 12  97  203 12  97  203 12  97  203 12  97  203 12  97  203 12  97  203 12  97  203 12  97  203 12  97  203 12  97  203 12  97  203 12  97  203 12  97  203 12  97  203 12  97  203 12  97  203 12  97  203 12  97  203 12  97  203 12  97  203 12  97  203 12  97  203 12  97  203 12  97  203 12  97  203 12  97  203 12  97  203 12  97  203 12  97  203 12  97  203 12  97  203 12  97  203 12  97  203 12  97  203 12  97  203 12  97  203 12  97  203 12  97  203 12  97  203 12  97  203 12  97  203 12  97  203 12  97  203 12  97  203 12  97  203 12  97  203 12  97  203 12  97  203 12  97  203 12  97  203 12  97  203 12  97  203 12  97  203 12  97  203 12  97  203 12  97  203 12  97  203 12  97  203 12  97  203 12  97  203 12  97  203 12  97  203 12  97  203 12  97  203 12  97  203 12  97  203 12  97  203 12  97  203 12  97  203 12  97  203 12  97  203 12  97  203 12  97  203 12  97  203 12  97  203 12  97  203 12  97  203 12  97  203 12  97  203 12  97  203 12  97  203 12  97  203 12  97  203 255 0   0   
255 0   0   12  97  203 12  97  203 12  97  203 12  97  203 12  97  203 12  97  203 12  97  203 12  97  203 12  97  203 12  97  203 12  97  203 12  97  203 12  97  203 12  97  203 12  97  203 12  97  203 12  97  203 12  97  203 12  97  203 12  97  203 12  97  203 12  97  203 12  97  203 12  97  203 12  97  203 12  97  203 12  97  203 12  97  203 12  97  203 12  97  203 12  97  203 12  97  203 12  97  203 12  97  203 12  97  203 12  97  203 12  97  203 12  97  203 12  97  203 12  97  203 12  97  203 12  97  203 12  97  203 12  97  203 12  97  203 12  97  203 12  97  203 12  97  203 12  97  203 12  97  203 12  97  203 12  97  203 12  97  203 12  97  203 12  97  203 12  97  203 12  97  203 12  97  203 12  97  203 12  97  203 12  97  203 12  97  203 12  97  203 12  97  203 12  97  203 12  97  203 12  97  203 12  97  203 12  97  203 12  97  203 12  97  203 12  97  203 12  97  203 12  97  203 12  97  203 12  97  203 12  97  203 12  97  203 12  97  203 12  97  203 12  97  203 12  97  203 12  97  203 12  97  203 12  97  203 12  97  203 12  97  203 12  97  203 12  97  203 12  97  203 12  97  203 12  97  203 255 0   0   
255 0   0   12  97  203 12  97  203 12  97  203 12  97  203 12  97  203 12  97  203 12  97  203 12  97  203 12  97  203 12  97  203 12  97  203 12  97  203 12  97  203 12  97  203 12  97  203 12  97  203 12  97  203 12  97  203 12  97  203 12  97  203 12  97  203 12  97  203 12  97  203 12  97  203 12  97  203 12  97  203 12  97  203 12  97  203 12  97  203 12  97  203 12  97  203 12  97  203 12  97  203 12  97  203 12  97  203 12  97  203 12  97  203 12  97  203 12  97  203 12  97  203 12  97  203 12  97  203 12  97  203 12  97  203 12  97  203 12  97  203 12  97  203 12  97  203 12  97  203 12  97  203 12  97  203 12  97  203 12  97  203 12  97  203 12  97  203 12  97  203 12  97  203 12  97  203 12  97  203 12  97  203 12  97  203 12  97  203 12  97  203 12  97  203 12  97  203 12  97  203 12  97  203 12  97  203 12  97  203 12  97  203 12  97  203 12  97  203 12  97  203 12  97  203 12  97  203 12  97  203 12  97  203 12  97  203 12  97  203 12  97  203 12  97  203 12  97  203 12  97  203 12  97  203 12  97  203 12  97  203 12  97  203 12  97  203 12  97  203 12  97  203 12  97  203 12  97  203 255 0   0   
255 0   0   12  97  203 12  97  203 12  97  203 12  97  203 12  97  203 12  97  203 12  97  203 12  97  203 12  97  203 12  97  203 12  97  203 12  97  203 12  97  203 12  97  203 12  97  203 12  97  203 12  97  203 12  97  203 12  97  203 12  97  203 12  97  203 12  97  203 12  97  203 12  97  203 12  97  203 12  97  203 12  97  203 12  97  203 12  97  203 12  97  203 12  97  203 12  97  203 12  97  203 12  97  203 12  97  203 12  97  203 12  97  203 12  97  203 12  97  203 12  97  203 12  97  203 12  97  203 12  97  203 12  97  203 12  97  203 12  97  203 12  97  203 12  97  203 12  97  203 12  97  203 12  97  203 12  97  203 12  97  203 12  97  203 12  97  203 12  97  203 12  97  203 12  97  203 12  97  203 12  97  203 12  97  203 12  97  203 12  97  203 12  97  203 12  97  203 12  97  203 12  97  203 12  97  203 12  97  203 12  97  203 12  97  203 12  97  203 12  97  203 12  97  203 12  97  203 12  97  203 12  97  203 12  97  203 12  97  203 12  97  203 12  97  203 12  97  203 12  97  203 12  97  203 12  97  203 12  97  203 12  97  203 12  97  203 12  97  203 12  97  203 12  97  203 12  97  203 255 0   0   
255 0   0   12  97  203 12  97  203 12  97  203 12  97  203 12  97  203 12  97  203 12  97  203 12  97  203 12  97  203 12  97  203 12  97  203 12  97  203 12  97  203 12  97  203 12  97  203 12  97  203 12  97  203 12  97  203 12  97  203 12  97  203 12  97  203 12  97  203 12  97  203 12  97  203 12  97  203 12  97  203 12  97  203 12  97  203 12  97  203 12  97  203 12  97  203 12  97  203 12  97  203 12  97  203 12  97  203 12  97  203 12  97  203 12  97  203 12  97  203 12  97  203 12  97  203 12  97  203 12  97  203 12  97  203 12  97  203 12  97  203 12  97  203 12  97  203 12  97  203 12  97  203 12  97  203 12  97  203 12  97  203 12  97  203 12  97  203 12  97  203 12  97  203 12  97  203 12  97  203 12  97  203 12  97  203 12  97  203 12  97  203 12  97  203 12  97  203 12  97  203 12  97  203 12  97  203 12  97  203 12  97  203 12  97  203 12  97  203 12  97  203 12  97  203 12  97  203 12  97  203 12  97  203 12  97  203 12  97  203 12  97  203 12  97  203 12  97  203 12  97  203 12  97  203 12  97  203 12  97  203 12  97  203 12  97  203 12  97  203 12  97  203 12  97  203 12  97  203 255 0   0   
255 0   0   12  97  203 12  97  203 12  97  203 12  97  203 12  97  203 12  97  203 12  97  203 12  97  203 12  97  203 12  97  203 12  97  203 12  97  203 12  97  203 12  97  203 12  97  203 12  97  203 12  97  203 12  97  203 12  97  203 12  97  203 12  97  203 12  97  203 12  97  203 12  97  203 12  97  203 12  97  203 12  97  203 12  97  203 12  97  203 12  97  203 12  97  203 12  97  203 12  97  203 12  97  203 12  97  203 12  97  203 12  97  203 12  97  203 12  97  203 12  97  203 12  97  203 12  97  203 12  97  203 12  97  203 12  97  203 12  97  203 12  97  203 12  97  203 12  97  203 12  97  203 12  97  203 12  97  203 12  97  203 12  97  203 12  97  203 12  97  203 12  97  203 12  97  203 12  97  203 12  97  203 12  97  203 12  97  203 12  97  203 12  97  203 12  97  203 12  97  203 12  97  203 12  97  203 12  97  203 12  97  203 12  97  203 12  97  203 12  97  203 12  97  203 12  97  203 12  97  203 12  97  203 12  97  203 12  97  203 12  97  203 12  97  203 12  97  203 12  97  203 12  97  203 12  97  203 12  97  203 12  97  203 12  97  203 12  97  203 12  97  203 12  97  203 12  97  203 255 0   0   
255 0   0   12  97  203 12  97  203 12  97  203 12  97  203 12  97  203 12  97  203 12  97  203 12  97  203 12  97  203 12  97  203 12  97  203 12  97  203 12  97  203 12  97  203 12  97  203 12  97  203 12  97  203 12  97  203 12  97  203 12  97  203 12  97  203 12  97  203 12  97  203 12  97  203 12  97  203 12  97  203 12  97  203 12  97  203 12  97  203 12  97  203 12  97  203 12  97  203 12  97  203 12  97  203 12  97  203 12  97  203 12  97  203 12  97  203 12  97  203 12  97  203 12  97  203 12  97  203 12  97  203 12  97  203 12  97  203 12  97  203 12  97  203 12  97  203 12  97  203 12  97  203 12  97  203 12  97  203 12  97  203 12  97  203 12  97  203 12  97  203 12  97  203 12  97  203 12  97  203 12  97  203 12  97  203 12  97  203 12  97  203 12  97  203 12  97  203 12  97  203 12  97  203 12  97  203 12  97  203 12  97  203 12  97  203 12  97  203 12  97  203 12  97  203 12  97  203 12  97  203 12  97  203 12  97  203 12  97  203 12  97  203 12  97  203 12  97  203 12  97  203 12  97  203 12  97  203 12  97  203 12  97  203 12  97  203 12  97  203 12  97  203 12  97  203 12  97  203 255 0   0   
255 0   0   12  97  203 12  97  203 12  97  203 12  97  203 12  97  203 12  97  203 12  97  203 12  97  203 12  97  203 12  97  203 12  97  203 12  97  203 12  97  203 12  97  203 12  97  203 12  97  203 12  97  203 12  97  203 12  97  203 12  97  203 12  97  203 12  97  203 12  97  203 12  97  203 12  97  203 12  97  203 12  97  203 12  97  203 12  97  203 12  97  203 12  97  203 12  97  203 12  97  203 12  97  203 12  97  203 12  97  203 12  97  203 12  97  203 12  97  203 12  97  203 12  97  203 12  97  203 12  97  203 12  97  203 12  97  203 12  97  203 12  97  203 12  97  203 12  97  203 12  97  203 12  97  203 12  97  203 12  97  203 12  97  203 12  97  203 12  97  203 12  97  203 12  97  203 12  97  203 12  97  203 12  97  203 12  97  203 12  97  203 12  97  203 12  97  203 12  97  203 12  97  203 12  97  203 12  97  203 12  97  203 12  97  203 12  97  203 12  97  203 12  97  203 12  97  203 12  97  203 12  97  203 12  97  203 12  97  203 12  97  203 12  97  203 12  97  203 12  97  203 12  97  203 12  97  203 12  97  203 12  97  203 12  97  203 12  97  203 12  97  203 12  97  203 12  97  203 255 0   0   
255 0   0   12  97  203 12  97  203 12  97  203 12  97  203 12  97  203 12  97  203 12  97  203 12  97  203 12  97  203 12  97  203 12  97  203 12  97  203 12  97  203 12  97  203 12  97  203 12  97  203 12  97  203 12  97  203 12  97  203 12  97  203 12  97  203 12  97  203 12  97  203 12  97  203 12  97  203 12  97  203 12  97  203 12  97  203 12  97  203 12  97  203 12  97  203 12  97  203 12  97  203 12  97  203 12  97  203 12  97  203 12  97  203 12  97  203 12  97  203 12  97  203 12  97  203 12  97  203 12  97  203 12  97  203 12  97  203 12  97  203 12  97  203 12  97  203 12  97  203 12  97  203 12  97  203 12  97  203 12  97  203 12  97  203 12  97  203 12  97  203 12  97  203 12  97  203 12  97  203 12  97  203 12  97  203 12  97  203 12  97  203 12  97  203 12  97  203 12  97  203 12  97  203 12  97  203 12  97  203 12  97  203 12  97  203 12  97  203 12  97  203 12  97  203 12  97  203 12  97  203 12  97  203 12  97  203 12  97  203 12  97  203 12  97  203 12  97  203 12  97  203 12  97  203 12  97  203 12  97  203 12  97  203 12  97  203 12  97  203 12  97  203 12  97  203 12  97  203 255 0   0   
255 0   0   12  97  203 12  97  203 12  97  203 12  97  203 12  97  203 12  97  203 12  97  203 12  97  203 12  97  203 12  97  203 12  97  203 12  97  203 12  97  203 12  97  203 12  97  203 12  97  203 12  97  203 12  97  203 12  97  203 12  97  203 12  97  203 12  97  203 12  97  203 12  97  203 12  97  203 12  97  203 12  97  203 12  97  203 12  97  203 12  97  203 12  97  203 12  97  203 12  97  203 12  97  203 12  97  203 12  97  203 12  97  203 12  97  203 12  97  203 12  97  203 12  97  203 12  97  203 12  97  203 12  97  203 12  97  203 12  97  203 12  97  203 12  97  203 12  97  203 12  97  203 12  97  203 12  97  203 12  97  203 12  97  203 12  97  203 12  97  203 12  97  203 12  97  203 12  97  203 12  97  203 12  97  203 12  97  203 12  97  203 12  97  203 12  97  203 12  97  203 12  97  203 12  97  203 12  97  203 12  97  203 12  97  203 12  97  203 12  97  203 12  97  203 12  97  203 12  97  203 12  97  203 12  97  203 12  97  203 12  97  203 12  97  203 12  97  203 12  97  203 12  97  203 12  97  203 12  97  203 12  97  203 12  97  203 12  97  203 12  97  203 12  97  203 12  97  203 255 0   0   
255 0   0   12  97  203 12  97  203 12  97  203 12  97  203 12  97  203 12  97  203 12  97  203 12  97  203 12  97  203 12  97  203 12  97  203 12  97  203 12  97  203 12  97  203 12  97  203 12  97  203 12  97  203 12  97  203 12  97  203 12  97  203 12  97  203 12  97  203 12  97  203 12  97  203 12  97  203 12  97  203 12  97  203 12  97  203 12  97  203 12  97  203 12  97  203 12  97  203 12  97  203 12  97  203 12  97  203 12  97  203 12  97  203 12  97  203 12  97  203 12  97  203 12  97  203 12  97  203 12  97  203 12  97  203 12  97  203 12  97  203 12  97  203 12  97  203 12  97  203 12  97  203 12  97  203 12  97  203 12  97  203 12  97  203 12  97  203 12  97  203 12  97  203 12  97  203 12  97  203 12  97  203 12  97  203 12  97  203 12  97  203 12  97  203 12  97  203 12  97  203 12  97  203 12  97  203 12  97  203 12  97  203 12  97  203 12  97  203 12  97  203 12  97  203 12  97  203 12  97  203 12  97  203 12  97  203 12  97  203 12  97  203 12  97  203 12  97  203 12  97  203 12  97  203 12  97  203 12  97  203 12  97  203 12  97  203 12  97  203 12  97  203 12  97  203 12  97  203 255 0   0   
255 0   0   12  97  203 12  97  203 12  97  203 12  97  203 12  97  203 12  97  203 12  97  203 12  97  203 12  97  203 12  97  203 12  97  203 12  97  203 12  97  203 12  97  203 12  97  203 12  97  203 12  97  203 12  97  203 12  97  203 12  97  203 12  97  203 12  97  203 12  97  203 12  97  203 12  97  203 12  97  203 12  97  203 12  97  203 12  97  203 12  97  203 12  97  203 12  97  203 12  97  203 12  97  203 12  97  203 12  97  203 12  97  203 12  97  203 12  97  203 12  97  203 12  97  203 12  97  203 12  97  203 12  97  203 12  97  203 12  97  203 12  97  203 12  97  203 12  97  203 12  97  203 12  97  203 12  97  203 12  97  203 12  97  203 12  97  203 12  97  203 12  97  203 12  97  203 12  97  203 12  97  203 12  97  203 12  97  203 12  97  203 12  97  203 12  97  203 12  97  203 12  97  203 12  97  203 12  97  203 12  97  203 12  97  203 12  97  203 12  97  203 12  97  203 12  97  203 12  97  203 12  97  203 12  97  203 12  97  203 12  97  203 12  97  203 12  97  203 12  97  203 12  97  203 12  97  203 12  97  203 12  97  203 12  97  203 12  97  203 12  97  203 12  97  203 12  97  203 255 0   0   
255 0   0   12  97  203 12  97  203 12  97  203 12  97  203 12  97  203 12  97  203 12  97  203 12  97  203 12  97  203 12  97  203 12  97  203 12  97  203 12  97  203 12  97  203 12  97  203 12  97  203 12  97  203 12  97  203 12  97  203 12  97  203 12  97  203 12  97  203 12  97  203 12  97  203 12  97  203 12  97  203 12  97  203 12  97  203 12  97  203 12  97  203 12  97  203 12  97  203 12  97  203 12  97  203 12  97  203 12  97  203 12  97  203 12  97  203 12  97  203 12  97  203 12  97  203 12  97  203 12  97  203 12  97  203 12  97  203 12  97  203 12  97  203 12  97  203 12  97  203 12  97  203 12  97  203 12  97  203 12  97  203 12  97  203 12  97  203 12  97  203 12  97  203 12  97  203 12  97  203 12  97  203 12  97  203 12  97  203 12  97  203 12  97  203 12  97  203 12  97  203 12  97  203 12  97  203 12  97  203 12  97  203 12  97  203 12  97  203 12  97  203 12  97  203 12  97  203 12  97  203 12  97  203 12  97  203 12  97  203 12  97  203 12  97  203 12  97  203 12  97  203 12  97  203 12  97  203 12  97  203 12  97  203 12  97  203 12  97  203 12  97  203 12  97  203 12  97  203 255 0   0   
255 0   0   12  97  203 12  97  203 12  97  203 12  97  203 12  97  203 12  97  203 12  97  203 12  97  203 12  97  203 12  97  203 12  97  203 12  97  203 12  97  203 12  97  203 12  97  203 12  97  203 12  97  203 12  97  203 12  97  203 12  97  203 12  97  203 12  97  203 12  97  203 12  97  203 12  97  203 12  97  203 12  97  203 12  97  203 12  97  203 12  97  203 12  97  203 12  97  203 12  97  203 12  97  203 12  97  203 12  97  203 12  97  203 12  97  203 12  97  203 12  97  203 12  97  203 12  97  203 12  97  203 12  97  203 12  97  203 12  97  203 12  97  203 12  97  203 12  97  203 12  97  203 12  97  203 12  97  203 12  97  203 12  97  203 12  97  203 12  97  203 12  97  203 12  97  203 12  97  203 12  97  203 12  97  203 12  97  203 12  97  203 12  97  203 12  97  203 12  97  203 12  97  203 12  97  203 12  97  203 12  97  203 12  97  203 12  97  203 12  97  203 12  97  203 12  97  203 12  97  203 12  97  203 12  97  203 12  97  203 12  97  203 12  97  203 12  97  203 12  97  203 12  97  203 12  97  203 12  97  203 12  97  203 12  97  203 12  97  203 12  97  203 12  97  203 12  97  203 255 0   0   
255 0   0   12  97  203 12  97  203 12  97  203 12  97  203 12  97  203 12  97  203 12  97  203 12  97  203 12  97  203 12  97  203 12  97  203 12  97  203 12  97  203 12  97  203 12  97  203 12  97  203 12  97  203 12  97  203 12  97  203 12  97  203 12  97  203 12  97  203 12  97  203 12  97  203 12  97  203 12  97  203 12  97  203 12  97  203 12  97  203 12  97  203 12  97  203 12  97  203 12  97  203 12  97  203 12  97  203 12  97  203 12  97  203 12  97  203 12  97  203 12  97  203 12  97  203 12  97  203 12  97  203 12  97  203 12  97  203 12  97  203 12  97  203 12  97  203 12  97  203 12  97  203 12  97  203 12  97  203 12  97  203 12  97  203 12  97  203 12  97  203 12  97  203 12  97  203 12  97  203 12  97  203 12  97  203 12  97  203 12  97  203 12  97  203 12  97  203 12  97  203 12  97  203 12  97  203 12  97  203 12  97  203 12  97  203 12  97  203 12  97  203 12  97  203 12  97  203 12  97  203 12  97  203 12  97  203 12  97  203 12  97  203 12  97  203 12  97  203 12  97  203 12  97  203 12  97  203 12  97  203 12  97  203 12  97  203 12  97  203 12  97  203 12  97  203 12  97  203 255 0   0   
255 0   0   12  97  203 12  97  203 12  97  203 12  97  203 12  97  203 12  97  203 12  97  203 12  97  203 12  97  203 12  97  203 12  97  203 12  97  203 12  97  203 12  97  203 12  97  203 12  97  203 12  97  203 12  97  203 12  97  203 12  97  203 12  97  203 12  97  203 12  97  203 12  97  203 12  97  203 12  97  203 12  97  203 12  97  203 12  97  203 12  97  203 12  97  203 12  97  203 12  97  203 12  97  203 12  97  203 12  97  203 12  97  203 12  97  203 12  97  203 12  97  203 12  97  203 12  97  203 12  97  203 12  97  203 12  97  203 12  97  203 12  97  203 12  97  203 12  97  203 12  97  203 12  97  203 12  97  203 12  97  203 12  97  203 12  97  203 12  97  203 12  97  203 12  97  203 12  97  203 12  97  203 12  97  203 12  97  203 12  97  203 12  97  203 12  97  203 12  97  203 12  97  203 12  97  203 12  97  203 12  97  203 12  97  203 12  97  203 12  97  203 12  97  203 12  97  203 12  97  203 12  97  203 12  97  203 12  97  203 12  97  203 12  97  203 12  97  203 12  97  203 12  97  203 12  97  203 12  97  203 12  97  203 12  97  203 12  97  203 12  97  203 12  97  203 12  97  203 255 0   0   
255 0   0   12  97  203 12  97  203 12  97  203 12  97  203 12  97  203 12  97  203 12  97  203 12  97  203 12  97  203 12  97  203 12  97  203 12  97  203 12  97  203 12  97  203 12  97  203 12  97  203 12  97  203 12  97  203 12  97  203 12  97  203 12  97  203 12  97  203 12  97  203 12  97  203 12  97  203 12  97  203 12  97  203 12  97  203 12  97  203 12  97  203 12  97  203 12  97  203 12  97  203 12  97  203 12  97  203 12  97  203 12  97  203 12  97  203 12  97  203 12  97  203 12  97  203 12  97  203 12  97  203 12  97  203 12  97  203 12  97  203 12  97  203 12  97  203 12  97  203 12  97  203 12  97  203 12  97  203 12  97  203 12  97  203 12  97  203 12  97  203 12  97  203 12  97  203 12  97  203 12  97  203 12  97  203 12  97  203 12  97  203 12  97  203 12  97  203 12  97  203 12  97  203 12  97  203 12  97  203 12  97  203 12  97  203 12  97  203 12  97  203 12  97  203 12  97  203 12  97  203 12  97  203 12  97  203 12  97  203 12  97  203 12  97  203 12  97  203 12  97  203 12  97  203 12  97  203 12  97  203 12  97  203 12  97  203 12  97  203 12  97  203 12  97  203 12  97  203 255 0   0   
255 0   0   12  97  203 12  97  203 12  97  203 12  97  203 12  97  203 12  97  203 12  97  203 12  97  203 12  97  203 12  97  203 12  97  203 12  97  203 12  97  203 12  97  203 12  97  203 12  97  203 12  97  203 12  97  203 12  97  203 12  97  203 12  97  203 12  97  203 12  97  203 12  97  203 12  97  203 12  97  203 12  97  203 12  97  203 12  97  203 12  97  203 12  97  203 12  97  203 12  97  203 12  97  203 12  97  203 12  97  203 12  97  203 12  97  203 12  97  203 12  97  203 12  97  203 12  97  203 12  97  203 12  97  203 12  97  203 12  97  203 12  97  203 12  97  203 12  97  203 12  97  203 12  97  203 12  97  203 12  97  203 12  97  203 12  97  203 12  97  203 12  97  203 12  97  203 12  97  203 12  97  203 12  97  203 12  97  203 12  97  203 12  97  203 12  97  203 12  97  203 12  97  203 12  97  203 12  97  203 12  97  203 12  97  203 12  97  203 12  97  203 12  97  203 12  97  203 12  97  203 12  97  203 12  97  203 12  97  203 12  97  203 12  97  203 12  97  203 12  97  203 12  97  203 12  97  203 12  97  203 12  97  203 12  97  203 12  97  203 12  97  203 12  97  203 12  97  203 255 0   0   
255 0   0   12  97  203 12  97  203 12  97  203 12  97  203 12  97  203 12  97  203 12  97  203 12  97  203 12  97  203 12  97  203 12  97  203 12  97  203 12  97  203 12  97  203 12  97  203 12  97  203 12  97  203 12  97  203 12  97  203 12  97  203 12  97  203 12  97  203 12  97  203 12  97  203 12  97  203 12  97  203 12  97  203 12  97  203 12  97  203 12  97  203 12  97  203 12  97  203 12  97  203 12  97  203 12  97  203 12  97  203 12  97  203 12  97  203 12  97  203 12  97  203 12  97  203 12  97  203 12  97  203 12  97  203 12  97  203 12  97  203 12  97  203 12  97  203 12  97  203 12  97  203 12  97  203 12  97  203 12  97  203 12  97  203 12  97  203 12  97  203 12  97  203 12  97  203 12  97  203 12  97  203 12  97  203 12  97  203 12  97  203 12  97  203 12  97  203 12  97  203 12  97  203 12  97  203 12  97  203 12  97  203 12  97  203 12  97  203 12  97  203 12  97  203 12  97  203 12  97  203 12  97  203 12  97  203 12  97  203 12  97  203 12  97  203 12  97  203 12  97  203 12  97  203 12  97  203 12  97  203 12  97  203 12  97  203 12  97  203 12  97  203 12  97  203 12  97  203 255 0   0   
255 0   0   12  97  203 12  97  203 12  97  203 12  97  203 12  97  203 12  97  203 12  97  203 12  97  203 12  97  203 12  97  203 12  97  203 12  97  203 12  97  203 12  97  203 12  97  203 12  97  203 12  97  203 12  97  203 12  97  203 12  97  203 12  97  203 12  97  203 12  97  203 12  97  203 12  97  203 12  97  203 12  97  203 12  97  203 12  97  203 12  97  203 12  97  203 12  97  203 12  97  203 12  97  203 12  97  203 12  97  203 12  97  203 12  97  203 12  97  203 12  97  203 12  97  203 12  97  203 12  97  203 12  97  203 12  97  203 12  97  203 12  97  203 12  97  203 12  97  203 12  97  203 12  97  203 12  97  203 12  97  203 12  97  203 12  97  203 12  97  203 12  97  203 12  97  203 12  97  203 12  97  203 12  97  203 12  97  203 12  97  203 12  97  203 12  97  203 12  97  203 12  97  203 12  97  203 12  97  203 12  97  203 12  97  203 12  97  203 12  97  203 12  97  203 12  97  203 12  97  203 12  97  203 12  97  203 12  97  203 12  97  203 12  97  203 12  97  203 12  97  203 12  97  203 12  97  203 12  97  203 12  97  203 12  97  203 12  97  203 12  97  203 12  97  203 12  97  203 255 0   0   
255 0   0   12  97  203 12  97  203 12  97  203 12  97  203 12  97  203 12  97  203 12  97  203 12  97  203 12  97  203 12  97  203 12  97  203 12  97  203 12  97  203 12  97  203 12  97  203 12  97  203 12  97  203 12  97  203 12  97  203 12  97  203 12  97  203 12  97  203 12  97  203 12  97  203 12  97  203 12  97  203 12  97  203 12  97  203 12  97  203 12  97  203 12  97  203 12  97  203 12  97  203 12  97  203 12  97  203 12  97  203 12  97  203 12  97  203 12  97  203 12  97  203 12  97  203 12  97  203 12  97  203 12  97  203 12  97  203 12  97  203 12  97  203 12  97  203 12  97  203 12  97  203 12  97  203 12  97  203 12  97  203 12  97  203 12  97  203 12  97  203 12  97  203 12  97  203 12  97  203 12  97  203 12  97  203 12  97  203 12  97  203 12  97  203 12  97  203 12  97  203 12  97  203 12  97  203 12  97  203 12  97  203 12  97  203 12  97  203 12  97  203 12  97  203 12  97  203 12  97  203 12  97  203 12  97  203 12  97  203 12  97  203 12  97  203 12  97  203 12  97  203 12  97  203 12  97  203 12  97  203 12  97  203 12  97  203 12  97  203 12  97  203 12  97  203 12  97  203 255 0   0   
255 0   0   12  97  203 12  97  203 12  97  203 12  97  203 12  97  203 12  97  203 12  97  203 12  97  203 12  97  203 12  97  203 12  97  203 12  97  203 12  97  203 12  97  203 12  97  203 12  97  203 12  97  203 12  97  203 12  97  203 12  97  203 12  97  203 12  97  203 12  97  203 12  97  203 12  97  203 12  97  203 12  97  203 12  97  203 12  97  203 12  97  203 12  97  203 12  97  203 12  97  203 12  97  203 12  97  203 12  97  203 12  97  203 12  97  203 12  97  203 12  97  203 12  97  203 12  97  203 12  97  203 12  97  203 12  97  203 12  97  203 12  97  203 12  97  203 12  97  203 12  97  203 12  97  203 12  97  203 12  97  203 12  97  203 12  97  203 12  97  203 12  97  203 12  97  203 12  97  203 12  97  203 12  97  203 12  97  203 12  97  203 12  97  203 12  97  203 12  97  203 12  97  203 12  97  203 12  97  203 12  97  203 12  97  203 12  97  203 12  97  203 12  97  203 12  97  203 12  97  203 12  97  203 12  97  203 12  97  203 12  97  203 12  97  203 12  97  203 12  97  203 12  97  203 12  97  203 12  97  203 12  97  203 12  97  203 12  97  203 12  97  203 12  97  203 12  97  203 255 0   0   
255 0   0   12  97  203 12  97  203 12  97  203 12  97  203 12  97  203 12  97  203 12  97  203 12  97  203 12  97  203 12  97  203 12  97  203 12  97  203 12  97  203 12  97  203 12  97  203 12  97  203 12  97  203 12  97  203 12  97  203 12  97  203 12  97  203 12  97  203 12  97  203 12  97  203 12  97  203 12  97  203 12  97  203 12  97  203 12  97  203 12  97  203 12  97  203 12  97  203 12  97  203 12  97  203 12  97  203 12  97  203 12  97  203 12  97  203 12  97  203 12  97  203 12  97  203 12  97  203 12  97  203 12  97  203 12  97  203 12  97  203 12  97  203 12  97  203 12  97  203 12  97  203 12  97  203 12  97  203 12  97  203 12  97  203 12  97  203 12  97  203 12  97  203 12  97  203 12  97  203 12  97  203 12  97  203 12  97  203 12  97  203 12  97  203 12  97  203 12  97  203 12  97  203 12  97  203 12  97  203 12  97  203 12  97  203 12  97  203 12  97  203 12  97  203 12  97  203 12  97  203 12  97  203 12  97  203 12  97  203 12  97  203 12  97  203 12  97  203 12  97  203 12  97  203 12  97  203 12  97  203 12  97  203 12  97  203 12  97  203 12  97  203 12  97  203 12  97  203 255 0   0   
255 0   0   12  97  203 12  97  203 12  97  203 12  97  203 12  97  203 12  97  203 12  97  203 12  97  203 12  97  203 12  97  203 12  97  203 12  97  203 12  97  203 12  97  203 12  97  203 12  97  203 12  97  203 12  97  203 12  97  203 12  97  203 12  97  203 12  97  203 12  97  203 12  97  203 12  97  203 12  97  203 12  97  203 12  97  203 12  97  203 12  97  203 12  97  203 12  97  203 12  97  203 12  97  203 12  97  203 12  97  203 12  97  203 12  97  203 12  97  203 12  97  203 12  97  203 12  97  203 12  97  203 12  97  203 12  97  203 12  97  203 12  97  203 12  97  203 12  97  203 12  97  203 12  97  203 12  97  203 12  97  203 12  97  203 12  97  203 12  97  203 12  97  203 12  97  203 12  97  203 12  97  203 12  97  203 12  97  203 12  97  203 12  97  203 12  97  203 12  97  203 12  97  203 12  97  203 12  97  203 12  97  203 12  97  203 12  97  203 12  97  203 12  97  203 12  97  203 12  97  203 12  97  203 12  97  203 12  97  203 12  97  203 12  97  203 12  97  203 12  97  203 12  97  203 12  97  203 12  97  203 12  97  203 12  97  203 12  97  203 12  97  203 12  97  203 12  97  203 255 0   0   
255 0   0   12  97  203 12  97  203 12  97  203 12  97  203 12  97  203 12  97  203 12  97  203 12  97  203 12  97  203 12  97  203 12  97  203 12  97  203 12  97  203 12  97  203 12  97  203 12  97  203 12  97  203 12  97  203 12  97  203 12  97  203 12  97  203 12  97  203 12  97  203 12  97  203 12  97  203 12  97  203 12  97  203 12  97  203 12  97  203 12  97  203 12  97  203 12  97  203 12  97  203 12  97  203 12  97  203 12  97  203 12  97  203 12  97  203 12  97  203 12  97  203 12  97  203 12  97  203 12  97  203 12  97  203 12  97  203 12  97  203 12  97  203 12  97  203 12  97  203 12  97  203 12  97  203 12  97  203 12  97  203 12  97  203 12  97  203 12  97  203 12  97  203 12  97  203 12  97  203 12  97  203 12  97  203 12  97  203 12  97  203 12  97  203 12  97  203 12  97  203 12  97  203 12  97  203 12  97  203 12  97  203 12  97  203 12  97  203 12  97  203 12  97  203 12  97  203 12  97  203 12  97  203 12  97  203 12  97  203 12  97  203 12  97  203 12  97  203 12  97  203 12  97  203 12  97  203 12  97  203 12  97  203 12  97  203 12  97  203 12  97  203 12  97  203 12  97  203 255 0   0   
255 0   0   12  97  203 12  97  203 12  97  203 12  97  203 12  97  203 12  97  203 12  97  203 12  97  203 12  97  203 12  97  203 12  97  203 12  97  203 12  97  203 12  97  203 12  97  203 12  97  203 12  97  203 12  97  203 12  97  203 12  97  203 12  97  203 12  97  203 12  97  203 12  97  203 12  97  203 12  97  203 12  97  203 12  97  203 12  97  203 12  97  203 12  97  203 12  97  203 12  97  203 12  97  203 12  97  203 12  97  203 12  97  203 12  97  203 12  97  203 12  97  203 12  97  203 12  97  203 12  97  203 12  97  203 12  97  203 12  97  203 12  97  203 12  97  203 12  97  203 12  97  203 12  97  203 12  97  203 12  97  203 12  97  203 12  97  203 12  97  203 12  97  203 12  97  203 12  97  203 12  97  203 12  97  203 12  97  203 12  97  203 12  97  203 12  97  203 12  97  203 12  97  203 12  97  203 12  97  203 12  97  203 12  97  203 12  97  203 12  97  203 12  97  203 12  97  203 12  97  203 12  97  203 12  97  203 12  97  203 12  97  203 12  97  203 12  97  203 12  97  203 12  97  203 12  97  203 12  97  203 12  97  203 12  97  203 12  97  203 12  97  203 12  97  203 12  97  203 255 0   0   
255 0   0   12  97  203 12  97  203 12  97  203 12  97  203 12  97  203 12  97  203 12  97  203 12  97  203 12  97  203 12  97  203 12  97  203 12  97  203 12  97  203 12  97  203 12  97  203 12  97  203 12  97  203 12  97  203 12  97  203 12  97  203 12  97  203 12  97  203 12  97  203 12  97  203 12  97  203 12  97  203 12  97  203 12  97  203 12  97  203 12  97  203 12  97  203 12  97  203 12  97  203 12  97  203 12  97  203 12  97  203 12  97  203 12  97  203 12  97  203 12  97  203 12  97  203 12  97  203 12  97  203 12  97  203 12  97  203 12  97  203 12  97  203 12  97  203 12  97  203 12  97  203 12  97  203 12  97  203 12  97  203 12  97  203 12  97  203 12  97  203 12  97  203 12  97  203 12  97  203 12  97  203 12  97  203 12  97  203 12  97  203 12  97  203 12  97  203 12  97  203 12  97  203 12  97  203 12  97  203 12  97  203 12  97  203 12  97  203 12  97  203 12  97  203 12  97  203 12  97  203 12  97  203 12  97  203 12  97  203 12  97  203 12  97  203 12  97  203 12  97  203 12  97  203 12  97  203 12  97  203 12  97  203 12  97  203 12  97  203 12  97  203 12  97  203 12  97  203 255 0   0   
255 0   0   12  97  203 12  97  203 12  97  203 12  97  203 12  97  203 12  97  203 12  97  203 12  97  203 12  97  203 12  97  203 12  97  203 12  97  203 12  97  203 12  97  203 12  97  203 12  97  203 12  97  203 12  97  203 12  97  203 12  97  203 12  97  203 12  97  203 12  97  203 12  97  203 12  97  203 12  97  203 12  97  203 12  97  203 12  97  203 12  97  203 12  97  203 12  97  203 12  97  203 12  97  203 12  97  203 12  97  203 12  97  203 12  97  203 12  97  203 12  97  203 12  97  203 12  97  203 12  97  203 12  97  203 12  97  203 12  97  203 12  97  203 12  97  203 12  97  203 12  97  203 12  97  203 12  97  203 12  97  203 12  97  203 12  97  203 12  97  203 12  97  203 12  97  203 12  97  203 12  97  203 12  97  203 12  97  203 12  97  203 12  97  203 12  97  203 12  97  203 12  97  203 12  97  203 12  97  203 12  97  203 12  97  203 12  97  203 12  97  203 12  97  203 12  97  203 12  97  203 12  97  203 12  97  203 12  97  203 12  97  203 12  97  203 12  97  203 12  97  203 12  97  203 12  97  203 12  97  203 12  97  203 12  97  203 12  97  203 12  97  203 12  97  203 12  97  203 255 0   0   
255 0   0   12  97  203 12  97  203 12  97  203 12  97  203 12  97  203 12  97  203 12  97  203 12  97  203 12  97  203 12  97  203 12  97  203 12  97  203 12  97  203 12  97  203 12  97  203 12  97  203 12  97  203 12  97  203 12  97  203 12  97  203 12  97  203 12  97  203 12  97  203 12  97  203 12  97  203 12  97  203 12  97  203 12  97  203 12  97  203 12  97  203 12  97  203 12  97  203 12  97  203 12  97  203 12  97  203 12  97  203 12  97  203 12  97  203 12  97  203 12  97  203 12  97  203 12  97  203 12  97  203 12  97  203 12  97  203 12  97  203 12  97  203 12  97  203 12  97  203 12  97  203 12  97  203 12  97  203 12  97  203 12  97  203 12  97  203 12  97  203 12  97  203 12  97  203 12  97  203 12  97  203 12  97  203 12  97  203 12  97  203 12  97  203 12  97  203 12  97  203 12  97  203 12  97  203 12  97  203 12  97  203 12  97  203 12  97  203 12  97  203 12  97  203 12  97  203 12  97  203 12  97  203 12  97  203 12  97  203 12  97  203 12  97  203 12  97  203 12  97  203 12  97  203 12  97  203 12  97  203 12  97  203 12  97  203 12  97  203 12  97  203 12  97  203 12  97  203 255 0   0   
255 0   0   12  97  203 12  97  203 12  97  203 12  97  203 12  97  203 12  97  203 12  97  203 12  97  203 12  97  203 12  97  203 12  97  203 12  97  203 12  97  203 12  97  203 12  97  203 12  97  203 12  97  203 12  97  203 12  97  203 12  97  203 12  97  203 12  97  203 12  97  203 12  97  203 12  97  203 12  97  203 12  97  203 12  97  203 12  97  203 12  97  203 12  97  203 12  97  203 12  97  203 12  97  203 12  97  203 12  97  203 12  97  203 12  97  203 12  97  203 12  97  203 12  97  203 12  97  203 12  97  203 12  97  203 12  97  203 12  97  203 12  97  203 12  97  203 12  97  203 12  97  203 12  97  203 12  97  203 12  97  203 12  97  203 12  97  203 12  97  203 12  97  203 12  97  203 12  97  203 12  97  203 12  97  203 12  97  203 12  97  203 12  97  203 12  97  203 12  97  203 12  97  203 12  97  203 12  97  203 12  97  203 12  97  203 12  97  203 12  97  203 12  97  203 12  97  203 12  97  203 12  97  203 12  97  203 12  97  203 12  97  203 12  97  203 12  97  203 12  97  203 12  97  203 12  97  203 12  97  203 12  97  203 12  97  203 12  97  203 12  97  203 12  97  203 12  97  203 255 0   0   
255 0   0   12  97  203 12  97  203 12  97  203 12  97  203 12  97  203 12  97  203 12  97  203 12  97  203 12  97  203 12  97  203 12  97  203 12  97  203 12  97  203 12  97  203 12  97  203 12  97  203 12  97  203 12  97  203 12  97  203 12  97  203 12  97  203 12  97  203 12  97  203 12  97  203 12  97  203 12  97  203 12  97  203 12  97  203 12  97  203 12  97  203 12  97  203 12  97  203 12  97  203 12  97  203 12  97  203 12  97  203 12  97  203 12  97  203 12  97  203 12  97  203 12  97  203 12  97  203 12  97  203 12  97  203 12  97  203 12  97  203 12  97  203 12  97  203 12  97  203 12  97  203 12  97  203 12  97  203 12  97  203 12  97  203 12  97  203 12  97  203 12  97  203 12  97  203 12  97  203 12  97  203 12  97  203 12  97  203 12  97  203 12  97  203 12  97  203 12  97  203 12  97  203 12  97  203 12  97  203 12  97  203 12  97  203 12  97  203 12  97  203 12  97  203 12  97  203 12  97  203 12  97  203 12  97  203 12  97  203 12  97  203 12  97  203 12  97  203 12  97  203 12  97  203 12  97  203 12  97  203 12  97  203 12  97  203 12  97  203 12  97  203 12  97  203 12  97  203 255 0   0   
255 0   0   12  97  203 12  97  203 12  97  203 12  97  203 12  97  203 12  97  203 12  97  203 12  97  203 12  97  203 12  97  203 12  97  203 12  97  203 12  97  203 12  97  203 12  97  203 12  97  203 12  97  203 12  97  203 12  97  203 12  97  203 12  97  203 12  97  203 12  97  203 12  97  203 12  97  203 12  97  203 12  97  203 12  97  203 12  97  203 12  97  203 12  97  203 12  97  203 12  97  203 12  97  203 12  97  203 12  97  203 12  97  203 12  97  203 12  97  203 12  97  203 12  97  203 12  97  203 12  97  203 12  97  203 12  97  203 12  97  203 12  97  203 12  97  203 12  97  203 12  97  203 12  97  203 12  97  203 12  97  203 12  97  203 12  97  203 12  97  203 12  97  203 12  97  203 12  97  203 12  97  203 12  97  203 12  97  203 12  97  203 12  97  203 12  97  203 12  97  203 12  97  203 12  97  203 12  97  203 12  97  203 12  97  203 12  97  203 12  97  203 12  97  203 12  97  203 12  97  203 12  97  203 12  97  203 12  97  203 12  97  203 12  97  203 12  97  203 12  97  203 12  97  203 12  97  203 12  97  203 12  97  203 12  97  203 12  97  203 12  97  203 12  97  203 12  97  203 255 0   0   
255 0   0   12  97  203 12  97  203 12  97  203 12  97  203 12  97  203 12  97  203 12  97  203 12  97  203 12  97  203 12  97  203 12  97  203 12  97  203 12  97  203 12  97  203 12  97  203 12  97  203 12  97  203 12  97  203 12  97  203 12  97  203 12  97  203 12  97  203 12  97  203 12  97  203 12  97  203 12  97  203 12  97  203 12  97  203 12  97  203 12  97  203 12  97  203 12  97  203 12  97  203 12  97  203 12  97  203 12  97  203 12  97  203 12  97  203 12  97  203 12  97  203 12  97  203 12  97  203 12  97  203 12  97  203 12  97  203 12  97  203 12  97  203 12  97  203 12  97  203 12  97  203 12  97  203 12  97  203 12  97  203 12  97  203 12  97  203 12  97  203 12  97  203 12  97  203 12  97  203 12  97  203 12  97  203 12  97  203 12  97  203 12  97  203 12  97  203 12  97  203 12  97  203 12  97  203 12  97  203 12  97  203 12  97  203 12  97  203 12  97  203 12  97  203 12  97  203 12  97  203 12  97  203 12  97  203 12  97  203 12  97  203 12  97  203 12  97  203 12  97  203 12  97  203 12  97  203 12  97  203 12  97  203 12  97  203 12  97  203 12  97  203 12  97  203 12  97  203 255 0   0   
255 0   0   12  97  203 12  97  203 12  97  203 12  97  203 12  97  203 12  97  203 12  97  203 12  97  203 12  97  203 12  97  203 12  97  203 12  97  203 12  97  203 12  97  203 12  97  203 12  97  203 12  97  203 12  97  203 12  97  203 12  97  203 12  97  203 12  97  203 12  97  203 12  97  203 12  97  203 12  97  203 12  97  203 12  97  203 12  97  203 12  97  203 12  97  203 12  97  203 12  97  203 12  97  203 12  97  203 12  97  203 12  97  203 12  97  203 12  97  203 12  97  203 12  97  203 12  97  203 12  97  203 12  97  203 12  97  203 12  97  203 12  97  203 12  97  203 12  97  203 12  97  203 12  97  203 12  97  203 12  97  203 12  97  203 12  97  203 12  97  203 12  97  203 12  97  203 12  97  203 12  97  203 12  97  203 12  97  203 12  97  203 12  97  203 12  97  203 12  97  203 12  97  203 12  97  203 12  97  203 12  97  203 12  97  203 12  97  203 12  97  203 12  97  203 12  97  203 12  97  203 12  97  203 12  97  203 12  97  203 12  97  203 12  97  203 12  97  203 12  97  203 12  97  203 12  97  203 12  97  203 12  97  203 12  97  203 12  97  203 12  97  203 12  97  203 12  97  203 255 0   0   
255 0   0   12  97  203 12  97  203 12  97  203 12  97  203 12  97  203 12  97  203 12  97  203 12  97  203 12  97  203 12  97  203 12  97  203 12  97  203 12  97  203 12  97  203 12  97  203 12  97  203 12  97  203 12  97  203 12  97  203 12  97  203 12  97  203 12  97  203 12  97  203 12  97  203 12  97  203 12  97  203 12  97  203 12  97  203 12  97  203 12  97  203 12  97  203 12  97  203 12  97  203 12  97  203 12  97  203 12  97  203 12  97  203 12  97  203 12  97  203 12  97  203 12  97  203 12  97  203 12  97  203 12  97  203 12  97  203 12  97  203 12  97  203 12  97  203 12  97  203 12  97  203 12  97  203 12  97  203 12  97  203 12  97  203 12  97  203 12  97  203 12  97  203 12  97  203 12  97  203 12  97  203 12  97  203 12  97  203 12  97  203 12  97  203 12  97  203 12  97  203 12  97  203 12  97  203 12  97  203 12  97  203 12  97  203 12  97  203 12  97  203 12  97  203 12  97  203 12  97  203 12  97  203 12  97  203 12  97  203 12  97  203 12  97  203 12  97  203 12  97  203 12  97  203 12  97  203 12  97  203 12  97  203 12  97  203 12  97  203 12  97  203 12  97  203 12  97  203 255 0   0   
255 0   0   255 0   0   255 0   0   255 0   0   255 0   0   255 0   0   255 0   0   255 0   0   255 0   0   255 0   0   255 0   0   255 0   0   255 0   0   255 0   0   255 0   0   255 0   0   255 0   0   255 0   0   255 0   0   255 0   0   255 0   0   255 0   0   255 0   0   255 0   0   255 0   0   255 0   0   255 0   0   255 0   0   255 0   0   255 0   0   255 0   0   255 0   0   255 0   0   255 0   0   255 0   0   255 0   0   255 0   0   255 0   0   255 0   0   255 0   0   255 0   0   255 0   0   255 0   0   255 0   0   255 0   0   255 0   0   255 0   0   255 0   0   255 0   0   255 0   0   255 0   0   255 0   0   255 0   0   255 0   0   255 0   0   255 0   0   255 0   0   255 0   0   255 0   0   255 0   0   255 0   0   255 0   0   255 0   0   255 0   0   255 0   0   255 0   0   255 0   0   255 0   0   255 0   0   255 0   0   255 0   0   255 0   0   255 0   0   255 0   0   255 0   0   255 0   0   255 0   0   255 0   0   255 0   0   255 0   0   255 0   0   255 0   0   255 0   0   255 0   0   255 0   0   255 0   0   255 0   0   255 0   0   255 0   0   255 0   0   255 0   0   255 0   0   255 0   0   255 0   0   
